P2
#CreatedbyGIMPversion2.10.24PNMplug-in
256 256
255
173 173 176 176 178 181 181 181 183 183 186 186 187 187 187 187 192 192 192 192 194 191 191 191 195 195 200 200 203 203 203 203 204 204 204 204 206 206 206 205 205 205 205 206 206 206 207 207 208 208 208 208 210 210 213 213 210 210 210 214 216 219 219 219 219 222 222 222 225 225 225 225 219 224 224 219 221 225 225 221 224 227 227 227 230 230 230 230 223 223 223 239 238 238 230 230 231 245 245 231 229 248 248 229 234 234 234 234 243 243 243 232 229 229 229 229 240 240 225 225 234 234 232 232 231 231 230 230 228 228 228 227 226 226 226 226 225 225 227 227 227 227 227 227 228 228 224 228 227 227 224 224 225 225 225 225 224 224 224 224 222 222 222 223 223 224 224 224 222 222 219 219 219 219 222 222 222 222 222 222 221 221 221 221 221 221 217 217 215 215 218 218 214 214 218 218 215 215 215 215 212 213 213 213 212 212 212 212 211 211 208 208 208 205 205 208 203 204 204 204 203 203 203 203 203 200 200 200 199 199 199 199 197 200 200 200 201 195 195 195 196 196 196 196 190 190 190 190 190 190 193 193 193 193 192 192 
173 176 176 176 181 181 181 181 183 186 186 186 187 187 187 187 188 188 188 192 191 194 194 194 195 195 200 200 203 203 203 203 204 204 204 204 206 206 206 206 205 205 206 206 206 207 207 207 208 208 208 211 210 213 213 213 214 214 214 214 216 219 216 216 219 219 219 222 222 222 222 222 219 224 224 224 221 225 225 221 224 224 224 227 228 230 230 230 239 239 239 223 230 238 238 230 231 231 231 245 248 229 229 248 234 245 245 245 232 232 232 232 229 240 240 229 225 225 240 240 234 234 234 232 231 231 231 230 228 228 228 228 229 229 229 229 225 227 227 227 227 227 227 227 228 224 224 228 227 227 224 227 225 225 225 225 224 224 224 224 223 223 223 223 224 224 224 224 222 222 222 219 219 222 222 222 222 222 222 217 221 221 221 221 221 221 217 217 218 218 218 218 218 218 218 218 215 212 212 212 213 213 213 213 212 212 212 212 211 211 211 211 208 208 208 208 204 204 204 204 203 203 203 203 203 203 203 200 201 201 201 201 200 197 197 197 195 195 195 195 191 191 196 196 195 190 190 190 190 190 193 193 193 193 193 192 
176 176 176 176 181 181 181 181 186 186 186 186 187 187 187 186 188 188 188 188 191 194 194 194 195 200 200 200 203 203 203 202 201 201 204 204 206 206 206 206 206 206 206 206 207 207 207 207 211 211 211 211 213 213 213 213 214 214 214 214 216 219 216 216 219 219 222 222 222 222 222 222 219 224 224 224 225 225 225 221 227 227 227 227 228 228 228 230 223 223 239 239 238 238 238 238 245 245 245 231 229 248 248 229 245 234 234 234 243 243 243 232 229 229 240 240 240 240 240 225 234 234 234 234 231 231 231 231 228 228 228 228 229 229 229 229 225 227 227 227 227 227 227 227 228 224 224 228 227 227 224 227 225 225 225 225 224 221 221 221 223 223 223 223 224 224 224 224 222 222 222 222 222 222 222 222 222 222 217 217 218 221 221 221 221 221 221 221 218 218 218 218 218 218 218 218 215 212 212 212 213 213 213 213 212 212 212 210 211 211 211 211 208 208 208 208 204 204 204 204 203 203 203 201 203 203 203 203 201 201 201 201 200 200 197 197 195 195 201 201 191 191 196 196 195 195 195 195 190 193 193 193 193 193 193 193 
173 173 173 176 178 178 181 181 186 186 186 186 187 187 187 186 192 192 192 192 191 191 194 194 200 200 200 200 203 203 203 202 201 201 204 204 206 206 206 206 206 206 206 206 207 207 207 207 211 211 211 211 213 213 213 213 214 214 214 214 219 219 219 219 222 222 222 222 225 225 225 225 224 224 224 224 225 225 225 225 227 227 227 227 230 230 230 230 239 223 223 239 238 238 230 230 245 231 231 245 248 248 248 248 245 245 245 245 243 243 243 232 240 240 229 240 225 225 225 240 234 234 234 234 231 231 231 231 228 228 228 228 229 229 229 229 227 227 227 227 227 227 227 226 228 224 224 228 227 224 224 227 225 225 225 223 221 221 221 221 223 223 223 223 224 224 224 224 222 222 222 222 222 222 222 222 222 217 217 217 218 221 221 221 217 217 221 221 218 218 215 215 214 214 218 218 215 215 215 215 213 213 213 213 212 212 210 210 208 208 211 211 208 208 205 205 204 204 204 204 203 203 201 201 203 203 203 203 201 201 201 201 200 200 200 200 201 201 201 201 196 196 196 196 195 195 195 195 193 193 193 193 193 193 193 193 
174 174 174 176 177 177 182 182 186 186 186 186 187 187 187 187 193 193 193 193 192 192 197 197 200 200 200 200 203 203 203 203 203 203 203 203 206 206 209 209 207 208 208 208 209 209 209 209 211 211 211 211 214 214 214 214 216 216 216 216 219 222 222 222 223 226 226 226 225 225 225 225 223 226 226 226 225 228 228 225 229 229 229 229 229 232 232 232 229 229 243 243 237 237 237 237 162 162 162 162 18 18 18 18 142 142 142 142 200 200 200 200 235 235 235 235 247 247 247 247 239 236 236 236 236 234 234 234 228 228 228 228 228 228 228 228 226 227 227 227 227 227 227 227 226 226 226 226 224 219 219 224 222 222 222 222 223 223 223 223 221 221 221 221 222 222 222 222 220 222 222 222 222 222 222 220 222 217 217 217 218 218 218 218 216 216 216 216 215 215 212 212 213 213 217 217 216 216 216 216 213 213 213 213 212 212 210 210 208 208 211 211 208 208 205 205 204 204 204 204 203 203 201 201 199 199 199 199 197 197 197 197 199 199 199 199 200 200 200 200 199 199 199 195 195 195 195 195 192 192 192 192 191 191 191 191 
176 176 176 176 177 182 182 182 186 186 186 186 190 190 190 190 193 193 193 193 197 197 197 197 200 200 200 200 203 205 205 205 203 203 203 206 206 206 209 209 208 208 208 208 209 210 210 210 211 211 211 211 212 214 214 214 220 220 220 220 219 222 219 219 223 223 223 226 225 225 223 223 223 226 226 226 225 228 228 225 226 226 229 229 229 229 229 229 243 243 243 229 237 237 237 237 162 162 16 16 18 4 4 18 6 6 6 6 9 9 200 200 235 235 235 235 237 237 237 237 239 239 239 236 236 236 236 236 232 228 228 228 228 228 227 227 227 227 227 227 227 227 227 225 226 226 226 226 224 219 219 224 222 222 222 222 223 223 223 223 220 220 221 221 221 222 222 222 222 222 222 222 222 222 222 222 222 222 217 217 218 218 218 218 215 216 216 216 215 215 212 212 217 217 217 217 216 214 214 214 213 213 213 213 212 212 212 210 211 211 211 211 208 208 208 208 204 204 204 204 203 203 203 201 199 199 199 197 197 197 197 197 195 199 199 199 200 200 200 193 199 199 199 195 190 190 190 195 192 192 192 190 191 191 191 191 
176 176 176 176 177 182 182 182 183 183 186 186 190 190 190 190 190 190 190 193 192 197 197 197 200 200 200 200 203 205 205 205 206 206 206 206 206 209 209 209 208 208 208 208 210 210 210 210 210 211 211 211 212 214 214 214 220 220 220 220 222 222 219 219 223 223 226 226 225 225 223 223 223 226 226 226 225 228 228 225 226 226 226 229 229 229 232 232 243 229 229 243 237 237 52 52 16 16 16 16 4 4 4 4 6 6 6 6 9 9 9 9 41 41 235 235 247 247 237 237 239 239 239 239 236 236 236 236 232 232 232 232 228 228 227 227 227 227 227 227 227 227 227 225 226 222 222 222 219 219 224 224 226 226 226 226 223 223 223 223 221 221 221 221 222 222 222 222 222 222 222 220 220 222 222 222 222 222 217 217 218 218 218 216 216 216 216 216 215 215 212 212 217 217 217 217 216 214 214 216 213 213 213 213 212 212 212 212 211 211 211 211 208 208 208 208 204 204 204 204 203 203 203 203 199 199 199 197 197 197 197 197 195 195 195 195 193 193 193 193 195 199 199 195 195 190 190 190 192 192 190 190 188 188 191 191 
176 174 174 174 177 177 182 182 183 183 186 186 190 190 190 190 190 190 193 193 192 192 192 192 199 199 200 200 203 205 205 205 206 206 206 206 206 209 209 209 208 208 208 208 210 210 210 210 210 210 211 211 212 212 214 214 220 220 216 220 222 222 222 222 226 226 226 226 225 225 225 225 223 226 226 226 225 228 228 225 226 229 229 229 232 232 232 232 229 243 243 229 52 52 52 52 16 16 16 16 4 4 4 4 6 6 6 6 9 9 9 9 41 41 41 41 247 247 247 247 239 239 239 239 236 236 236 236 232 232 232 232 228 228 228 227 227 227 227 227 227 227 225 225 222 222 222 222 219 219 224 224 226 226 226 226 223 223 223 222 221 221 221 221 222 222 222 222 222 222 222 220 220 222 222 222 222 222 222 217 218 218 218 216 216 216 216 216 215 215 215 215 213 213 217 217 216 216 216 216 212 213 213 213 212 212 212 212 211 211 208 208 208 205 205 208 203 204 204 204 203 203 203 203 199 199 199 197 197 197 197 197 199 199 195 195 193 193 193 193 195 199 199 199 195 195 190 190 192 192 190 190 188 188 188 191 
175 177 177 175 177 177 183 183 185 189 189 189 190 190 190 190 193 193 190 190 192 192 198 198 203 199 199 203 205 205 205 202 204 204 205 205 207 210 210 210 208 208 208 208 208 208 210 210 213 213 213 213 214 214 214 214 220 216 216 220 221 217 217 221 228 228 228 226 224 224 224 227 227 227 227 227 227 227 227 225 225 226 226 226 230 230 233 233 214 214 214 48 5 17 5 17 12 12 6 6 3 3 3 3 3 3 7 7 2 2 6 6 1 13 13 1 196 196 196 196 237 237 237 237 238 219 238 219 231 231 229 229 229 229 229 230 228 228 224 224 224 224 228 228 223 223 223 223 224 226 226 226 226 226 226 226 222 222 222 225 223 223 223 223 223 223 223 223 223 223 223 222 221 221 221 221 220 220 218 218 218 218 218 219 217 217 217 217 218 218 215 215 218 218 218 218 218 218 211 211 212 212 212 212 211 211 211 211 210 207 207 207 208 208 208 208 207 207 207 204 205 202 202 202 201 201 201 199 198 197 198 198 198 198 198 197 197 197 197 197 195 195 192 192 194 194 194 194 188 193 193 193 187 187 187 190 
177 177 177 177 177 177 183 183 185 189 189 189 188 188 190 190 193 193 193 193 192 192 198 198 199 203 203 203 205 205 205 205 205 205 205 205 207 210 210 210 208 208 208 208 208 208 210 210 211 211 211 213 212 214 214 214 220 216 216 220 221 217 217 221 228 228 228 228 224 224 227 227 227 227 227 227 227 227 227 225 225 226 226 226 230 230 233 233 214 214 48 48 5 17 5 17 12 12 6 6 7 7 7 3 3 3 7 3 2 2 2 6 13 1 1 13 16 16 196 196 237 199 237 237 219 238 238 238 231 231 231 229 229 229 230 230 228 228 228 228 228 228 228 228 226 226 223 223 224 226 226 226 224 226 226 226 225 222 225 225 223 223 223 223 223 223 223 223 223 223 223 222 221 221 221 221 220 220 220 218 218 218 219 219 217 217 217 217 218 218 218 215 218 214 214 218 218 218 218 211 212 212 212 212 211 211 211 211 210 210 207 207 208 208 204 204 207 207 207 207 205 205 202 202 201 201 201 199 198 198 198 198 198 198 198 197 197 197 197 197 195 195 192 192 194 194 194 191 193 193 193 188 187 187 190 190 
177 177 177 177 177 177 183 183 185 185 189 189 188 188 190 190 193 193 193 193 192 198 198 198 199 203 203 203 202 202 205 205 205 205 205 205 207 207 210 210 208 208 208 208 208 210 210 210 211 211 213 213 212 214 214 214 216 216 216 220 221 221 221 221 228 228 228 228 227 227 227 227 227 227 227 227 227 227 227 225 226 226 226 226 230 233 233 233 214 214 48 48 17 17 5 17 12 12 12 6 7 7 7 7 3 7 7 7 6 2 2 2 13 1 13 1 16 16 16 196 199 237 199 237 238 219 238 238 231 231 231 229 230 230 230 230 224 224 228 228 228 228 224 224 226 226 226 226 226 226 226 226 224 226 226 226 225 225 225 225 223 223 223 223 223 223 223 223 223 223 223 223 221 221 221 221 220 220 220 218 219 219 219 219 217 214 214 217 218 218 215 215 214 214 214 218 218 218 218 211 212 212 212 212 211 211 211 211 210 210 210 207 208 208 204 204 207 207 207 204 205 205 205 205 201 201 201 199 198 198 198 198 198 198 198 197 197 197 197 197 195 195 192 195 194 194 194 191 193 193 188 188 187 190 190 190 
177 177 177 177 177 177 183 183 185 189 189 189 190 190 190 190 190 193 193 193 198 198 198 198 199 203 203 203 202 202 205 205 205 205 205 205 207 207 210 210 208 208 208 208 208 210 210 210 213 213 213 213 214 214 214 214 216 216 220 220 221 221 221 221 226 228 228 228 227 227 227 227 227 227 227 227 227 227 227 225 226 226 226 226 230 233 233 233 214 214 48 48 5 17 17 5 12 12 6 6 7 7 7 7 7 7 7 7 6 6 6 6 1 13 1 13 16 16 16 16 199 237 199 199 219 219 219 238 231 231 231 231 230 230 230 230 224 224 228 228 228 228 224 224 226 226 226 226 226 226 226 226 224 226 226 226 225 225 225 225 223 223 223 223 223 223 223 223 223 223 223 223 221 221 221 221 220 220 220 220 219 219 219 219 217 214 214 214 215 218 215 215 218 218 218 214 218 218 211 211 212 212 212 212 211 211 211 211 210 210 210 207 208 208 208 204 207 207 204 204 202 205 205 205 201 201 201 199 198 198 198 198 198 198 197 197 196 196 197 197 195 195 195 195 194 194 194 191 193 193 188 188 190 190 190 190 
175 175 179 179 179 179 182 182 185 190 190 190 191 191 194 194 189 189 195 195 195 195 195 198 201 201 201 201 204 204 204 201 206 206 206 206 208 208 208 208 210 210 209 209 210 210 211 211 214 214 214 214 216 216 216 216 218 218 221 221 221 221 221 221 220 225 225 225 225 225 227 227 227 227 227 227 227 227 227 225 226 226 226 226 231 231 238 238 214 214 13 13 1 10 10 10 5 5 5 5 4 10 10 10 7 7 7 7 8 8 8 5 16 3 3 16 0 0 15 0 17 197 197 197 83 83 208 208 234 234 232 232 231 231 232 232 227 228 228 228 228 228 228 227 226 226 226 229 228 228 228 228 225 225 225 227 227 227 227 227 224 224 224 224 224 224 224 224 224 224 224 223 223 223 222 222 223 223 221 221 220 220 221 221 220 220 220 220 220 220 220 220 223 223 214 214 211 211 211 211 212 212 212 212 211 211 211 211 210 210 210 210 207 207 207 207 205 205 205 202 202 202 205 205 202 202 200 200 199 199 199 199 197 197 197 195 195 195 195 195 195 195 195 195 194 194 194 191 188 194 194 194 189 189 189 193 
175 175 179 179 179 179 182 182 185 190 190 190 194 194 194 194 189 189 195 195 195 195 195 198 201 201 197 201 204 204 204 201 206 206 206 206 206 208 208 208 210 210 210 210 210 211 211 211 212 212 212 212 214 214 214 216 218 221 221 221 221 221 221 217 220 220 225 225 225 225 227 227 227 227 227 227 227 227 227 225 226 226 226 226 231 231 238 238 214 214 13 13 10 1 10 1 5 5 5 5 4 4 10 10 7 7 2 7 8 8 5 5 16 16 16 3 15 15 0 15 17 17 197 197 208 83 208 208 234 234 232 232 232 232 232 232 228 228 228 228 228 228 228 228 226 226 229 229 228 228 228 228 227 227 225 227 227 227 227 224 224 224 224 224 224 224 224 224 224 224 224 224 223 223 223 223 223 223 221 221 221 221 221 221 220 220 216 220 220 220 220 220 223 223 214 214 211 215 215 215 212 212 212 212 211 211 211 211 210 210 210 210 207 204 204 204 205 205 202 202 202 202 205 205 202 202 200 200 199 199 199 199 197 197 197 195 195 195 195 195 195 195 192 195 194 194 194 191 188 194 194 194 189 189 189 193 
175 179 179 179 179 179 182 182 185 185 190 190 191 194 194 194 189 195 195 195 195 195 198 198 201 201 201 201 204 204 204 204 206 206 206 206 206 208 208 208 210 210 210 210 210 211 211 211 212 212 212 214 214 214 216 216 218 221 221 221 221 221 221 217 220 220 225 225 227 227 227 227 227 227 227 227 227 227 227 225 226 226 226 226 231 231 238 238 214 214 13 13 10 1 10 1 2 2 5 5 4 4 10 10 7 2 2 2 5 8 8 8 3 16 3 3 15 0 15 0 17 17 17 197 83 83 208 208 234 234 234 232 232 232 232 232 228 228 228 228 228 228 228 228 229 229 229 229 228 228 228 225 227 227 225 227 227 227 227 224 224 224 224 224 224 224 224 224 224 224 224 224 223 223 223 223 223 223 223 221 221 221 221 221 220 216 216 216 217 217 217 217 223 223 214 214 215 215 215 215 212 212 212 212 211 211 211 211 210 210 210 210 207 204 204 207 205 205 205 205 205 205 205 205 202 202 202 200 199 199 199 199 197 197 195 195 195 195 195 195 195 195 192 192 194 194 194 191 188 194 194 194 189 189 193 193 
175 179 179 179 182 182 182 182 185 185 190 190 191 191 194 194 195 195 195 195 198 198 198 198 197 201 201 201 201 201 204 204 206 206 206 206 206 208 208 208 210 210 210 210 210 211 211 211 214 214 214 214 216 216 216 216 221 221 221 221 217 221 221 217 220 220 225 225 227 227 227 227 227 227 227 227 227 227 227 225 226 226 226 226 231 231 238 238 214 13 13 13 1 10 10 1 2 2 5 5 4 4 10 10 7 7 2 2 5 8 8 8 3 3 16 3 15 15 0 0 17 17 17 17 83 83 83 208 234 234 234 232 232 232 232 232 228 228 228 228 228 228 228 228 229 229 229 229 228 228 225 225 227 227 227 227 227 227 224 224 224 224 224 224 224 224 224 224 224 224 224 224 223 223 223 223 223 223 223 221 221 221 221 221 220 220 216 216 217 220 220 220 223 214 214 214 215 215 215 211 212 212 212 212 211 211 211 211 206 206 210 210 207 207 207 207 205 205 205 205 205 205 205 205 202 202 202 200 199 199 199 199 197 197 195 195 195 195 195 195 195 195 192 192 194 194 194 194 194 194 188 188 189 193 193 193 
180 180 180 180 184 184 184 184 186 186 189 189 193 193 193 193 196 196 196 196 198 201 201 201 206 203 203 206 208 203 203 203 206 206 206 206 207 207 207 211 209 209 212 212 214 211 211 211 212 212 215 215 217 218 218 218 223 223 223 223 223 223 223 223 224 225 225 225 225 225 225 224 226 227 227 227 227 227 227 226 224 236 224 236 236 236 236 236 11 11 11 4 3 3 3 3 1 1 1 1 2 4 4 4 7 7 7 4 4 4 7 7 8 8 8 5 6 6 6 6 1 1 1 6 15 15 70 70 236 236 236 236 236 236 225 236 228 228 228 230 230 230 230 230 226 226 226 228 229 229 229 229 226 226 226 226 226 226 226 226 228 228 228 228 227 227 227 225 226 222 222 222 226 226 226 222 224 224 224 224 222 222 222 220 222 222 222 222 220 220 220 218 216 216 216 216 217 217 212 212 216 216 213 213 211 211 211 211 210 210 208 208 208 208 208 208 204 204 206 206 204 204 200 200 202 202 199 199 201 201 201 199 198 198 198 198 196 196 193 193 196 196 196 196 193 190 190 190 195 195 192 192 193 193 188 188 
180 180 180 180 184 184 184 184 186 189 189 189 193 193 193 193 196 196 196 196 198 198 201 201 206 203 203 206 208 203 203 208 206 206 210 210 207 207 211 211 209 209 212 212 214 214 211 211 212 212 215 215 218 218 218 218 223 223 223 223 223 223 223 223 224 225 225 225 225 225 225 224 226 227 227 227 227 227 227 226 224 236 224 236 236 236 236 104 11 11 11 4 3 3 3 3 1 1 1 1 2 4 4 4 7 7 7 4 4 7 7 7 8 8 8 5 6 6 6 6 6 6 1 1 15 15 70 70 175 236 236 236 236 225 236 225 228 228 230 230 230 230 230 230 228 228 226 228 229 229 229 225 226 226 226 226 226 226 226 226 228 228 228 228 227 227 227 225 226 226 226 226 226 226 226 226 224 224 224 224 222 222 222 220 222 222 222 222 220 220 220 220 216 216 216 216 217 217 212 212 216 216 216 213 214 211 211 211 210 210 208 208 208 208 208 208 206 206 206 206 204 204 200 200 202 202 199 199 201 201 201 199 198 198 198 198 196 196 196 193 196 196 196 196 193 193 193 193 192 192 192 192 193 193 193 193 
180 178 180 180 184 184 184 182 189 189 189 189 190 190 190 190 194 194 196 196 198 198 201 201 206 203 206 206 208 208 208 208 210 210 210 210 211 211 211 211 212 212 212 212 214 214 214 214 212 215 215 215 218 218 218 218 223 223 223 223 223 223 223 223 225 225 225 225 225 225 225 225 227 227 227 227 227 227 227 227 224 236 224 236 236 236 236 104 11 11 4 4 3 3 3 1 1 1 1 1 2 4 4 4 7 7 7 7 7 7 7 7 8 8 8 5 1 6 6 1 6 6 1 1 15 15 15 70 175 236 236 236 236 225 236 225 230 230 230 230 230 230 228 228 228 228 228 228 229 229 225 225 226 226 226 226 226 226 226 226 228 228 228 228 227 227 225 225 226 226 226 226 226 226 226 226 224 224 224 224 222 222 222 220 222 222 222 219 218 220 220 220 216 215 215 216 217 217 217 212 216 216 216 216 214 214 214 214 210 210 210 208 208 208 208 208 206 206 206 206 204 204 200 200 202 202 199 199 201 201 201 199 198 198 198 197 196 196 196 196 190 190 190 196 193 193 193 193 195 195 195 195 193 193 193 188 
178 178 178 180 182 184 182 182 186 189 189 189 190 190 190 190 194 194 196 196 198 201 201 201 206 203 206 206 208 208 208 208 210 210 210 210 211 211 211 211 212 212 212 212 214 214 214 214 215 215 215 215 218 218 218 218 223 223 223 223 223 223 223 223 225 225 225 225 225 225 225 225 227 227 227 227 227 227 227 227 224 236 224 236 236 236 236 104 4 4 4 4 3 3 1 1 1 1 1 1 2 2 4 4 4 4 7 7 7 7 7 7 5 5 5 5 1 1 1 1 1 6 6 6 15 15 15 70 175 175 236 236 236 225 236 225 230 230 230 230 230 228 228 228 228 228 228 228 229 229 225 225 226 226 226 226 226 226 226 226 227 228 228 228 227 227 225 225 222 226 226 226 222 222 222 226 224 224 224 224 222 222 222 222 222 222 222 219 218 218 220 220 216 216 216 216 217 217 217 217 216 216 216 216 214 214 214 214 210 210 210 208 208 208 208 208 206 206 206 206 204 204 204 204 202 202 202 202 201 201 201 199 197 197 197 197 196 196 196 196 190 190 190 190 193 193 193 193 195 195 195 195 193 193 188 188 
178 178 178 180 182 184 182 182 186 186 186 191 192 192 192 194 196 196 198 198 199 202 202 202 205 205 205 208 209 209 209 209 207 210 210 210 209 209 212 212 211 211 211 211 213 216 216 216 215 215 218 218 220 221 221 221 225 225 225 225 225 225 225 225 227 227 228 228 228 228 227 227 227 228 228 228 228 228 228 227 226 233 226 233 236 236 236 40 2 2 2 2 3 3 3 0 2 2 2 2 2 3 3 3 4 4 7 7 5 5 5 5 3 3 3 3 3 0 0 0 4 4 4 4 9 2 2 9 70 70 221 221 227 235 227 235 230 230 230 230 230 228 228 228 229 229 229 229 228 228 224 224 227 227 227 227 227 227 227 227 227 227 227 227 226 226 226 226 221 225 225 225 222 222 222 225 223 223 223 223 223 223 223 221 222 222 222 219 218 218 220 220 219 219 215 219 219 219 219 219 217 217 217 217 214 214 214 214 211 211 210 210 209 209 210 210 206 206 206 206 206 206 206 206 199 204 204 204 200 200 200 199 197 197 197 197 196 196 196 196 196 196 196 196 194 194 194 194 187 187 187 192 193 193 193 193 
180 178 180 180 184 184 184 182 186 186 186 191 192 194 194 194 198 198 198 198 202 202 202 202 208 205 205 208 209 209 209 209 207 207 210 210 209 209 212 212 211 211 211 211 213 216 216 216 215 215 218 218 221 221 221 221 226 226 226 226 226 226 226 226 227 228 228 228 228 228 228 227 228 228 228 228 228 228 228 228 233 233 226 226 236 236 236 40 2 2 1 2 3 3 3 0 2 2 2 2 2 3 3 3 4 7 7 7 5 5 5 2 3 0 0 3 3 0 0 3 0 4 4 4 9 2 2 2 70 70 221 221 227 235 227 235 230 230 230 230 230 230 228 228 229 229 227 229 228 228 228 224 227 227 227 227 227 227 227 227 227 227 227 227 226 226 226 226 225 225 225 225 225 225 225 225 222 223 223 223 223 223 223 223 222 222 222 219 218 220 220 220 219 219 219 219 219 219 219 219 217 217 217 215 214 214 214 214 211 211 211 210 210 210 210 210 206 206 206 206 206 206 206 206 199 199 204 204 200 200 199 199 198 198 198 197 196 196 196 196 196 196 196 196 194 194 194 190 187 187 187 192 193 193 193 193 
180 180 180 180 184 184 184 184 186 191 191 191 194 194 194 194 198 198 198 198 199 202 202 202 208 205 205 208 209 205 205 209 207 210 210 210 209 209 212 212 211 211 211 211 213 216 216 216 215 218 218 218 221 221 221 221 226 226 226 226 226 226 226 226 228 228 228 228 228 228 228 228 228 228 228 228 228 228 228 228 233 233 233 226 236 236 40 40 2 2 1 2 3 3 3 0 2 2 2 2 2 3 3 3 7 7 7 7 5 5 2 2 3 0 0 3 3 0 3 3 0 4 0 0 9 9 2 9 70 70 221 221 235 235 227 235 228 228 230 230 230 230 230 230 229 229 227 227 228 228 228 224 227 227 227 227 227 227 227 227 226 227 227 227 226 226 226 224 225 225 225 225 225 225 225 225 222 223 223 223 223 223 223 223 222 222 222 222 220 220 220 220 219 219 215 215 219 219 219 215 217 217 217 215 214 214 214 213 211 211 211 210 210 210 210 210 210 210 210 206 206 206 206 206 199 199 204 204 200 199 199 200 198 198 198 198 196 196 196 193 193 193 193 193 194 190 190 190 192 192 192 192 193 187 187 187 
180 180 180 180 184 184 184 184 191 191 191 191 194 194 194 194 198 198 198 198 199 199 202 202 208 205 205 208 209 205 205 205 207 210 210 210 212 212 212 212 211 211 210 211 213 213 216 216 215 218 218 218 221 221 221 221 226 226 226 226 226 226 226 226 228 228 228 228 228 228 228 228 228 228 228 228 228 228 228 228 226 233 233 233 236 236 40 40 2 2 2 1 3 3 3 3 2 2 2 2 2 2 3 3 7 7 7 7 5 2 2 2 3 0 0 3 3 3 3 3 4 4 0 0 9 2 2 9 70 221 221 221 235 227 235 227 228 228 228 230 230 230 230 230 229 227 227 227 228 228 228 224 226 226 226 226 226 226 226 226 226 227 227 227 226 226 226 224 225 221 221 221 225 225 222 222 222 222 223 223 223 223 223 223 222 222 222 222 220 220 220 218 219 219 215 215 215 215 215 215 217 217 215 215 214 214 213 213 211 211 211 210 210 210 210 210 210 210 210 210 204 204 204 204 199 199 204 204 200 199 199 200 198 198 198 198 196 196 193 193 193 193 196 196 194 194 194 194 192 192 192 192 193 193 187 187 
180 180 180 180 184 185 185 185 187 187 192 192 194 194 198 198 198 198 199 199 202 203 203 203 206 206 207 207 208 209 209 209 209 209 211 211 212 214 214 214 214 214 214 216 215 215 215 215 218 218 219 219 222 224 224 224 226 226 226 226 228 228 228 228 230 230 230 230 230 230 230 230 229 230 230 230 230 230 230 229 222 222 222 246 230 230 25 25 3 3 3 3 3 3 3 3 0 0 9 0 1 1 1 6 8 8 8 0 1 8 1 1 2 2 2 2 13 13 13 13 4 4 25 4 3 3 3 3 103 208 208 208 231 231 231 231 213 239 213 239 234 234 221 234 227 227 229 229 227 223 223 223 223 223 223 223 227 227 227 227 226 224 224 224 224 224 224 226 227 227 227 227 225 225 222 222 224 224 224 224 221 221 221 221 216 220 220 220 218 217 218 218 216 216 216 216 216 216 216 216 215 215 215 215 214 214 211 211 211 211 211 210 209 209 209 209 208 208 208 208 208 208 208 204 203 203 203 203 201 201 198 198 199 200 200 199 197 195 197 197 193 193 193 193 195 195 195 195 193 193 193 193 193 190 190 190 
180 180 180 180 184 185 185 185 187 187 192 192 194 194 198 198 198 198 199 199 202 203 203 203 206 206 207 207 209 209 209 209 209 209 211 211 214 214 214 214 216 216 216 216 215 215 219 219 218 219 219 219 222 224 224 224 226 226 226 226 228 228 228 228 227 227 227 230 230 227 227 227 229 230 230 230 230 230 230 229 222 246 222 246 230 230 25 25 3 3 3 3 3 3 3 3 9 0 0 0 1 1 6 6 0 8 8 0 1 8 8 1 2 2 2 2 13 13 13 13 25 4 4 4 20 3 20 20 208 208 208 208 231 231 231 231 239 213 239 213 221 221 234 234 229 229 229 229 227 227 223 223 223 226 226 226 227 227 227 227 226 226 226 224 224 226 226 226 227 227 227 227 225 225 225 222 224 224 224 224 221 221 221 221 216 220 220 220 218 217 218 218 216 216 216 216 216 216 216 216 215 215 215 215 214 214 214 211 211 211 211 210 209 209 209 209 208 208 208 208 208 208 208 204 203 203 203 203 201 201 198 198 199 200 200 200 197 197 197 197 197 197 197 197 195 195 195 192 197 197 197 193 193 193 190 190 
180 180 180 180 184 185 185 185 187 187 192 192 194 194 198 198 198 199 199 199 202 203 203 203 206 207 207 207 209 209 209 209 211 211 211 211 214 214 214 214 216 216 216 214 215 219 219 219 219 219 219 219 222 224 224 224 224 226 226 226 228 228 228 228 230 230 230 227 227 230 230 230 230 230 230 230 230 230 230 230 222 246 222 246 230 230 25 25 3 3 3 3 3 3 3 3 9 0 9 9 6 1 1 6 8 0 0 8 8 1 1 8 26 2 2 2 13 13 116 116 25 4 4 4 3 3 20 20 103 103 103 103 143 143 143 231 213 239 239 239 221 221 234 221 229 229 229 229 227 227 227 227 226 226 226 226 227 227 227 227 226 226 226 226 226 226 226 226 227 223 223 223 225 225 225 222 220 220 220 220 221 217 217 217 216 220 220 220 218 218 218 218 216 216 216 216 216 216 216 216 215 215 215 215 214 214 214 214 211 211 211 210 209 209 209 209 208 208 207 208 208 208 204 204 203 203 203 203 201 201 201 201 200 200 200 200 197 197 197 197 197 197 197 197 195 195 192 192 197 197 197 197 193 193 193 190 
180 180 180 180 184 185 185 185 187 192 192 192 194 194 198 198 199 199 199 199 202 203 203 203 207 207 207 207 209 209 209 209 211 211 211 211 214 214 214 214 216 216 216 214 215 219 219 219 219 219 219 219 224 224 224 224 224 226 226 226 228 228 228 228 230 230 227 227 227 227 230 230 230 230 230 230 230 230 230 230 246 222 246 222 230 25 25 25 3 3 3 3 3 3 3 3 0 0 9 0 1 6 6 1 8 0 0 8 8 1 1 8 26 2 26 26 116 116 116 116 25 4 4 25 3 20 3 20 103 208 103 103 143 143 231 143 213 239 213 213 234 234 221 234 229 229 229 229 227 227 227 227 226 226 226 226 227 227 227 225 226 226 226 226 226 226 226 226 223 223 223 223 225 225 222 222 220 220 220 224 221 217 217 217 216 216 220 220 218 218 218 218 215 215 215 215 215 215 215 215 215 215 213 213 214 214 214 214 211 211 211 210 209 209 209 209 208 208 207 207 208 208 204 204 202 202 202 202 201 201 201 201 200 200 200 200 197 197 197 197 197 197 197 197 195 195 192 192 197 197 197 197 193 193 193 190 
180 180 180 180 184 185 185 185 191 191 193 193 193 193 199 199 199 200 200 200 203 205 205 205 207 207 208 208 210 210 211 211 214 214 214 214 215 215 215 215 216 216 216 216 216 216 220 220 220 220 222 222 224 224 227 227 225 225 225 228 228 228 228 228 226 226 226 226 226 226 226 226 230 231 231 231 231 231 231 230 232 243 232 243 21 3 3 21 3 3 3 3 3 3 3 3 11 11 11 148 63 6 6 6 0 11 11 0 7 7 7 7 101 101 101 101 184 184 226 226 184 55 55 55 65 65 16 65 52 29 52 52 54 79 79 79 195 81 195 195 233 224 233 224 228 228 228 227 226 226 226 226 226 226 226 226 226 223 223 223 226 226 226 224 224 226 226 226 224 224 221 221 224 224 220 220 220 220 222 222 219 219 217 217 217 217 217 217 218 218 218 218 215 215 215 215 215 215 215 215 215 215 213 213 212 212 212 212 212 212 212 209 207 207 207 207 209 209 209 205 205 205 205 205 204 204 201 201 200 200 200 200 199 199 199 199 196 196 196 196 193 193 196 196 194 194 194 194 195 195 195 195 193 193 191 191 
180 180 180 180 184 185 185 185 191 193 193 193 193 193 199 199 199 200 200 200 203 205 205 205 208 208 208 208 210 211 211 211 215 215 215 215 215 215 215 215 216 216 216 216 216 220 220 220 220 222 222 222 224 227 227 227 225 225 228 228 228 231 231 228 233 233 233 233 233 233 233 233 231 231 231 231 231 231 231 231 232 232 243 232 21 3 21 3 3 3 3 3 3 3 3 3 11 11 148 148 63 63 6 6 11 0 0 11 7 7 7 7 101 101 231 231 226 226 226 226 184 55 55 55 65 16 16 16 29 52 29 52 54 54 79 54 81 195 81 195 224 233 233 224 228 228 227 227 226 226 229 229 226 226 226 225 223 223 223 223 226 226 224 224 224 224 226 226 224 224 224 224 224 224 220 220 222 222 222 222 219 219 219 217 217 217 217 217 218 218 218 214 216 216 216 216 216 216 216 216 215 215 215 213 212 212 212 212 212 212 212 209 207 207 207 207 209 209 205 205 205 205 205 203 204 204 201 201 200 200 200 200 199 199 199 199 196 196 196 196 193 193 193 193 194 194 194 194 195 195 195 195 193 193 191 191 
180 180 180 180 184 185 185 185 193 193 193 193 193 193 199 199 200 200 200 200 203 205 205 205 208 208 208 208 210 211 211 211 215 215 215 215 215 215 215 215 216 216 216 216 216 220 220 220 222 222 222 222 224 227 227 227 225 228 228 228 231 231 231 231 233 233 233 233 233 233 233 233 231 231 231 231 231 231 231 231 243 232 232 243 21 3 3 3 3 3 3 3 3 3 3 3 11 148 148 148 6 63 63 6 11 0 0 11 7 7 139 139 231 231 231 231 226 226 226 184 184 184 55 184 16 16 16 16 29 29 52 52 54 79 54 79 81 81 195 195 233 233 224 233 228 228 228 227 226 229 229 229 226 226 226 226 226 226 226 226 226 226 226 226 226 226 226 226 224 224 221 224 224 224 224 220 222 222 222 220 219 219 219 219 217 217 215 217 218 218 218 214 216 216 216 216 216 216 216 216 215 215 215 215 212 212 207 207 212 212 212 209 207 207 207 207 209 209 205 205 205 205 205 203 204 204 204 201 200 200 200 200 197 199 199 197 196 193 196 196 196 196 196 196 194 194 194 192 192 192 195 195 193 193 193 191 
180 180 180 180 184 185 185 185 193 193 193 193 193 193 199 199 200 200 200 200 205 205 205 205 208 208 208 208 210 211 211 211 215 215 215 215 215 215 215 215 213 213 216 216 216 220 220 220 222 222 222 222 227 227 227 227 228 228 228 228 231 231 231 231 226 226 233 233 233 233 226 226 231 231 231 231 231 231 231 231 243 232 243 232 21 21 3 3 3 3 3 3 3 3 3 3 11 148 148 148 63 6 6 6 0 11 11 0 7 139 139 139 231 231 231 231 226 184 184 184 184 184 184 55 16 16 65 16 29 29 52 52 54 54 54 54 81 81 81 195 224 233 233 233 228 228 228 228 229 229 229 229 226 226 226 226 226 226 226 226 226 226 226 226 226 226 226 226 224 221 221 224 224 224 224 224 222 222 220 220 217 217 219 219 217 217 215 217 218 218 218 214 216 216 216 216 216 216 216 216 215 215 215 215 212 212 207 207 212 212 212 209 207 207 206 206 209 209 205 205 205 205 205 203 204 204 204 201 200 199 200 200 197 197 197 197 196 193 193 196 196 196 196 196 194 194 192 192 192 192 195 195 193 193 193 193 
183 187 187 187 185 185 185 185 194 194 194 194 195 195 198 198 200 200 202 202 205 207 207 207 209 209 210 210 211 212 212 212 214 214 215 215 216 216 218 218 219 219 218 219 220 222 222 222 220 220 220 225 226 226 228 228 227 227 230 230 231 231 228 228 230 230 230 230 229 229 229 229 230 233 233 233 235 235 235 228 239 239 239 239 21 21 1 21 2 3 3 3 1 1 10 10 96 208 208 208 65 65 65 65 5 39 5 5 110 110 230 230 211 211 211 120 94 94 94 26 166 166 166 32 53 53 53 53 59 59 59 59 53 53 53 53 50 50 50 201 226 226 226 226 232 232 232 232 230 230 230 230 221 232 221 232 235 220 235 220 227 227 227 227 227 227 225 225 222 222 222 222 223 223 223 223 222 222 222 222 221 221 218 218 220 220 220 218 217 216 216 216 219 216 216 216 217 217 217 217 214 214 212 212 210 210 213 213 211 211 208 208 210 210 207 207 209 209 209 209 206 206 206 206 202 202 202 202 202 206 206 206 198 198 198 198 197 197 197 194 196 196 193 193 194 194 194 193 194 194 190 190 192 192 192 188 
183 187 187 187 185 185 189 189 195 195 195 195 195 198 198 198 200 200 202 202 205 207 207 207 209 209 210 210 212 212 212 212 214 214 215 215 216 216 218 218 219 219 219 219 220 222 222 222 220 220 225 225 226 228 228 228 227 227 230 230 231 231 231 228 230 230 230 230 229 233 233 233 233 233 230 230 228 235 235 235 239 239 239 101 1 21 21 1 2 3 3 3 1 1 10 10 96 208 208 96 65 65 210 210 5 5 5 5 110 230 230 230 211 211 120 120 94 26 26 26 32 166 32 32 209 209 209 209 192 192 192 192 221 221 221 221 201 201 201 201 226 226 226 226 232 232 232 232 230 230 230 230 232 232 221 232 220 220 235 220 227 227 227 227 227 227 227 227 225 225 225 225 223 223 221 221 222 222 222 222 221 221 221 218 220 220 220 218 217 217 217 217 219 219 219 216 217 217 217 217 214 214 212 212 210 213 213 213 211 211 208 211 210 210 210 207 209 206 206 209 206 203 203 206 202 202 202 202 202 202 206 206 198 198 198 198 197 197 194 194 196 196 193 193 194 194 194 193 194 194 194 194 192 192 192 188 
183 187 187 187 189 189 189 189 195 195 195 195 198 198 198 198 200 200 202 202 205 207 207 207 209 210 210 210 212 212 212 212 215 215 215 215 216 218 218 218 219 219 219 219 220 222 222 222 225 225 225 225 228 228 228 228 227 230 230 230 231 231 231 231 229 230 230 230 233 233 233 233 233 233 233 230 228 235 235 235 239 239 239 101 21 21 1 1 2 3 3 2 1 1 10 10 96 208 208 96 65 210 210 210 39 5 39 39 110 230 230 230 211 211 120 120 94 26 26 26 32 166 32 32 209 53 53 53 192 192 59 59 53 53 53 53 50 50 50 50 49 49 49 49 41 41 41 41 99 230 230 230 232 221 221 221 220 235 220 220 224 224 224 227 227 227 227 227 225 225 225 225 223 223 221 221 222 222 222 219 218 221 221 221 220 220 220 218 217 217 217 217 219 219 219 219 217 216 217 217 214 214 214 212 213 213 213 213 211 211 211 211 210 210 210 210 209 206 206 209 206 203 203 206 202 202 202 202 202 202 206 206 198 198 198 198 197 197 194 194 196 196 193 193 194 194 194 194 190 190 194 194 192 188 188 188 
183 183 187 187 189 189 189 189 195 195 195 195 195 198 198 198 200 200 202 202 205 207 207 207 210 210 210 210 212 212 212 212 215 215 215 215 218 218 218 218 219 219 219 219 220 222 222 222 225 225 225 225 228 228 228 228 230 230 230 230 231 231 231 231 230 230 230 230 233 233 233 233 230 233 233 233 235 235 235 228 239 239 101 101 1 1 21 1 2 3 3 2 1 1 10 10 96 208 208 96 65 210 210 210 39 5 5 5 110 230 230 230 211 211 211 120 94 26 94 94 166 166 32 32 209 53 53 53 192 192 59 59 53 53 53 53 50 50 50 50 49 49 49 226 41 41 41 41 99 99 230 230 232 232 232 221 235 235 220 235 224 224 227 227 227 227 227 227 225 225 225 225 223 223 223 223 222 222 219 219 218 221 221 221 220 220 220 218 217 217 217 217 219 219 219 219 217 217 217 217 214 214 214 214 213 213 213 213 211 211 211 211 210 210 210 207 209 206 206 209 206 203 203 206 202 202 202 202 202 202 206 206 198 198 198 197 197 197 194 194 196 196 196 193 194 194 194 194 190 190 194 194 192 188 188 188 
181 181 184 184 188 190 190 190 193 193 193 193 196 196 199 199 200 200 202 202 205 207 207 207 210 210 211 211 213 213 214 214 216 216 216 218 219 220 220 220 220 220 220 220 221 221 223 223 226 226 226 226 228 228 228 228 230 230 230 230 232 232 232 232 233 233 233 233 233 233 233 233 233 233 233 233 231 240 231 231 229 229 229 20 3 16 3 3 1 2 2 2 5 5 20 20 51 204 204 51 87 182 182 182 124 28 28 28 179 228 228 228 240 240 240 216 153 153 153 239 246 246 84 84 185 47 47 47 47 47 47 47 77 77 77 77 69 69 69 69 100 100 100 235 44 44 44 44 108 108 230 230 245 245 181 245 233 175 233 233 226 226 226 226 225 225 225 225 224 224 224 224 224 224 224 224 222 222 219 219 218 221 221 221 219 219 219 219 218 218 219 219 215 218 218 218 218 218 218 218 213 215 215 215 214 214 212 212 211 211 208 208 210 210 210 207 209 209 206 209 206 206 203 206 202 204 204 204 201 201 201 201 198 198 198 198 195 195 195 195 196 196 196 195 194 194 194 194 189 196 196 196 194 194 194 194 
181 181 181 184 188 190 190 188 192 192 192 193 196 196 199 199 200 200 202 202 205 207 207 207 211 211 211 211 213 214 214 214 216 216 218 218 220 220 220 220 220 220 220 220 221 221 223 223 224 226 226 226 228 228 228 228 230 230 230 234 232 232 232 232 237 237 233 233 233 233 233 233 241 233 233 233 231 240 240 240 229 229 20 20 16 3 3 16 1 2 2 2 5 5 20 20 51 204 204 204 87 87 182 182 28 28 28 28 179 179 228 228 240 216 240 240 153 153 239 239 246 246 246 84 47 185 185 185 146 146 146 146 77 219 219 219 228 69 228 69 100 235 235 235 153 153 153 153 108 108 108 230 181 181 181 245 175 175 233 233 226 226 226 226 225 223 223 223 223 224 224 224 224 224 224 224 222 222 222 219 218 221 221 221 219 219 219 219 219 219 219 219 215 215 218 218 218 218 218 218 215 215 215 215 214 214 214 214 211 208 208 208 210 210 207 207 209 209 209 209 206 206 206 206 202 204 204 204 201 201 201 201 201 201 198 198 198 198 198 198 196 196 196 195 192 192 194 194 189 189 196 196 189 189 189 189 
184 184 184 184 190 190 190 188 192 192 193 193 196 199 199 199 200 200 202 202 205 207 207 207 211 211 211 211 213 214 214 214 218 218 218 218 220 220 220 220 220 220 220 220 221 223 223 223 226 226 226 226 228 232 232 232 234 234 234 234 236 236 236 236 237 237 237 237 240 240 240 240 241 241 241 233 240 240 240 240 229 20 20 20 3 16 16 16 1 2 2 2 5 5 20 20 51 51 204 204 87 87 182 182 28 28 28 124 179 179 228 228 240 216 240 240 239 239 239 239 246 246 246 84 185 47 47 47 47 47 47 47 77 219 219 219 228 228 228 228 235 235 235 235 44 44 44 153 108 230 108 230 181 181 181 245 175 175 233 233 226 226 226 226 225 225 225 225 224 224 224 224 224 224 224 224 222 222 222 222 221 221 221 218 219 219 219 219 219 219 219 219 215 218 218 218 218 218 218 216 215 215 215 213 212 214 214 214 211 211 208 208 210 210 210 207 209 209 206 209 206 206 203 206 202 204 204 204 201 201 199 201 201 201 201 198 198 198 198 198 195 196 196 196 192 192 194 194 189 189 189 189 189 189 189 189 
184 184 184 184 190 190 190 188 193 193 193 193 196 199 199 199 200 200 202 202 205 207 207 207 211 211 211 211 213 214 214 214 218 218 218 218 220 220 220 220 220 220 220 220 221 223 223 223 226 226 226 226 232 232 232 232 234 234 234 234 236 236 236 236 237 237 237 237 240 240 240 240 233 241 241 241 240 240 231 231 20 20 20 20 3 16 16 3 1 2 2 2 5 5 20 20 51 51 204 204 182 182 182 182 124 124 124 124 179 179 228 228 216 216 216 216 239 239 239 239 246 246 246 246 185 47 47 47 47 47 146 146 77 219 219 219 228 228 228 228 235 100 100 235 44 44 44 153 108 230 230 230 245 245 245 245 233 233 233 233 223 223 223 226 225 225 225 225 224 224 224 223 220 220 220 220 222 222 222 222 221 221 218 218 219 219 219 219 219 219 219 219 218 218 218 218 218 218 216 216 215 215 215 213 212 212 214 214 211 211 211 211 210 210 210 210 209 206 206 209 206 203 203 206 202 204 204 204 201 201 199 199 201 201 201 198 198 198 198 198 195 196 196 196 192 192 194 194 196 196 189 189 194 194 194 194 
181 184 184 184 192 192 192 192 192 192 192 196 198 198 198 198 202 205 205 205 206 206 209 209 212 212 215 215 213 213 215 215 216 216 218 218 220 220 220 220 219 219 219 219 222 225 225 225 220 235 235 220 224 224 224 224 232 232 232 232 191 191 191 191 212 212 212 212 203 203 203 203 185 185 185 185 68 68 68 68 1 13 1 1 34 4 34 4 13 13 13 13 27 27 27 27 20 20 126 126 159 159 159 91 182 200 200 200 203 203 220 220 225 210 225 225 230 230 230 230 173 249 249 249 167 45 45 45 59 132 132 59 231 231 231 231 222 222 222 222 227 227 227 79 38 38 38 204 195 195 195 195 234 234 234 234 232 232 232 232 223 232 232 232 228 223 223 223 224 224 226 226 224 224 220 220 223 223 223 221 220 219 220 220 220 220 220 220 219 219 219 219 215 215 215 215 212 212 212 212 215 215 215 215 214 212 212 212 209 209 212 212 210 210 206 206 207 207 207 207 207 204 204 204 205 202 202 205 203 201 201 203 200 200 198 198 198 198 195 195 196 196 196 196 195 195 192 192 192 192 192 192 193 191 191 191 
181 181 184 184 187 187 192 192 192 192 196 196 198 198 202 202 202 205 205 205 206 206 209 209 212 215 215 215 215 213 215 215 216 216 218 218 220 221 221 221 222 222 222 222 222 222 222 222 235 220 235 235 224 224 224 34 29 29 29 29 22 22 22 22 25 25 25 25 23 23 23 23 19 19 19 19 11 11 11 11 13 13 1 1 4 4 34 4 13 13 13 87 94 27 27 27 20 20 20 126 159 159 159 159 182 182 200 200 203 203 220 220 210 225 225 225 230 230 159 230 249 249 249 249 167 45 45 45 59 132 59 59 231 231 59 59 87 222 87 87 79 227 227 79 38 38 38 204 195 195 67 195 113 113 113 234 110 110 232 232 232 223 223 223 228 228 228 223 226 226 226 224 224 224 220 220 223 223 223 221 220 220 220 220 220 220 220 219 219 221 221 221 219 219 219 219 217 217 217 217 215 215 215 215 214 214 214 214 209 209 212 212 210 210 210 206 207 207 207 207 207 207 207 204 205 202 202 205 203 201 201 203 200 200 198 198 198 198 198 195 196 196 196 196 195 195 195 192 194 194 194 194 193 193 193 193 
184 184 181 184 187 187 192 192 196 196 196 196 198 202 202 202 202 205 205 205 206 206 209 209 212 215 215 215 215 215 215 215 216 218 218 218 220 221 221 221 222 222 222 222 222 222 222 225 220 220 235 235 224 224 34 34 29 29 29 29 22 22 22 22 25 25 25 25 23 23 23 23 19 19 19 19 11 11 11 11 13 1 13 1 4 4 4 4 13 87 87 87 94 94 27 27 20 20 20 20 91 91 159 159 182 200 200 200 203 203 220 220 225 225 210 225 230 159 159 230 249 249 249 249 167 45 45 45 59 132 59 59 231 231 59 59 222 222 222 87 79 79 227 79 38 38 38 204 195 67 67 195 113 113 113 234 110 110 232 232 232 232 223 223 228 228 228 223 226 226 226 224 224 224 224 224 223 223 223 221 220 220 220 220 219 219 219 219 221 221 221 221 219 219 219 219 217 217 217 217 213 215 215 215 214 214 214 214 212 212 212 212 210 210 210 210 207 207 207 207 207 207 207 207 205 202 202 205 203 201 201 203 200 200 200 198 198 198 198 195 195 196 196 196 195 195 195 195 194 194 194 194 193 193 193 193 
184 184 184 184 187 192 192 192 196 196 196 196 198 202 202 202 202 205 205 205 206 206 209 209 212 215 215 215 215 215 215 215 218 218 218 218 221 221 221 221 219 222 222 222 225 225 225 225 220 235 220 235 224 34 34 34 29 29 29 29 22 22 22 22 25 25 25 25 23 23 23 23 19 19 19 19 11 11 11 11 13 1 13 1 4 4 4 34 13 87 87 87 94 94 27 27 20 126 20 20 91 91 91 159 182 182 200 200 203 203 220 220 225 210 225 225 159 159 159 159 173 173 173 173 167 45 45 45 59 132 59 59 59 231 59 59 222 222 222 87 79 79 227 79 38 38 38 204 195 67 67 67 113 113 113 234 110 110 232 232 223 232 232 232 228 223 223 223 226 226 226 226 224 224 224 224 223 223 223 221 220 220 220 220 220 220 220 220 221 221 221 221 219 219 219 219 217 217 217 217 215 215 215 215 214 214 214 214 212 212 212 212 210 210 210 210 207 207 207 207 207 207 207 207 205 205 202 205 203 201 203 203 200 200 200 200 198 198 198 195 195 196 196 196 195 195 195 195 194 194 194 194 193 193 193 193 
182 182 187 187 192 192 192 192 198 198 198 198 201 201 204 204 204 204 207 207 207 207 211 211 215 215 217 217 216 216 218 218 219 219 219 219 222 222 227 227 221 221 221 224 224 227 227 227 233 233 233 233 27 27 6 27 12 12 15 15 20 20 20 20 22 22 22 17 19 19 19 19 12 12 12 17 16 16 16 16 14 4 4 4 9 9 9 125 87 87 87 87 97 158 97 97 44 44 44 44 25 88 88 88 174 174 174 174 207 207 207 207 212 212 212 212 146 198 198 146 45 45 45 45 153 51 51 51 79 183 79 79 53 168 53 53 237 237 59 59 71 71 71 181 69 69 69 200 186 66 66 186 79 79 79 189 167 167 167 232 210 210 228 228 230 230 223 223 226 226 226 226 226 226 226 223 224 224 222 222 221 221 221 221 223 223 223 221 220 220 222 222 218 218 218 216 215 215 215 214 215 215 215 215 212 212 212 212 211 211 211 211 211 211 209 209 208 208 208 208 208 208 208 208 206 203 203 206 205 202 202 205 203 203 200 200 201 201 198 198 196 196 196 196 195 195 195 195 196 194 194 194 194 194 194 192 
182 182 187 187 192 192 192 189 198 198 198 198 201 204 204 204 204 204 207 207 207 207 211 211 215 217 217 217 218 216 218 218 219 219 219 219 222 222 227 227 224 224 224 224 224 224 227 227 233 233 233 50 6 6 27 6 12 12 15 15 20 20 20 17 22 22 22 22 19 19 19 19 17 17 17 12 10 10 10 10 14 14 4 4 9 9 9 125 199 87 87 87 97 158 158 97 44 44 44 44 25 25 88 88 122 174 174 174 207 207 207 207 212 212 175 212 198 198 198 146 45 173 173 45 153 51 51 51 79 183 79 79 53 168 53 53 237 237 237 59 71 71 181 181 69 69 200 200 186 66 66 66 79 79 79 189 167 232 232 232 228 228 210 210 230 230 230 223 223 223 226 226 226 226 223 223 224 224 222 222 221 221 221 221 223 223 223 221 220 220 220 220 218 218 218 218 215 215 215 215 215 215 215 215 212 212 210 210 211 211 211 211 211 211 211 209 210 210 210 210 208 208 208 208 206 203 203 206 205 202 202 205 203 203 200 200 201 201 201 198 199 199 199 199 195 195 195 195 194 194 194 194 194 194 192 192 
182 182 187 187 189 192 192 192 195 195 198 198 201 204 204 204 204 207 207 207 207 207 211 211 215 217 217 217 218 218 218 218 219 219 219 219 222 222 227 227 224 224 224 224 224 227 227 227 233 233 233 50 6 27 6 27 15 15 15 15 20 20 20 17 17 17 17 17 19 14 14 14 17 17 17 12 16 16 16 16 14 14 14 14 9 9 9 125 199 87 87 87 97 158 158 158 44 44 106 106 25 25 88 88 122 122 174 174 180 180 180 207 212 212 175 175 198 146 198 198 173 173 173 45 153 51 51 51 183 79 183 183 168 168 53 53 59 237 59 59 71 71 181 181 69 69 200 200 186 66 186 186 189 189 189 189 232 232 232 232 228 228 228 228 230 230 223 223 223 223 226 226 226 226 223 223 224 224 224 222 221 221 221 221 223 223 223 221 222 222 222 222 218 218 218 218 215 215 215 215 215 215 215 212 212 212 212 212 211 211 211 211 211 211 211 211 210 210 210 210 208 208 206 206 206 206 203 206 205 202 202 205 203 203 203 200 201 201 201 198 199 199 199 199 195 195 192 192 196 196 196 196 194 194 194 194 
187 187 187 187 189 192 192 192 195 195 198 198 201 204 204 201 204 207 207 207 207 207 211 211 215 217 217 217 218 218 218 218 219 219 219 219 222 227 227 227 224 224 224 224 227 227 227 227 233 233 50 50 6 6 27 6 15 15 15 15 20 20 20 20 17 22 22 22 19 19 19 19 12 12 17 17 16 10 10 10 14 4 4 14 9 9 9 125 199 199 87 199 158 158 158 158 106 106 106 44 25 25 25 88 122 122 122 174 180 180 180 180 175 212 175 175 146 146 198 146 173 173 173 45 153 51 51 153 183 183 79 79 168 53 53 168 59 237 59 59 71 71 71 181 69 69 200 200 186 66 186 186 79 189 189 189 167 232 232 232 210 210 228 228 230 223 223 230 226 223 223 223 223 223 226 226 224 224 224 222 221 221 221 221 221 221 221 221 222 222 222 222 218 218 216 216 215 215 214 214 212 212 212 212 212 212 212 212 211 211 211 211 211 211 211 211 210 210 210 210 208 208 206 206 206 206 203 206 205 202 202 205 203 203 203 203 201 201 201 198 199 199 199 199 195 195 192 192 196 196 196 196 194 194 194 194 
188 185 185 185 190 195 195 195 196 196 199 199 202 203 203 203 205 205 205 208 209 209 209 212 214 214 215 215 216 216 218 218 221 221 222 222 223 223 223 225 237 216 237 237 211 240 211 240 198 198 18 18 16 4 16 16 9 14 14 14 15 15 18 18 20 20 20 20 16 16 16 16 15 15 15 14 12 12 12 12 9 9 2 2 1 1 21 21 244 244 161 161 140 167 167 167 124 124 78 78 19 13 19 19 31 98 98 98 162 162 162 162 176 176 106 106 79 79 79 179 237 237 109 109 163 56 56 163 128 128 53 53 76 35 35 76 83 83 83 50 53 53 53 187 217 94 217 217 202 86 202 202 24 24 236 236 240 240 240 240 206 206 206 206 225 225 225 225 225 225 223 223 223 223 225 225 222 222 222 222 222 222 222 222 222 222 222 222 221 221 221 221 218 218 218 216 214 214 212 212 212 212 212 212 213 213 213 213 214 214 211 211 211 211 211 208 211 211 211 209 207 211 211 207 208 208 208 204 204 204 204 204 203 203 203 203 203 203 203 200 198 200 200 200 196 194 196 196 193 193 197 197 195 192 195 195 
188 188 188 188 190 195 195 190 196 196 199 199 202 203 203 203 205 205 208 208 209 212 212 212 214 215 215 215 216 218 218 218 221 222 222 222 223 223 225 225 216 237 216 237 240 211 240 240 198 18 18 18 4 16 16 4 9 14 14 14 15 15 18 18 20 20 20 20 16 16 16 16 15 15 15 14 12 12 12 12 9 9 2 2 1 1 21 21 244 244 244 161 140 167 167 140 124 124 78 78 19 13 13 19 31 31 98 98 122 162 162 162 176 106 176 176 179 79 79 79 237 237 109 109 163 56 56 56 128 53 53 53 35 76 35 76 50 83 50 50 53 53 53 187 217 94 94 217 202 86 202 202 24 24 236 236 195 240 195 195 206 206 206 206 225 97 225 225 225 225 223 223 223 223 225 225 222 222 222 222 222 222 222 222 222 222 222 222 221 221 221 221 218 218 218 216 214 214 212 212 212 212 212 212 213 213 213 213 214 214 211 211 211 211 211 211 211 211 211 209 207 211 211 207 208 208 204 204 204 204 204 204 203 203 203 203 203 203 203 200 198 200 200 200 196 194 196 196 193 197 197 197 195 195 192 192 
188 188 188 188 195 195 190 190 196 196 199 199 202 203 203 203 208 208 208 208 212 212 212 212 215 215 215 215 218 218 218 218 222 222 222 222 223 225 225 225 237 216 237 237 211 240 211 240 198 18 18 18 4 16 4 4 9 9 14 14 15 15 18 18 20 15 15 15 16 16 16 16 15 15 15 14 12 12 12 12 9 9 2 2 1 1 21 21 244 244 244 161 167 140 140 167 124 124 78 78 19 19 13 13 31 31 31 98 122 122 122 122 106 106 176 176 179 179 179 179 237 237 109 109 163 56 56 56 53 53 53 53 35 76 35 35 83 50 50 50 53 53 53 187 217 94 94 217 202 86 86 86 236 236 236 236 195 240 195 195 206 40 40 40 97 97 225 225 225 225 225 223 223 225 225 225 222 222 222 222 222 222 222 222 222 222 222 222 221 221 221 221 218 218 218 216 214 214 214 212 212 212 212 212 213 213 213 213 214 214 214 211 211 208 211 211 211 211 211 209 207 211 211 207 208 204 204 204 204 204 204 204 203 203 203 203 203 203 203 200 200 200 200 200 196 194 196 196 197 197 197 197 195 195 192 192 
185 185 188 188 195 195 195 195 196 199 199 199 203 203 203 203 208 208 208 208 212 212 212 212 215 215 215 215 218 218 218 218 222 222 222 222 225 225 225 225 216 216 237 216 240 211 240 211 18 18 18 18 16 16 4 16 9 9 14 14 18 18 15 15 15 15 15 15 15 16 16 16 15 15 15 14 12 12 12 12 9 2 2 2 1 1 1 21 244 244 244 244 140 167 167 140 124 78 78 78 13 19 19 13 31 31 31 98 122 122 122 122 106 176 176 176 79 79 179 179 237 237 109 109 163 56 56 56 53 53 53 53 35 35 76 76 83 50 50 50 187 187 187 187 94 94 94 217 202 86 202 202 236 236 236 236 240 240 240 240 206 40 40 40 97 97 225 225 225 225 225 225 225 225 225 225 222 222 222 222 222 222 222 222 222 222 222 221 221 221 220 220 218 218 216 216 214 214 214 214 212 212 212 212 213 213 213 213 214 214 214 214 208 208 211 211 211 211 211 209 207 211 211 207 208 208 208 204 201 201 201 201 202 202 202 202 203 200 200 200 200 200 200 200 196 196 196 196 197 197 193 193 195 195 195 192 
187 187 187 187 194 197 197 197 198 198 201 201 204 204 206 206 209 210 210 210 213 214 214 214 218 218 218 220 220 220 220 223 222 224 224 224 227 227 227 230 223 234 234 223 218 218 218 25 7 20 7 20 20 8 20 8 9 9 12 12 15 15 15 13 13 13 13 13 14 15 15 15 15 15 15 14 12 12 12 12 25 25 2 2 3 3 0 3 74 237 237 237 239 164 164 164 104 104 104 104 19 19 19 19 16 9 9 16 106 106 106 106 169 169 169 108 86 86 233 233 238 238 108 108 183 50 50 50 44 53 53 53 44 44 86 44 80 53 53 80 156 156 156 156 172 51 172 172 197 197 197 197 224 224 224 224 227 227 227 227 154 154 154 154 223 223 223 223 225 225 225 225 225 225 225 225 222 222 222 222 222 222 222 222 221 221 221 221 219 219 219 219 216 216 216 216 215 215 214 214 215 214 214 214 214 214 214 214 214 214 214 214 208 208 211 211 211 211 211 209 207 211 211 207 207 207 207 204 204 201 201 201 202 202 199 199 199 199 199 199 199 199 199 199 198 198 195 195 198 194 194 194 197 197 197 194 
192 192 192 192 194 194 197 197 198 198 201 201 204 206 206 206 210 210 210 210 213 214 214 214 220 220 220 220 220 223 223 223 222 224 224 224 227 227 230 230 234 234 223 234 218 218 25 25 20 7 7 20 20 20 20 8 12 12 12 12 15 15 15 13 14 13 13 13 14 15 15 15 15 15 15 14 12 12 12 12 25 25 2 2 3 0 0 3 74 237 237 237 239 164 164 164 164 164 104 104 48 19 19 19 16 9 9 9 26 26 106 106 169 169 169 108 86 233 233 233 238 238 108 108 183 50 50 50 44 53 53 53 44 44 86 44 80 53 53 80 68 68 68 68 172 172 172 172 197 197 59 59 224 224 224 224 227 227 227 227 154 11 11 11 11 11 223 223 223 225 225 225 225 225 225 223 222 222 222 222 222 222 222 222 221 221 221 221 219 219 219 219 216 216 216 216 215 215 215 215 215 215 215 215 214 214 214 214 214 214 214 211 211 208 211 211 211 211 211 209 207 211 211 207 204 204 204 204 204 204 204 204 202 202 199 199 199 199 199 201 199 199 199 199 198 198 198 195 198 194 194 194 197 197 197 197 
192 192 192 192 197 197 197 194 198 201 201 201 204 206 206 206 209 210 210 210 213 214 214 214 220 220 220 220 223 223 223 223 222 224 224 224 227 230 230 230 223 223 234 234 218 25 25 25 7 20 20 7 8 20 8 20 12 12 9 12 15 15 15 13 14 14 14 14 14 15 15 15 15 15 15 14 12 12 12 12 25 25 2 2 3 0 0 3 74 237 237 237 164 239 239 164 164 164 164 104 48 19 19 19 16 16 16 16 26 26 26 106 169 169 169 169 233 233 233 233 238 238 108 108 183 50 50 50 53 44 44 53 44 44 86 86 53 53 80 80 68 156 68 68 51 51 51 172 197 197 59 59 78 78 224 78 85 85 85 85 154 11 11 11 11 11 223 223 223 223 225 225 225 225 223 223 222 222 222 222 222 222 222 222 221 221 221 220 219 219 219 219 216 216 216 216 215 215 215 215 215 215 215 215 214 214 214 214 214 214 211 211 211 211 211 211 211 211 211 209 207 211 211 207 204 204 207 207 204 204 204 204 202 202 202 199 201 201 201 201 199 199 197 197 198 198 198 195 198 198 198 194 194 194 197 197 
187 187 192 192 197 197 197 194 198 201 201 201 206 206 206 206 209 209 210 210 213 214 214 214 220 220 220 220 223 223 223 223 224 224 224 224 227 230 230 230 234 223 234 223 25 25 25 25 20 7 7 20 20 8 20 20 12 12 9 9 13 15 15 13 14 14 14 14 14 15 15 15 15 15 15 14 12 12 12 12 2 2 2 2 3 0 0 3 74 74 237 74 239 239 239 239 164 164 164 164 48 48 19 19 16 9 16 16 26 26 26 26 108 169 169 108 233 233 233 233 238 238 108 108 183 50 50 50 44 53 53 53 44 44 86 86 53 80 53 53 156 68 68 156 51 51 51 172 59 59 59 59 78 78 78 78 85 85 85 85 11 11 11 11 11 11 223 223 223 223 225 225 225 225 223 223 222 222 222 222 222 222 222 222 221 221 221 220 219 219 219 219 216 216 216 216 215 215 215 215 215 215 215 215 214 214 214 214 214 214 211 211 211 211 211 208 211 211 211 209 207 211 211 207 207 207 207 207 204 204 201 201 202 202 202 202 201 201 201 201 199 199 197 197 198 198 198 195 198 198 198 198 194 194 194 197 
191 191 191 191 195 198 198 198 199 199 203 203 205 205 205 209 208 208 212 212 216 216 216 213 215 215 219 219 222 223 223 222 221 221 230 230 221 238 238 221 222 222 222 39 8 15 15 8 14 14 14 14 13 13 13 13 12 12 12 12 11 11 11 11 12 12 12 12 11 11 14 14 14 14 14 14 14 14 14 14 5 5 0 0 3 3 3 0 22 22 180 180 211 211 211 211 177 177 177 177 108 13 13 13 8 8 8 8 10 10 10 10 62 62 62 62 220 243 243 220 236 236 98 98 181 55 55 55 60 45 60 45 37 90 37 90 65 65 65 65 54 132 132 54 47 47 47 142 46 212 46 46 60 60 60 60 50 50 50 50 15 15 15 15 100 100 228 228 222 223 223 223 222 222 222 222 221 221 221 221 220 220 220 220 218 218 218 220 220 220 220 220 217 216 216 217 217 217 217 217 215 215 215 215 215 215 215 215 213 213 213 213 212 212 212 212 209 209 209 209 210 210 210 210 208 208 208 206 205 206 206 206 202 202 202 202 201 201 198 198 200 200 198 200 200 200 197 197 196 196 197 197 197 197 197 197 
188 188 191 191 195 198 198 198 199 199 203 203 205 205 209 209 212 212 212 212 213 216 216 216 215 215 219 219 222 223 223 223 230 221 230 230 221 221 238 221 222 222 39 39 8 15 15 8 14 14 14 14 13 13 13 12 12 12 12 12 11 11 11 11 11 12 12 12 11 11 14 14 14 14 14 14 14 14 14 14 5 5 0 0 3 3 3 0 22 22 180 180 138 138 211 211 177 177 177 177 108 13 13 13 8 8 8 8 10 10 10 10 62 62 62 229 243 220 220 243 236 236 98 98 181 55 55 55 45 45 60 60 37 90 37 37 65 162 162 162 132 54 54 54 47 47 47 142 212 212 212 212 226 226 226 226 221 221 221 221 213 213 213 213 100 100 228 228 222 223 223 223 222 222 222 222 221 221 221 221 220 220 220 220 220 220 220 220 220 220 220 220 217 217 216 217 217 217 217 213 215 215 215 215 215 215 215 215 213 213 213 213 212 212 212 212 209 209 209 209 210 210 210 210 208 208 208 206 205 206 206 206 204 204 204 204 201 201 201 198 200 200 200 200 200 200 197 197 196 197 197 197 197 197 197 196 
188 188 191 191 195 195 198 198 199 203 203 203 205 209 209 209 212 212 212 212 213 216 216 216 215 219 219 219 223 223 223 223 230 221 221 230 238 221 238 238 222 39 39 39 15 15 8 15 13 14 14 14 13 13 12 12 12 12 12 12 11 11 11 11 11 12 12 12 11 11 14 14 14 14 14 14 14 14 14 14 5 0 0 0 3 3 0 0 22 22 180 180 138 138 138 138 110 110 110 110 108 13 13 13 1 1 1 1 2 2 2 2 62 229 229 229 243 243 243 220 236 236 98 98 181 55 55 55 60 60 45 45 37 90 90 90 162 65 162 162 132 132 54 54 47 47 47 142 46 46 212 212 226 226 226 226 221 221 221 221 213 213 213 213 228 228 228 228 222 223 223 223 222 222 222 222 221 221 221 221 220 220 220 219 220 220 220 220 220 220 218 218 217 217 217 217 217 217 217 213 215 215 215 215 215 215 215 215 213 213 213 213 212 212 212 212 208 208 209 209 210 210 207 207 208 208 208 206 205 206 206 206 204 204 204 204 201 201 201 201 200 200 200 200 200 200 200 197 197 197 197 197 197 197 197 196 
188 191 191 191 195 198 198 198 199 203 203 203 205 205 209 209 212 212 212 212 213 216 216 216 219 219 219 219 223 223 223 223 221 230 221 221 238 238 238 221 39 39 39 39 15 8 15 15 14 14 14 14 13 13 13 13 12 12 12 12 11 11 11 11 11 12 12 12 11 11 14 14 14 14 14 14 14 14 14 14 5 5 5 5 3 0 0 3 22 22 180 180 211 211 138 138 110 110 110 110 108 13 13 13 1 1 1 1 2 2 2 2 62 229 229 229 220 243 243 220 236 236 98 98 181 55 55 55 60 45 60 60 37 90 90 90 65 65 162 65 54 132 54 54 47 47 47 142 46 46 212 212 226 226 226 226 221 221 221 221 213 213 213 213 228 228 228 228 222 223 223 223 222 222 222 222 221 221 220 220 220 219 219 219 220 220 220 220 220 220 220 220 217 217 217 217 217 217 213 213 215 215 215 215 215 215 215 214 213 212 212 212 212 212 212 212 208 209 209 209 210 207 207 207 208 208 208 206 206 205 205 206 204 204 204 204 201 201 201 201 200 200 200 200 200 200 200 197 197 197 197 197 197 197 197 196 
190 190 193 193 197 200 200 200 200 200 204 204 205 205 209 209 212 212 215 215 216 219 216 216 219 219 220 220 223 223 227 227 238 192 238 238 188 188 188 23 19 8 19 19 10 10 17 10 15 15 15 15 16 16 16 15 13 13 13 12 10 10 10 10 10 11 11 11 10 13 13 13 13 13 13 13 13 13 13 13 9 9 9 9 3 3 3 3 25 25 25 104 181 181 181 181 121 30 30 121 45 2 2 2 1 1 1 1 3 3 3 3 32 234 234 234 227 227 227 238 235 235 78 78 139 38 38 38 50 50 50 50 51 119 119 51 166 166 166 166 157 157 47 47 47 47 47 109 46 46 205 205 230 230 230 225 224 228 228 228 230 230 230 230 226 226 218 226 222 223 223 223 222 222 222 222 221 221 220 220 220 219 219 219 220 220 220 220 220 220 220 220 217 217 217 217 217 217 213 213 215 215 215 215 213 213 213 213 210 210 210 210 211 211 211 211 210 210 210 210 208 208 208 208 206 206 206 206 205 205 205 205 203 203 203 203 201 201 198 198 202 202 201 202 203 203 199 199 199 199 199 199 198 198 198 196 
193 193 193 193 197 200 200 200 200 200 204 204 205 205 209 209 212 212 215 215 219 219 219 216 220 220 220 220 223 223 227 227 192 238 238 238 188 188 23 23 19 19 19 19 17 17 17 17 15 15 15 15 16 16 16 16 13 13 13 12 10 10 10 10 10 11 11 11 10 10 13 13 13 13 13 13 13 13 13 13 14 14 14 14 16 3 3 16 25 25 25 104 181 181 65 65 121 30 121 121 45 45 2 2 1 1 1 1 3 3 3 3 32 234 234 234 227 238 238 227 235 235 235 78 38 139 38 38 50 50 50 50 119 119 51 51 56 56 56 56 47 47 47 47 47 47 47 47 46 46 205 205 230 230 230 225 228 228 228 224 230 216 216 216 218 226 226 218 222 223 223 223 222 222 222 222 221 221 221 221 220 220 220 219 218 218 220 220 220 220 220 220 217 217 217 217 217 217 217 213 215 215 215 215 213 213 213 213 210 210 210 210 211 211 211 211 210 210 210 210 208 208 208 208 206 206 206 206 205 205 205 202 202 202 202 202 201 201 198 198 202 202 202 202 203 203 203 199 199 199 199 199 198 198 198 196 
190 193 193 193 197 200 200 200 200 204 204 204 205 209 209 209 212 215 215 215 219 219 219 219 220 220 220 220 223 227 227 227 238 192 238 238 188 23 23 23 8 19 19 19 17 17 17 17 13 15 15 15 16 16 16 16 13 13 13 12 10 10 10 10 10 11 11 11 10 10 13 13 13 13 13 13 13 13 13 13 14 14 14 14 16 3 16 16 25 25 25 104 181 181 65 65 30 121 121 30 45 2 2 2 1 1 1 1 2 2 3 3 32 32 234 234 238 238 227 227 235 235 235 78 38 139 139 38 50 50 50 50 119 51 51 51 56 56 56 56 47 47 47 47 47 47 109 109 46 46 46 205 230 230 225 230 228 228 224 224 230 230 216 230 226 218 226 226 222 223 223 223 222 222 222 222 221 221 221 221 220 220 220 220 220 220 220 220 220 220 220 220 217 217 216 217 217 217 217 213 215 215 215 215 213 213 211 211 210 210 210 210 211 211 211 211 210 210 210 210 208 208 205 205 204 204 206 206 205 205 205 202 203 203 203 203 201 201 201 198 202 202 202 202 203 203 203 199 199 199 199 199 198 198 198 196 
190 190 193 193 197 197 200 200 204 204 204 204 209 209 209 209 215 215 215 215 216 219 219 219 220 220 220 220 223 227 227 227 192 238 238 192 23 23 23 23 8 19 8 8 17 17 10 10 13 13 15 15 16 16 16 16 13 13 13 12 10 10 10 10 10 11 11 11 10 10 13 13 13 13 13 13 13 13 13 13 14 9 14 14 16 3 16 16 25 25 25 104 181 181 65 65 121 30 30 30 2 2 2 2 1 1 1 1 2 3 3 3 32 32 234 234 227 238 238 227 235 235 235 78 38 38 139 139 156 156 156 156 119 119 119 119 166 166 166 166 157 157 157 157 109 109 109 47 46 46 46 205 230 230 225 230 228 228 224 228 216 230 216 230 226 218 218 226 222 223 223 223 222 222 222 222 221 221 221 221 220 220 220 220 220 220 220 220 220 218 218 218 217 216 216 217 217 217 217 217 215 215 215 214 213 213 211 211 210 210 210 210 211 211 211 211 208 208 208 208 208 205 205 205 204 204 206 206 205 205 202 202 203 203 203 203 201 201 201 201 202 202 202 202 203 203 203 199 199 199 199 199 198 198 198 196 
188 188 192 192 196 200 200 200 202 202 204 204 207 209 209 209 212 215 215 215 217 220 220 220 216 233 216 233 232 232 232 232 170 170 170 14 8 22 8 8 7 7 7 7 11 11 11 11 13 13 7 7 11 11 11 11 10 10 10 10 8 7 8 8 10 10 10 10 10 10 10 10 17 17 9 9 11 11 11 11 23 11 11 11 10 1 10 10 24 24 9 24 221 221 35 35 9 14 9 9 6 6 6 6 6 6 1 1 14 0 0 14 12 12 207 207 241 241 217 217 224 241 224 241 18 18 18 18 21 21 21 21 172 172 25 25 10 10 10 10 7 7 7 7 15 1 15 15 49 49 49 49 225 225 225 225 230 219 230 219 220 221 221 221 221 221 221 220 223 223 223 223 223 223 223 223 220 220 220 220 220 220 220 220 219 219 217 217 217 217 217 217 218 218 218 218 216 215 215 215 214 215 215 215 213 212 213 213 214 214 214 214 212 212 212 212 210 210 208 208 207 207 206 206 204 204 204 207 206 206 206 203 202 202 205 205 203 203 201 201 203 203 203 203 200 200 200 197 199 199 199 199 196 196 196 194 
188 188 192 192 196 200 200 200 202 202 204 204 207 209 209 209 212 212 215 215 217 220 220 220 233 216 233 216 232 232 177 232 170 170 14 14 22 8 8 22 7 7 7 7 6 11 11 11 13 13 7 7 5 11 11 11 10 10 10 10 8 7 8 8 10 10 10 10 10 10 10 10 9 9 17 17 11 11 11 11 11 11 11 11 10 1 1 10 24 24 9 24 221 221 221 35 9 14 14 14 21 21 6 6 1 6 6 6 14 0 0 0 12 12 207 207 241 217 241 241 224 241 224 224 222 18 18 18 21 21 21 21 25 25 25 25 10 10 10 169 135 135 135 7 1 1 1 1 6 6 6 49 126 225 225 225 230 219 219 230 221 221 221 221 221 221 221 221 221 221 221 221 221 221 221 221 220 220 220 220 220 220 220 220 219 219 217 217 217 217 217 217 218 218 218 216 216 216 216 216 214 215 215 215 213 212 213 213 214 214 214 214 212 212 212 212 210 210 210 208 207 207 207 206 207 207 207 207 206 206 203 203 205 205 205 202 203 203 203 201 203 203 203 203 200 200 200 197 199 199 199 199 196 196 196 194 
188 188 192 192 196 200 200 200 202 202 204 204 207 209 209 209 212 212 215 215 217 220 220 220 233 216 216 233 177 232 232 177 170 14 14 14 8 8 22 8 7 7 5 5 6 6 11 11 13 13 7 7 5 5 5 11 10 10 10 10 8 7 8 8 10 10 10 10 10 10 10 10 9 17 17 9 11 11 69 69 23 23 11 11 10 1 1 1 24 24 9 9 221 221 35 35 9 14 14 14 21 21 21 21 1 6 1 1 0 14 14 14 12 12 12 207 241 241 241 217 241 224 224 241 222 222 18 18 21 21 21 21 25 25 25 25 169 10 10 169 135 135 7 7 15 1 1 1 6 6 6 6 126 225 225 225 230 219 219 230 221 221 221 221 221 221 221 221 223 223 223 223 223 223 223 223 220 220 220 220 220 220 220 220 219 219 219 217 217 217 217 217 218 216 216 216 216 216 216 216 214 215 215 215 213 212 213 213 214 214 214 213 212 212 212 212 210 210 210 208 207 207 207 207 207 207 207 207 206 206 203 203 205 205 205 202 201 203 203 203 203 203 203 203 200 200 197 197 199 199 199 199 196 196 196 194 
188 188 192 192 196 196 200 200 202 202 204 204 207 209 209 209 212 212 215 215 217 220 220 220 216 216 233 216 232 232 232 177 14 14 14 14 8 22 22 8 7 7 5 5 6 6 6 11 13 13 13 7 5 5 5 5 8 10 10 10 8 7 8 8 10 10 10 9 9 10 10 10 17 17 17 9 11 69 69 69 23 23 23 11 1 1 1 1 9 24 9 9 221 35 35 35 9 14 14 14 21 21 21 21 6 6 1 1 0 0 0 0 12 12 12 12 241 217 217 217 224 241 241 241 222 222 222 222 198 198 198 198 172 172 172 172 169 169 169 169 135 135 7 7 15 15 1 15 6 6 6 6 126 225 225 225 230 219 219 219 221 221 221 221 221 221 221 221 223 223 223 223 223 223 223 223 220 219 219 219 220 218 218 218 219 219 219 217 217 217 217 217 218 218 218 216 216 216 216 216 214 215 215 215 213 212 213 213 213 213 213 213 212 212 212 211 210 210 210 210 207 207 207 207 204 204 207 207 206 206 206 206 205 205 205 202 201 203 203 203 202 202 202 202 200 200 197 197 199 199 199 199 196 196 196 194 
188 190 190 190 194 197 197 197 202 202 204 204 207 209 209 209 213 213 213 213 216 218 218 218 190 229 190 229 159 159 159 15 20 8 8 20 19 19 19 19 8 8 8 8 5 5 5 9 15 15 15 15 9 6 6 9 9 9 9 9 8 8 10 10 9 9 9 9 9 9 9 9 9 9 14 14 24 24 24 24 25 25 25 9 0 3 3 3 4 16 16 16 38 38 38 38 15 15 15 15 15 21 21 21 34 34 2 2 25 25 25 25 29 29 29 29 71 199 71 71 247 247 143 143 195 195 96 96 93 93 93 93 96 96 96 211 230 158 230 230 220 220 50 50 56 25 25 25 34 34 34 34 212 230 212 212 228 217 228 217 220 220 220 220 220 220 220 220 219 219 219 219 219 219 219 219 219 219 219 219 218 218 218 218 220 220 219 219 218 218 219 219 218 218 218 218 216 215 215 216 214 215 215 215 213 212 213 213 211 211 211 211 210 210 210 210 209 209 209 209 207 207 207 207 205 203 203 205 205 205 205 205 204 204 204 201 202 202 202 202 199 199 199 199 198 198 198 198 197 197 197 197 195 195 195 194 
188 190 190 190 194 197 197 197 202 202 204 204 207 209 209 209 211 213 213 213 216 218 218 218 229 190 229 229 159 159 15 15 20 20 8 8 19 11 11 19 14 14 8 8 9 5 5 5 5 15 15 15 9 6 6 9 6 9 9 9 8 8 10 10 9 9 9 9 9 9 9 9 9 14 14 14 24 6 6 6 25 25 25 9 3 3 0 0 4 16 4 16 190 190 190 38 22 22 22 15 15 15 21 21 34 34 2 2 25 25 25 25 204 204 204 204 199 199 199 71 247 247 143 143 195 195 96 96 93 93 93 93 96 96 96 96 158 158 158 230 220 220 50 50 56 56 56 56 34 130 34 130 230 230 212 230 217 217 228 217 220 220 220 220 220 220 220 220 219 219 219 219 219 219 219 219 222 222 222 219 218 218 218 218 220 220 220 219 219 219 219 219 218 218 218 218 216 215 215 215 214 215 215 215 213 212 213 213 211 211 211 211 210 210 210 210 209 209 209 209 207 207 207 207 205 205 205 203 201 201 201 201 204 204 204 201 202 202 202 202 199 199 199 199 198 198 198 198 197 197 197 197 195 195 195 194 
188 190 190 190 194 197 197 197 202 202 204 204 207 209 209 209 211 213 213 213 216 216 218 218 229 229 229 229 159 15 15 15 8 20 20 8 11 11 11 19 14 14 14 14 9 9 5 5 5 5 15 15 9 9 6 9 6 9 9 9 8 8 10 10 9 9 9 8 8 9 9 9 14 14 14 9 6 6 6 6 9 9 25 9 3 3 0 0 4 16 4 4 190 190 38 38 22 22 22 15 15 15 21 21 34 34 2 2 25 190 190 190 204 204 204 204 199 199 199 71 247 247 143 247 195 195 195 195 207 207 207 207 211 211 96 96 158 158 158 158 220 220 50 50 56 56 56 56 34 130 34 130 230 212 230 230 228 228 217 217 220 220 220 218 218 220 220 220 219 219 219 219 219 219 219 219 222 222 222 222 218 218 218 218 220 220 220 219 219 219 219 219 218 218 218 216 216 216 216 216 214 215 215 215 213 212 213 213 211 211 211 210 210 210 209 209 209 209 209 206 207 204 204 204 205 205 205 203 201 201 201 201 204 204 201 201 202 202 202 202 198 199 199 199 198 198 198 198 196 197 197 197 195 195 195 194 
188 190 190 190 194 197 197 197 202 202 204 204 207 209 209 209 211 211 213 213 216 216 218 218 229 229 229 190 15 15 15 15 20 8 20 8 11 11 19 19 14 14 14 14 9 9 9 5 5 5 15 15 9 9 6 6 6 9 9 9 8 8 10 10 9 9 9 8 8 9 9 9 9 9 9 14 6 6 6 6 9 9 9 9 3 3 3 3 4 16 16 16 190 190 38 38 22 22 22 22 21 21 21 21 2 2 2 34 190 190 190 190 29 29 29 29 71 71 71 71 247 247 143 143 96 195 96 195 207 207 207 207 211 211 211 211 230 230 230 230 220 220 50 50 25 25 25 25 34 130 34 130 230 212 230 212 217 228 217 228 220 220 218 218 218 218 220 220 218 218 218 218 218 218 218 218 222 222 222 222 218 218 218 218 220 220 220 219 219 219 219 219 218 218 216 216 216 216 216 216 214 215 215 215 213 212 213 213 211 211 210 210 210 209 209 209 209 209 206 206 204 204 204 204 205 205 205 203 205 205 205 205 201 201 201 201 202 202 199 199 198 198 199 199 198 198 198 196 196 196 197 197 195 195 195 195 
189 192 192 192 195 196 196 196 203 203 203 203 206 206 206 209 202 221 202 202 228 211 228 228 196 196 196 28 6 14 6 14 13 13 13 13 13 13 13 13 14 14 17 17 16 16 12 12 7 7 7 11 12 12 7 7 6 6 6 7 7 7 8 8 9 9 9 8 8 9 9 9 11 11 11 11 12 12 12 7 6 6 14 14 6 0 0 6 5 5 5 20 176 23 23 23 10 29 29 10 26 26 26 3 22 22 22 189 98 98 98 13 5 5 5 5 37 37 37 37 213 213 45 45 16 16 16 16 179 179 251 251 247 254 254 254 253 253 253 253 229 229 43 43 10 10 10 10 35 35 35 222 222 222 222 221 221 221 221 221 219 219 219 219 218 218 218 218 218 218 218 218 218 218 218 218 220 221 221 221 222 222 222 222 220 220 220 220 218 218 218 218 216 216 216 216 215 215 215 215 213 213 213 213 213 213 213 213 210 210 210 210 209 209 209 209 205 205 205 207 207 207 207 207 204 204 204 204 203 203 203 201 203 203 200 200 200 200 198 198 197 197 197 197 197 197 195 195 195 195 195 195 194 194 194 194 
189 192 192 192 195 196 196 196 203 203 203 203 206 206 209 209 221 202 221 221 211 228 228 211 196 196 28 28 14 14 14 6 13 13 13 13 13 13 16 16 14 14 17 17 16 16 12 12 7 7 7 11 12 12 7 7 6 7 7 7 8 8 8 8 9 9 9 8 8 9 9 9 11 10 10 11 12 12 7 7 6 14 14 14 6 0 0 0 5 20 5 20 176 23 23 23 29 10 29 29 3 3 26 3 22 22 189 189 98 98 13 13 5 5 5 70 164 164 164 164 213 45 45 45 16 16 158 16 179 179 251 251 254 254 254 247 253 253 253 253 229 229 43 43 10 10 10 10 35 35 35 222 222 222 222 221 221 221 221 221 219 219 219 219 218 218 218 218 217 218 218 218 221 218 218 218 221 221 221 221 222 222 222 222 220 220 220 220 218 218 218 218 216 216 216 216 215 215 215 215 213 213 213 213 213 213 213 213 210 210 210 210 209 209 209 209 205 205 207 207 207 207 207 207 204 204 204 204 203 203 203 201 203 203 203 203 200 200 200 200 197 197 197 197 197 197 195 195 195 195 195 195 194 194 194 194 
189 192 192 192 195 196 196 196 200 200 203 203 206 209 209 209 221 202 221 221 211 228 228 228 196 28 28 28 14 6 14 14 13 13 13 13 16 16 16 16 14 14 17 17 16 16 16 16 11 11 11 11 12 12 12 7 7 7 7 7 8 8 8 8 9 9 9 8 8 9 9 9 10 10 10 11 12 12 7 7 6 6 14 14 6 0 0 0 5 5 20 20 23 23 23 23 29 29 29 10 3 26 3 26 22 189 189 22 13 13 13 13 70 5 5 70 164 164 164 37 213 45 45 45 158 16 158 16 179 251 251 251 254 247 247 254 253 190 253 253 229 229 43 43 92 92 92 92 35 35 222 222 222 222 222 221 221 221 221 221 219 219 219 219 218 218 218 218 217 218 218 218 221 221 221 221 221 221 221 221 222 222 222 222 220 220 220 217 218 218 218 218 216 216 216 216 215 215 215 215 213 213 213 213 213 213 213 213 210 210 210 210 209 209 209 209 207 207 207 207 207 207 205 205 204 204 204 204 203 203 201 201 203 203 203 203 200 200 200 200 195 195 197 197 197 197 197 197 195 195 195 195 194 194 194 194 
189 189 192 192 196 196 196 196 200 200 203 203 206 209 209 209 202 221 202 221 228 211 228 211 28 28 28 28 14 6 14 14 13 13 13 13 16 16 16 16 14 17 17 17 16 16 16 16 11 11 11 11 12 12 12 7 7 7 7 7 8 8 8 8 9 9 9 8 8 9 9 9 11 11 11 11 12 12 7 7 6 6 14 14 6 6 6 6 5 5 20 20 23 23 23 23 29 10 10 10 26 3 26 3 189 189 189 22 13 13 13 13 5 5 5 5 37 37 164 164 213 45 213 213 158 158 158 16 251 251 251 251 254 254 254 254 253 253 253 190 229 229 43 43 92 92 92 92 35 35 222 222 222 222 221 221 220 220 221 221 219 219 219 219 218 218 218 218 217 218 218 218 221 221 221 221 221 221 221 221 219 219 219 219 217 217 217 217 218 216 216 216 216 216 216 215 215 215 214 214 212 212 212 212 212 212 212 212 210 210 210 209 209 209 208 208 207 207 207 207 207 205 205 205 203 204 204 204 203 203 201 201 203 203 200 200 200 200 198 198 195 195 197 197 197 197 197 197 195 195 195 194 194 194 193 193 
188 192 192 192 196 197 197 197 202 202 202 205 207 210 210 210 209 223 209 223 203 203 203 38 17 10 10 17 24 24 11 11 14 14 14 17 17 18 18 18 15 17 17 17 16 16 16 16 13 13 13 13 11 11 11 8 7 7 7 7 8 8 8 8 9 9 9 8 8 9 9 9 12 12 12 12 11 11 11 11 13 13 13 13 7 4 4 7 3 3 14 14 22 22 22 22 7 0 7 0 16 16 16 16 192 192 13 13 6 18 6 18 1 1 1 12 7 7 225 225 219 236 219 236 241 241 196 196 252 252 226 226 234 253 253 253 249 249 249 25 218 218 16 16 59 59 59 59 59 59 228 228 221 221 221 219 219 219 219 219 219 219 219 219 218 218 218 218 218 218 220 220 222 222 222 222 219 219 219 219 218 218 218 218 218 218 217 217 216 216 216 216 215 215 215 215 213 213 213 213 212 212 212 212 212 212 212 212 209 209 209 209 207 207 207 207 207 207 207 207 207 205 205 205 203 203 203 203 202 202 202 202 203 203 200 200 200 200 198 198 196 196 196 198 196 196 196 196 194 194 194 194 192 192 192 192 
188 188 192 192 196 197 197 197 202 202 205 205 207 210 210 210 209 209 223 223 203 203 38 38 17 17 10 10 24 11 11 24 14 17 17 17 18 18 18 18 17 17 17 17 16 16 16 16 13 13 13 13 11 11 11 8 7 7 7 7 8 8 8 8 9 9 9 8 8 9 9 9 12 12 12 12 11 11 11 11 13 13 13 13 7 4 4 4 3 3 14 14 22 22 2 22 0 7 0 7 16 16 16 197 192 13 13 13 18 6 18 6 12 12 1 1 7 7 225 225 236 219 236 219 241 196 196 241 252 252 226 226 234 234 253 253 249 249 249 25 218 218 16 16 9 59 59 9 59 59 228 228 221 221 221 219 219 219 219 219 219 219 219 219 218 218 218 218 218 218 220 220 222 222 222 222 219 219 219 219 218 218 218 218 218 218 218 217 216 216 216 216 215 215 215 215 213 213 213 213 213 213 213 213 213 213 213 213 209 209 209 209 207 207 207 207 207 207 207 207 207 207 205 205 203 203 203 203 202 202 202 202 203 203 203 203 200 200 200 200 196 198 198 198 196 196 196 196 194 194 194 194 192 192 192 192 
188 188 192 192 196 197 197 197 202 205 205 205 207 210 210 210 209 209 209 223 203 203 38 38 17 17 17 17 11 11 11 24 17 17 17 17 18 18 18 18 17 17 17 15 16 16 12 12 13 13 11 11 11 11 11 8 6 7 7 7 8 8 8 8 9 9 9 8 8 9 9 9 10 12 12 12 8 8 11 11 13 13 13 13 7 7 4 4 3 14 14 14 22 2 2 2 7 7 0 7 16 16 197 197 13 13 13 13 18 6 18 6 1 1 1 1 7 7 225 225 236 236 236 236 241 196 241 241 226 252 252 252 253 253 253 253 249 249 249 25 218 218 16 16 9 9 9 9 59 59 228 228 221 221 219 219 219 219 219 219 219 219 219 219 218 218 218 218 218 220 220 220 222 222 219 219 219 219 219 219 218 218 218 218 218 218 218 218 216 216 216 216 215 215 215 214 213 213 213 213 213 213 213 213 213 213 213 213 209 209 209 208 207 207 207 207 205 205 207 207 207 207 207 207 202 203 203 203 202 202 202 200 203 203 203 203 200 200 200 200 198 198 198 198 196 196 193 193 194 194 194 193 192 192 192 192 
188 188 192 192 196 197 197 197 205 205 205 205 207 207 210 210 209 223 209 223 203 38 38 38 10 10 10 17 24 24 24 11 17 17 17 17 18 18 18 18 17 17 17 15 12 12 12 12 13 13 11 11 11 11 8 8 6 6 6 7 7 7 8 8 9 9 9 8 8 9 9 9 10 12 12 10 8 8 8 11 5 5 5 5 7 7 7 7 14 3 14 3 22 2 22 2 7 7 0 0 16 197 197 197 13 13 13 13 6 6 18 6 12 1 1 12 7 7 225 225 236 219 236 219 241 196 241 241 252 252 252 252 253 253 234 253 249 249 25 25 218 218 16 16 9 9 9 9 59 59 228 228 221 221 219 219 219 219 219 219 219 219 219 219 218 218 218 218 220 220 220 220 222 219 219 219 216 216 216 219 218 218 218 218 218 218 218 218 216 216 216 216 215 215 215 214 213 213 213 213 213 213 213 213 213 213 213 213 209 209 209 208 207 207 207 207 205 205 205 207 207 207 207 207 202 203 203 203 202 202 202 200 203 203 200 200 200 200 198 198 198 198 198 198 196 196 193 193 194 194 194 193 192 192 192 192 
189 189 192 192 196 197 197 197 201 201 205 205 207 207 210 210 219 219 219 219 24 24 11 24 13 13 18 18 19 19 19 19 13 13 13 13 16 16 16 16 12 12 12 12 11 11 11 8 8 6 6 8 9 9 9 4 7 7 9 9 9 9 9 9 6 6 6 7 9 9 9 9 9 12 12 12 8 8 2 2 2 2 0 0 2 2 5 5 11 11 1 11 2 2 16 2 19 19 19 19 187 187 187 14 2 2 2 8 11 11 11 7 1 10 1 10 7 7 7 175 240 215 215 240 134 247 247 247 249 249 249 249 253 253 244 253 237 237 58 237 172 8 8 8 7 7 7 7 88 88 224 224 217 217 217 217 218 218 218 218 217 217 217 217 218 218 216 216 216 219 219 219 219 219 219 216 219 219 219 219 218 218 218 218 217 217 217 217 216 216 216 216 215 215 215 214 212 214 214 214 213 213 213 213 212 212 212 212 210 210 210 210 208 208 208 208 206 208 208 208 207 207 204 204 202 202 202 202 202 202 202 202 198 202 198 198 197 200 200 197 197 197 199 199 197 197 197 196 189 194 194 194 191 191 191 191 
189 189 192 192 196 197 197 197 205 205 205 205 210 210 210 210 219 219 219 52 24 24 11 11 18 18 18 18 19 19 19 10 13 13 13 13 16 16 6 6 12 12 12 12 11 11 11 8 8 6 6 8 9 9 4 4 7 9 9 9 9 9 9 9 7 7 7 7 9 9 9 9 12 12 12 12 8 8 2 2 2 2 0 0 2 5 5 5 11 11 1 1 2 16 16 2 19 19 19 193 187 187 14 14 8 2 2 8 11 11 11 11 10 10 1 1 7 7 7 175 215 240 240 215 134 247 247 134 176 249 249 249 244 253 253 253 237 58 58 237 172 8 8 8 7 7 7 7 88 224 224 224 220 220 220 220 218 218 218 218 215 217 217 217 218 218 218 216 216 219 219 219 219 219 219 216 219 219 219 219 218 218 218 218 217 217 217 217 216 216 216 216 215 215 215 214 214 214 214 214 213 213 213 213 212 212 212 212 210 210 210 210 208 208 208 208 206 208 208 208 207 207 204 204 203 203 203 203 203 203 203 203 202 202 202 198 197 200 200 200 197 197 199 199 197 197 197 196 189 189 194 194 191 191 191 191 
189 192 192 192 196 197 197 197 205 205 205 205 210 210 210 210 219 219 52 52 11 24 11 11 18 18 18 13 10 10 10 10 3 3 3 3 6 6 6 6 12 8 8 8 11 11 11 8 8 8 8 8 9 9 4 4 7 9 9 9 9 9 9 9 7 7 7 7 7 9 9 9 12 12 12 12 8 8 2 2 2 2 2 2 2 5 5 5 11 1 1 11 2 2 16 2 19 19 19 193 187 14 14 14 8 8 8 8 7 11 11 11 10 10 1 1 7 7 7 175 240 240 215 215 247 247 247 247 176 176 249 249 253 253 253 253 58 58 237 237 172 8 8 8 7 7 7 7 88 224 224 224 220 220 220 220 218 218 218 218 215 215 217 217 218 218 218 218 219 219 219 216 216 219 219 219 219 219 219 219 218 218 218 218 217 217 217 217 216 216 216 216 215 215 215 215 214 214 212 212 213 213 213 213 212 212 212 212 210 210 210 207 208 208 207 207 206 208 208 208 207 207 204 204 203 203 203 203 203 203 203 203 202 202 202 198 200 200 200 200 199 199 199 199 197 197 197 196 189 189 194 194 191 190 190 190 
189 192 192 192 196 197 197 197 201 201 201 205 207 207 210 210 219 219 52 52 11 11 24 11 18 13 13 13 10 10 10 10 3 3 3 3 6 6 6 6 8 8 8 8 11 11 8 8 8 8 8 8 9 9 4 4 9 9 9 9 9 9 9 8 7 7 7 7 7 7 9 9 9 12 12 12 8 8 8 8 2 2 2 2 5 5 5 5 11 1 1 11 2 2 16 16 19 19 193 193 14 14 14 14 8 8 8 2 7 7 7 11 10 1 1 10 7 7 7 175 240 240 240 240 247 134 247 247 249 176 249 249 253 253 244 244 58 237 237 58 8 8 8 8 57 57 7 57 224 224 224 224 220 220 220 220 218 216 216 216 215 215 215 217 218 218 218 218 219 219 219 216 216 219 219 219 219 219 219 218 218 218 217 217 217 217 217 216 216 216 215 215 214 214 215 215 214 214 212 212 213 213 213 212 212 212 211 211 207 207 207 207 207 207 207 207 206 208 208 208 207 207 204 204 203 203 203 203 203 203 203 203 198 202 202 198 197 200 200 197 199 199 199 199 197 197 197 197 189 194 194 194 191 191 191 191 
191 191 194 194 197 198 198 198 201 201 201 204 207 207 213 213 152 152 13 13 17 6 17 17 8 8 8 8 9 9 9 9 10 10 10 4 4 4 4 4 7 7 7 7 5 5 5 5 9 9 9 9 6 6 6 6 8 9 9 9 9 9 9 9 7 7 7 7 7 7 9 9 9 9 9 9 10 10 10 10 5 5 5 5 5 6 6 6 10 1 1 10 6 6 6 6 33 196 196 33 6 18 6 18 11 11 6 6 0 4 4 4 5 0 5 5 0 7 0 7 239 239 239 239 195 195 74 195 246 86 246 246 250 250 250 250 183 183 183 21 11 33 11 11 37 37 37 222 225 225 214 225 217 217 217 217 217 217 214 214 217 217 217 217 216 216 216 216 218 218 218 215 215 218 218 218 218 218 218 218 216 216 216 216 216 216 216 216 214 214 214 214 212 214 214 214 212 212 212 211 212 212 212 212 210 210 210 210 206 206 206 206 207 207 207 207 206 206 206 206 204 204 204 204 203 203 203 203 203 203 203 203 200 203 203 200 198 202 202 198 202 202 199 199 197 197 197 197 194 195 195 195 192 192 192 192 
191 191 194 194 197 198 198 198 204 204 204 204 207 213 213 213 152 13 13 13 6 17 17 6 8 8 8 8 3 9 9 9 10 10 10 4 4 4 4 4 7 7 2 2 5 5 5 5 9 9 9 9 6 6 6 6 9 9 9 9 9 9 9 7 7 7 7 7 7 9 9 9 6 6 9 9 10 10 10 10 6 6 6 6 6 6 6 6 1 10 10 1 6 6 6 6 196 196 33 33 6 18 18 6 11 11 6 6 0 0 4 4 5 0 5 0 0 7 0 7 239 239 239 239 195 195 195 74 86 86 246 246 250 250 250 250 183 21 21 21 33 11 33 33 37 37 222 222 225 214 214 225 217 217 217 217 217 214 214 214 217 217 217 217 216 216 216 216 218 218 218 215 215 218 218 218 218 218 218 218 216 216 216 216 216 216 216 216 214 214 214 214 214 214 214 214 212 212 212 212 212 212 212 212 210 210 210 210 206 206 206 206 207 207 208 208 206 206 206 206 204 204 204 204 203 203 203 203 203 203 203 203 200 203 203 203 202 202 202 198 202 202 202 199 197 197 197 197 195 195 195 195 192 192 192 192 
191 191 194 194 198 198 198 198 204 204 204 204 207 213 213 213 152 13 13 13 6 6 17 6 8 8 8 2 3 3 3 3 4 4 4 10 14 14 14 14 7 7 2 2 1 5 5 5 4 9 9 9 2 2 6 6 9 9 9 9 9 9 9 7 7 7 7 7 9 9 9 9 9 9 9 9 10 10 10 6 6 6 6 6 6 6 6 6 1 10 10 10 6 6 6 130 196 33 33 33 18 6 18 6 11 11 11 11 4 0 0 4 5 5 5 0 0 7 0 7 77 77 77 77 195 195 74 74 86 86 86 246 250 250 250 250 183 21 21 21 33 33 33 11 37 37 222 222 225 225 214 225 217 217 217 217 217 217 217 217 217 217 217 215 214 216 216 216 215 218 218 215 215 218 218 215 218 218 218 217 216 216 216 216 216 216 216 215 214 214 214 214 214 214 212 212 212 212 212 212 212 212 212 211 210 210 210 210 206 206 206 206 208 208 208 208 206 206 206 206 204 204 204 204 203 203 203 203 203 203 203 203 200 203 203 203 202 202 202 198 202 202 202 199 197 197 197 197 195 195 195 195 192 190 192 192 
191 191 194 194 198 198 198 198 201 201 201 201 207 207 213 213 13 13 13 13 17 6 17 6 2 2 2 2 3 3 3 3 4 10 10 10 14 14 14 14 7 7 2 2 1 1 5 5 4 4 4 4 2 2 2 6 9 9 9 9 9 9 7 7 6 6 6 7 9 9 9 9 9 9 9 9 6 6 6 6 6 6 6 6 6 6 6 6 10 1 1 1 6 6 130 130 196 33 33 33 18 18 6 6 6 11 11 11 4 4 0 0 0 5 5 0 0 7 0 0 77 77 77 77 74 74 74 74 86 86 86 86 102 102 102 102 21 21 21 21 11 33 11 33 37 222 222 222 225 214 214 214 217 217 217 217 217 217 217 217 217 217 217 215 214 214 214 216 215 218 218 218 218 218 218 215 218 218 218 217 216 216 216 216 216 216 216 215 214 214 214 214 214 214 212 212 211 212 212 212 212 212 212 211 210 210 210 210 206 206 206 206 208 208 208 208 206 206 206 204 204 204 204 204 202 202 202 202 202 202 202 202 200 203 203 200 202 202 202 198 202 202 202 199 197 197 197 197 195 195 195 194 190 190 190 192 
191 191 193 193 196 196 198 198 207 197 207 197 211 211 211 46 9 9 9 9 12 12 12 12 8 8 8 8 10 10 10 10 12 12 16 16 13 6 6 6 5 5 5 5 1 1 1 1 2 2 0 2 5 8 8 5 8 8 8 8 7 7 7 7 7 7 7 5 6 11 11 6 7 7 7 7 7 7 7 7 2 2 2 9 7 5 7 7 4 4 4 4 24 24 216 216 14 14 7 7 11 11 8 8 7 9 9 9 5 5 5 5 0 5 5 0 0 5 0 5 29 4 4 29 6 6 123 6 3 6 6 6 6 6 6 6 16 16 16 16 16 8 16 16 156 230 230 230 210 210 221 221 217 217 217 217 217 217 217 217 219 219 219 219 217 217 217 216 216 216 216 216 215 215 215 215 215 216 216 216 215 215 215 215 216 216 216 216 215 215 215 215 213 213 213 210 212 212 203 212 212 212 212 209 207 207 210 210 208 208 205 205 208 208 206 206 206 206 204 204 203 204 204 204 205 205 202 202 202 202 202 203 199 199 202 202 200 199 200 200 202 202 202 199 197 197 196 196 197 194 194 197 194 191 191 194 
191 193 193 193 196 196 198 198 207 197 207 197 211 211 211 46 9 9 9 9 8 12 12 12 8 8 8 15 10 16 16 16 12 16 16 16 13 13 13 6 10 10 10 5 1 1 1 1 2 0 0 2 5 8 5 5 8 8 8 8 7 7 7 7 5 7 7 5 11 11 11 6 7 7 7 7 7 7 7 4 9 9 9 9 5 5 5 7 4 4 4 4 24 216 216 24 7 7 14 14 11 11 11 11 7 9 9 9 5 5 1 1 5 0 0 5 5 5 0 0 4 29 4 4 6 6 123 123 6 6 6 3 3 6 6 6 9 16 16 16 16 8 16 16 230 230 230 156 221 221 221 221 217 217 217 217 217 217 217 217 219 219 219 219 217 217 217 217 216 216 216 216 218 218 218 218 216 216 216 216 215 215 215 215 216 216 216 216 215 215 215 215 210 213 213 210 212 203 203 212 212 212 212 212 210 210 207 207 208 208 205 208 208 208 208 206 206 206 204 204 204 204 204 204 205 205 205 205 203 203 203 203 199 202 202 202 200 199 200 200 202 202 202 199 197 197 197 197 197 194 194 197 194 191 191 194 
191 193 193 193 196 198 198 198 207 207 207 197 211 211 211 46 9 9 6 6 8 8 12 12 15 15 15 15 16 16 16 16 16 16 16 16 13 13 13 13 10 10 10 10 10 10 1 1 2 2 2 2 5 8 8 5 8 8 8 8 7 7 7 7 5 7 7 7 11 11 11 11 7 7 7 7 7 4 4 4 9 9 9 9 5 5 7 7 4 4 4 4 216 216 24 24 7 7 14 14 11 11 11 11 9 9 9 7 5 5 1 1 5 0 0 5 5 0 5 0 4 4 4 4 6 6 123 6 6 6 3 3 3 3 6 6 9 9 16 16 16 8 8 8 156 230 230 230 221 221 210 221 217 217 217 217 217 217 217 217 215 215 215 215 217 217 217 217 216 216 216 216 218 218 218 218 216 216 216 216 215 215 215 213 216 216 216 216 215 215 215 215 210 213 213 213 212 203 203 212 212 212 212 212 210 210 207 207 208 208 208 208 208 208 208 206 206 206 206 206 204 204 204 204 205 205 205 205 203 203 203 203 202 202 202 202 200 199 199 200 202 202 199 199 197 197 197 197 197 194 194 197 194 191 191 194 
193 193 193 193 196 198 198 198 197 197 207 207 211 211 211 46 9 6 6 6 8 8 12 12 15 15 15 15 16 16 16 16 16 16 12 12 13 6 6 6 10 10 5 10 10 10 10 1 2 2 2 2 8 8 8 8 8 8 8 8 7 7 7 7 7 7 7 7 6 6 6 6 7 4 4 4 4 4 4 7 9 9 9 9 7 7 7 7 4 100 4 100 216 24 24 24 14 14 14 14 11 8 8 8 9 9 9 9 5 5 1 1 0 0 0 5 0 0 5 5 4 29 29 29 6 6 6 6 6 6 6 6 6 3 3 6 9 9 9 16 16 8 8 8 156 230 230 230 221 221 210 221 217 217 217 217 217 217 217 217 215 215 215 215 217 217 217 217 216 216 216 216 218 218 218 218 216 216 216 216 215 215 213 213 216 216 216 216 215 215 215 215 210 213 213 213 212 203 203 212 209 209 209 209 210 210 210 207 208 208 208 208 208 208 208 208 204 206 206 206 204 204 204 203 205 205 205 205 203 203 203 203 202 202 202 202 200 199 199 199 202 202 199 199 197 197 197 197 197 197 194 197 194 194 191 194 
192 192 195 195 197 200 200 200 198 198 208 208 210 210 210 52 5 5 2 2 2 7 7 7 11 11 11 11 14 14 10 10 13 13 5 5 4 4 4 4 10 10 10 10 17 17 8 8 2 2 2 2 8 8 8 8 8 8 8 8 7 7 7 7 9 6 9 9 8 8 8 8 15 15 4 4 3 3 6 6 4 4 9 9 8 8 8 8 28 28 206 206 49 4 4 49 14 14 14 14 11 11 11 5 11 11 11 11 11 11 3 3 0 7 0 0 4 4 4 4 7 221 7 7 4 19 4 19 7 7 7 13 12 12 3 3 8 8 8 2 4 4 4 4 25 218 218 218 223 223 213 213 218 218 218 218 218 218 218 218 218 218 218 218 215 215 215 215 216 216 216 216 218 218 218 218 216 216 216 216 215 215 213 213 217 217 217 216 214 214 214 214 211 214 214 214 217 199 199 217 225 225 225 225 213 206 213 213 208 208 208 208 208 208 208 208 206 206 207 207 206 206 204 204 205 205 205 202 202 202 203 203 202 202 202 202 201 201 198 198 200 200 200 200 198 198 198 198 199 196 196 199 197 194 194 197 
192 192 195 195 197 200 200 200 198 208 208 198 210 210 210 52 5 5 2 2 2 7 7 7 11 11 11 11 10 10 10 10 5 5 5 5 4 4 4 13 16 10 10 16 17 17 8 8 2 2 2 2 5 5 8 8 8 8 8 8 7 7 7 7 6 6 9 9 14 14 14 14 15 15 15 4 3 3 6 6 4 9 9 9 8 3 3 3 28 28 206 206 4 4 4 49 14 14 4 4 11 11 11 11 11 11 11 11 11 11 11 3 7 0 7 0 4 4 4 4 221 221 7 7 4 19 4 19 7 7 13 13 12 12 3 3 8 8 2 2 0 4 4 4 25 25 218 218 223 223 223 213 218 218 218 218 218 218 218 218 218 218 218 218 215 215 215 214 216 216 216 216 218 218 218 218 216 216 216 216 215 215 215 213 217 217 217 216 214 214 214 214 214 214 214 214 217 199 199 217 250 250 225 225 213 206 206 213 208 208 208 208 208 208 208 206 207 207 207 207 206 206 204 204 205 205 202 202 202 202 202 203 202 202 202 202 201 201 201 198 200 200 200 198 198 198 198 198 199 196 196 199 197 194 194 197 
192 192 195 195 197 200 200 200 208 198 208 198 210 210 210 52 5 5 5 2 2 2 2 7 4 4 4 11 10 14 14 14 13 13 5 5 13 13 13 13 16 16 16 16 17 17 8 8 12 12 12 12 5 5 5 8 8 8 8 8 7 7 7 7 6 6 9 9 14 8 14 14 15 15 15 4 6 6 6 6 9 9 9 4 3 3 8 8 28 206 206 28 4 4 4 4 4 4 4 4 5 11 11 11 11 11 7 11 11 11 11 3 7 0 7 0 4 4 4 139 221 221 7 7 19 4 4 19 13 7 7 13 12 3 3 3 8 8 8 2 0 4 4 4 25 25 218 218 223 213 223 213 218 218 218 218 218 218 218 218 218 218 218 218 215 215 215 215 216 216 216 216 218 218 218 218 216 216 216 216 215 215 215 215 217 217 217 216 214 214 214 214 214 214 211 214 217 199 199 217 250 250 250 225 213 206 206 213 208 208 205 208 208 208 208 206 207 207 207 206 206 206 206 206 205 205 205 202 203 203 203 203 202 202 199 199 201 201 201 198 200 200 200 198 198 198 198 198 199 199 196 199 197 194 194 197 
192 195 195 195 197 200 200 200 208 198 208 208 210 210 210 52 5 5 5 2 2 2 2 2 4 4 4 11 14 14 14 14 13 13 13 13 13 13 13 13 10 16 16 16 17 17 17 17 12 12 12 12 8 8 8 8 8 8 8 8 7 7 7 7 9 6 9 9 8 8 8 14 4 4 4 4 6 6 6 6 9 4 4 4 3 3 8 8 206 206 28 28 4 4 4 4 4 4 4 4 5 5 5 11 11 7 7 7 11 11 11 3 7 0 7 0 4 4 4 139 221 221 7 7 4 4 19 19 13 7 7 13 12 3 3 12 2 8 8 2 0 4 4 0 25 25 218 218 223 213 223 213 217 217 217 217 217 217 217 217 214 214 214 214 215 215 215 215 216 216 216 216 215 215 215 215 215 216 216 216 215 215 215 215 217 217 217 216 214 214 214 214 214 214 211 211 217 199 199 217 250 250 250 250 213 206 206 213 208 208 205 205 208 208 206 206 207 207 207 206 204 206 206 206 205 205 205 205 203 203 203 203 202 199 199 199 201 201 201 201 200 200 200 198 198 198 198 198 199 199 199 199 197 194 194 197 
196 196 196 196 198 198 198 201 202 203 203 203 207 211 211 211 7 7 7 7 0 0 0 7 2 2 2 2 4 11 11 11 18 18 18 18 17 17 17 17 18 18 18 18 13 13 13 12 12 12 12 12 14 14 17 17 9 9 9 9 5 9 9 9 5 5 5 8 8 8 8 4 0 14 0 0 18 18 1 18 36 3 3 3 13 13 13 194 136 136 8 8 7 7 2 7 4 4 8 8 8 8 8 8 8 8 12 12 9 9 4 4 8 0 8 0 5 5 5 57 208 32 32 32 37 37 37 37 27 27 27 27 11 11 11 11 2 2 6 6 4 4 4 7 6 6 165 165 222 222 211 222 216 216 216 216 217 217 217 217 217 217 214 214 217 217 217 217 216 216 216 216 211 211 211 215 215 215 215 215 217 217 217 217 214 214 214 214 214 214 214 214 206 206 206 206 200 200 200 200 244 244 244 244 212 206 212 212 206 208 208 208 208 208 208 206 206 206 206 205 205 203 203 203 204 204 203 203 202 202 202 202 202 202 202 201 201 199 199 199 198 198 198 200 200 200 200 198 199 199 199 199 197 197 197 195 
196 196 196 196 198 198 201 201 202 203 203 203 207 211 211 211 169 7 7 7 7 7 0 7 2 2 2 2 4 11 11 11 18 18 18 18 17 17 17 17 18 18 18 18 13 13 13 13 12 12 12 12 14 14 17 17 17 17 9 9 9 5 5 5 8 8 8 8 8 8 4 4 14 0 0 14 1 1 18 1 3 3 3 3 13 13 194 194 136 8 8 8 7 7 2 7 4 4 8 8 8 8 8 7 8 8 12 12 9 9 4 4 0 0 8 0 5 57 5 57 208 32 32 32 37 37 156 37 27 27 27 27 11 11 11 11 2 6 6 6 7 4 4 4 6 6 6 165 222 211 211 211 216 216 216 216 217 217 217 217 217 217 214 214 217 217 217 217 216 216 216 216 215 211 215 215 215 215 215 215 217 217 217 217 214 214 214 213 213 214 214 214 206 206 206 206 200 200 148 200 244 244 244 244 212 206 212 212 206 206 208 208 208 208 206 206 206 206 206 205 205 205 203 203 204 204 204 203 202 202 202 202 202 202 202 201 201 201 201 201 198 198 200 200 200 200 200 200 199 199 199 199 197 197 197 195 
194 194 196 196 198 201 201 201 203 203 203 203 207 207 211 211 169 7 7 7 7 0 7 0 2 2 2 2 4 4 11 11 18 18 18 18 17 17 17 17 18 12 12 12 13 13 13 13 10 10 10 12 14 14 17 17 17 17 17 17 9 9 5 5 8 8 8 8 8 8 4 4 0 0 14 0 1 18 1 18 3 36 36 3 13 194 194 194 8 8 8 8 2 7 7 7 4 8 8 8 8 8 8 7 8 12 12 12 9 9 4 4 8 8 0 8 5 5 5 57 32 32 208 208 156 156 156 156 225 225 225 225 186 186 11 11 6 6 6 6 7 7 7 4 6 6 6 165 222 222 222 222 216 216 216 216 217 217 217 217 217 217 217 217 217 217 213 213 216 216 213 213 215 215 215 215 213 213 215 215 217 217 217 214 214 214 214 213 213 213 214 214 206 147 147 147 200 148 148 148 187 187 244 187 212 206 206 212 206 206 208 208 208 208 206 206 206 206 206 206 205 205 205 205 204 204 204 204 202 202 202 202 202 202 201 201 201 201 201 201 200 200 200 200 200 200 200 200 199 199 199 199 197 197 197 195 
194 194 194 196 198 201 201 201 203 203 203 203 207 207 211 211 169 169 7 7 0 7 0 0 2 2 2 2 4 4 4 4 8 8 8 8 11 11 11 11 12 12 12 12 12 13 13 13 10 10 12 12 14 17 17 17 17 17 17 17 9 9 9 5 8 8 8 8 8 8 8 4 14 14 0 14 18 1 18 1 36 36 36 3 13 194 194 13 8 8 8 8 2 7 7 2 8 8 8 8 8 8 8 8 12 12 12 12 9 9 4 4 8 0 0 8 5 5 5 57 32 208 208 208 156 37 37 156 27 27 225 225 186 186 186 11 6 6 2 6 7 7 7 7 6 6 6 165 211 222 222 222 216 216 216 216 217 217 217 217 217 217 217 217 217 217 213 213 216 216 213 213 215 215 215 215 213 213 215 215 217 214 214 214 214 214 214 214 214 214 214 214 206 147 147 147 148 148 148 148 187 187 187 187 212 212 206 212 208 208 208 208 208 208 208 208 206 206 206 206 205 205 205 205 204 204 204 204 202 202 202 202 202 202 201 201 201 201 201 201 200 200 200 200 200 200 200 200 199 199 199 199 197 197 197 195 
194 194 194 196 198 201 201 201 204 204 204 204 207 210 210 210 214 214 48 48 96 6 6 6 2 2 2 2 2 2 2 2 2 3 3 3 6 6 6 6 7 7 7 7 12 12 12 12 13 13 13 16 17 17 17 17 19 19 19 19 17 17 13 13 8 8 8 8 8 8 8 8 2 17 17 2 21 21 21 123 209 14 14 14 35 35 35 5 3 3 3 3 18 18 4 4 10 10 5 5 7 7 14 14 13 13 13 13 7 7 7 3 0 0 12 0 7 7 7 68 49 212 212 212 89 18 18 89 111 245 111 245 178 178 178 24 6 3 3 6 9 9 9 9 16 16 16 185 212 223 223 212 217 217 217 217 216 216 216 216 215 215 215 215 216 216 216 214 218 218 214 214 216 216 216 213 212 212 215 215 214 214 214 212 215 215 215 215 214 214 214 214 155 155 155 155 148 148 148 148 184 184 184 184 213 213 208 208 210 210 210 210 210 210 210 210 207 207 207 207 207 207 207 207 207 207 207 205 202 202 202 202 201 201 201 201 202 202 202 202 201 201 201 201 199 199 199 199 199 199 199 199 197 197 197 195 
194 194 196 196 198 201 201 201 204 204 204 204 207 210 210 210 214 214 214 48 6 6 6 6 2 2 2 2 2 2 2 2 2 3 3 3 6 6 6 6 5 7 7 7 10 12 12 12 13 16 16 16 17 17 17 17 19 19 19 19 17 17 17 13 13 8 8 8 8 8 8 8 2 2 2 17 21 21 123 123 14 14 14 14 35 35 5 5 3 3 3 3 4 4 18 18 10 10 5 5 7 7 14 14 13 13 13 10 7 7 7 3 0 12 0 12 7 7 68 7 49 212 212 212 89 18 18 18 245 245 245 111 178 178 178 24 3 3 3 3 9 9 9 9 16 16 16 185 223 223 223 212 217 217 217 217 216 216 216 216 215 213 213 215 216 216 216 216 218 218 218 214 216 216 213 213 215 215 215 215 214 214 214 212 215 215 215 215 214 214 214 214 229 155 155 155 225 225 148 148 184 184 230 230 213 213 208 213 210 210 210 210 210 210 210 210 207 207 207 207 207 209 209 209 207 207 207 205 202 202 202 202 204 204 201 201 202 202 202 202 201 201 201 201 199 199 199 199 199 199 199 199 197 197 197 195 
196 196 196 196 198 198 201 201 204 204 204 204 207 207 210 210 214 214 214 214 6 6 6 6 2 2 2 2 2 2 2 2 3 3 3 3 6 6 6 6 5 5 7 7 10 12 12 12 16 16 16 16 17 17 17 14 14 14 19 19 17 17 17 17 13 13 13 8 8 8 3 3 17 2 2 2 123 123 123 21 14 14 14 14 5 5 5 35 19 19 3 19 4 4 18 18 10 10 10 10 7 14 14 14 13 13 13 10 7 7 3 3 0 12 0 12 7 7 68 68 49 212 212 212 89 18 18 89 245 245 245 111 178 178 178 24 6 6 6 6 2 2 9 9 16 16 185 185 223 212 212 212 217 217 217 217 216 216 216 216 215 215 213 215 216 216 216 216 218 218 218 218 216 216 216 216 215 215 215 215 214 214 214 214 215 215 215 212 214 209 209 209 229 229 229 229 225 225 225 225 230 230 230 230 213 208 213 213 210 210 210 208 208 210 210 210 207 207 207 207 209 209 209 209 207 207 207 207 202 202 202 202 204 204 204 201 202 202 202 202 201 201 201 201 199 199 196 196 199 199 199 199 197 197 197 195 
196 196 196 196 198 198 198 201 204 204 204 204 207 207 210 210 214 214 214 214 96 6 6 6 2 2 2 2 2 2 2 2 2 2 2 3 3 3 3 3 5 7 7 7 10 12 12 12 13 16 16 16 17 14 14 14 14 14 14 14 17 17 13 13 13 13 13 8 8 3 3 3 2 2 2 17 21 21 21 21 14 14 14 14 5 5 35 35 19 19 19 19 18 18 18 4 5 5 10 10 14 14 14 14 13 13 10 10 7 7 3 3 0 0 12 0 7 7 7 7 49 49 49 49 18 18 18 89 111 111 111 111 178 24 24 24 6 6 6 6 2 2 2 9 16 16 185 185 212 223 212 223 217 217 217 217 216 216 216 216 215 215 215 213 214 216 214 214 214 218 218 218 216 213 216 216 215 215 215 215 214 214 214 214 215 212 212 212 209 209 209 209 229 229 229 229 225 225 225 225 230 230 230 230 213 208 213 208 210 210 208 208 208 208 210 210 207 207 207 207 209 209 209 209 207 207 207 207 202 202 202 202 204 204 204 204 202 201 201 201 200 201 201 200 199 199 196 196 199 199 199 199 197 197 197 195 
198 198 198 198 201 201 201 201 203 203 206 206 208 209 209 209 205 205 220 205 213 52 52 52 1 16 1 1 0 0 8 8 3 3 3 3 4 4 4 4 5 5 7 7 9 9 9 9 13 13 13 5 7 7 7 7 14 14 14 14 15 15 15 15 19 19 19 13 12 12 12 12 18 18 18 18 8 8 8 8 13 13 13 5 1 1 1 1 7 7 8 8 6 6 6 6 6 6 10 10 12 12 12 12 11 11 8 8 4 4 4 4 0 3 3 3 0 0 4 4 10 10 10 10 19 4 19 19 34 5 34 34 165 14 14 14 3 35 3 3 10 10 10 10 127 220 220 220 225 207 225 207 214 217 217 217 215 215 213 213 214 214 214 214 214 212 212 212 214 214 214 214 215 215 215 215 213 213 213 213 213 213 216 216 216 216 212 212 210 210 184 210 237 240 240 240 239 239 239 239 239 236 236 236 228 210 210 210 211 211 207 207 207 207 211 211 210 210 210 207 209 209 209 209 206 206 204 204 204 204 204 204 204 204 204 204 203 203 203 203 201 203 203 203 199 199 198 198 199 199 199 198 196 196 196 196 
198 198 198 198 201 202 202 202 203 203 206 206 209 209 209 209 220 205 205 205 213 213 52 52 16 1 16 1 8 8 8 0 3 3 3 6 4 7 7 7 7 7 7 7 9 9 9 9 13 13 5 13 31 31 31 31 14 14 14 14 15 15 15 15 13 19 19 19 12 12 12 44 61 61 18 18 32 32 8 8 13 13 13 5 7 7 7 7 8 8 8 8 6 6 6 6 6 6 10 10 12 12 12 8 11 11 11 8 4 4 4 1 0 3 3 3 0 4 4 4 10 10 10 10 19 19 19 19 34 34 5 5 165 165 14 14 3 3 35 3 10 10 10 10 127 220 220 220 225 207 207 207 217 217 217 217 215 215 215 213 214 214 214 214 214 214 212 212 214 214 214 214 215 215 215 215 215 215 215 215 216 216 216 216 216 216 212 212 210 210 184 210 237 237 240 240 237 237 239 239 239 236 236 236 228 210 210 210 211 211 207 207 207 207 211 211 210 210 210 210 209 209 209 209 206 206 204 204 204 204 204 204 204 204 204 204 203 202 203 203 201 203 203 203 199 199 198 199 199 199 199 198 196 196 196 196 
195 195 198 198 202 202 202 202 203 203 206 206 209 209 209 209 220 220 205 220 213 213 213 52 1 1 1 16 0 8 8 0 6 6 6 6 7 7 7 7 7 7 7 7 9 9 9 9 5 5 13 13 31 31 31 31 14 14 11 11 12 15 15 15 13 19 19 19 12 12 44 44 61 61 61 61 32 32 8 32 13 13 5 5 1 1 1 1 8 8 8 8 6 6 6 3 10 10 10 10 8 8 8 8 11 11 11 8 4 4 1 1 0 0 3 3 4 4 4 4 10 135 10 10 4 4 4 19 34 5 5 34 14 165 14 14 35 3 35 3 10 10 10 196 220 220 220 220 225 225 207 225 217 217 217 217 215 215 215 215 212 212 214 214 214 214 214 214 214 214 214 214 215 215 215 215 215 215 215 215 216 216 216 216 216 216 212 212 210 210 184 210 240 240 240 237 237 237 239 239 239 239 239 239 228 210 210 210 211 211 211 207 207 211 211 211 207 207 210 210 209 209 205 205 206 206 206 204 204 204 204 204 202 204 204 204 203 202 203 203 201 203 203 203 199 199 199 199 199 199 199 198 196 196 196 196 
195 195 198 198 202 202 202 202 203 206 206 206 209 209 209 209 205 220 205 220 213 213 213 213 16 16 1 16 0 0 8 8 6 6 6 6 7 7 7 7 7 7 7 7 6 6 6 6 5 5 13 5 7 7 7 7 14 11 11 11 12 12 15 15 13 19 19 19 12 12 44 44 61 61 61 61 32 32 8 8 13 13 5 5 7 7 7 7 8 8 8 8 6 6 3 3 6 6 6 6 8 8 8 8 11 11 11 8 4 1 1 1 3 0 0 3 4 4 4 4 135 135 10 10 4 4 4 4 5 5 5 5 14 165 165 165 35 35 35 3 10 10 196 196 220 220 220 220 207 225 207 225 217 217 217 214 213 215 215 215 212 212 212 214 214 214 214 214 214 214 214 214 215 215 215 215 215 215 215 215 216 216 216 216 216 216 212 212 210 210 184 210 240 240 240 240 237 239 239 239 239 239 239 239 228 210 210 210 211 211 211 211 211 211 211 211 207 207 210 210 209 209 205 205 206 206 206 204 204 204 204 204 202 204 204 204 202 202 203 203 201 203 203 203 199 199 199 199 199 199 199 198 196 196 196 196 
195 195 198 198 202 202 202 202 204 204 207 207 210 210 210 210 216 216 205 205 222 211 211 222 210 7 7 7 15 1 1 15 6 6 6 6 7 7 7 7 7 7 7 7 5 5 5 5 5 0 0 0 15 15 15 15 16 16 11 11 15 15 15 15 17 17 17 17 18 18 18 42 67 59 59 59 77 77 46 46 6 6 6 6 7 7 7 7 7 7 7 7 7 7 4 4 6 6 6 6 9 9 9 13 10 10 10 5 2 2 0 0 3 0 0 3 0 0 0 21 214 214 18 18 12 2 2 12 0 7 0 0 2 21 2 21 8 8 65 65 31 31 211 211 224 224 224 211 208 222 222 208 217 217 217 214 213 215 215 215 212 212 212 214 214 214 214 214 214 214 214 214 215 215 215 215 216 216 213 213 213 214 214 214 216 216 212 212 210 210 184 210 240 240 240 237 236 236 240 240 240 237 237 237 228 211 211 211 210 210 210 210 210 210 210 210 210 210 207 207 206 206 209 209 207 207 206 206 205 205 206 206 203 203 203 203 202 201 202 202 201 201 201 201 201 199 201 201 199 199 199 198 196 196 196 196 
195 195 198 198 202 202 202 202 204 207 207 207 210 210 210 210 216 205 205 205 211 222 211 222 210 210 7 7 1 1 1 1 6 6 6 6 7 7 7 7 7 7 7 7 5 5 5 5 5 0 0 0 2 15 15 15 16 16 16 16 15 15 15 15 17 17 13 17 18 18 18 42 59 59 59 59 46 77 77 46 6 6 6 6 7 7 7 7 7 7 7 7 7 7 7 4 6 6 6 6 9 13 13 13 10 10 10 5 2 2 2 2 3 0 0 3 0 0 0 21 214 214 18 18 12 2 2 2 0 7 0 7 21 2 21 2 8 8 8 65 31 31 211 211 224 224 211 224 222 222 222 222 217 217 217 217 215 215 215 215 212 212 214 214 214 214 214 214 214 214 214 214 215 215 215 215 216 216 213 213 213 213 213 214 216 216 212 212 210 210 184 210 237 237 237 237 236 236 236 240 240 237 237 237 228 211 211 211 210 210 210 210 210 210 210 210 210 210 207 207 206 206 209 209 207 207 207 206 206 206 206 206 201 203 203 203 202 201 202 202 201 201 201 201 199 199 201 201 199 199 199 198 196 196 196 196 
198 198 198 198 201 202 202 202 204 207 207 207 210 210 210 210 216 205 216 216 211 222 222 222 210 210 210 7 15 15 1 15 3 3 3 6 4 7 7 7 7 7 6 6 5 5 5 5 0 5 5 5 2 2 2 15 16 16 16 16 15 15 15 15 17 17 17 17 18 18 42 42 67 59 67 67 46 77 77 77 68 68 68 68 31 31 31 7 5 5 7 7 7 7 7 7 11 11 11 11 13 13 13 13 10 10 5 5 2 2 2 2 3 0 0 3 0 0 21 21 214 18 18 18 12 2 12 2 7 0 0 7 2 21 2 21 8 65 65 65 31 31 31 211 224 224 224 224 222 208 208 208 217 217 217 217 215 215 215 213 214 214 214 214 214 214 212 212 214 214 214 214 215 215 215 215 216 216 216 213 214 214 214 214 216 216 212 212 210 210 184 210 237 237 240 237 236 236 236 240 240 237 237 240 228 211 211 211 208 208 210 210 210 210 208 208 210 210 210 210 209 209 209 209 207 207 207 206 206 206 206 206 201 203 203 203 201 201 202 202 201 201 201 200 199 199 201 201 199 199 199 198 196 196 196 196 
198 198 198 198 201 201 201 201 204 207 207 207 210 210 210 210 205 216 216 205 222 211 211 222 210 210 210 210 15 1 15 1 3 3 3 3 4 4 4 4 6 6 6 6 5 5 5 5 5 5 5 5 2 2 2 2 11 11 11 11 6 6 6 6 13 17 17 17 18 18 42 42 67 59 59 67 46 77 77 77 68 68 68 68 31 31 31 7 5 5 5 7 7 7 7 7 11 11 11 11 13 13 13 13 10 10 5 5 2 2 2 2 3 0 0 3 0 0 21 21 214 18 18 18 12 2 12 12 7 7 7 7 2 21 21 2 8 8 65 65 31 31 31 211 224 224 211 211 208 222 222 222 214 217 217 217 215 215 213 213 214 214 214 214 214 212 212 212 214 214 214 214 215 215 215 215 216 216 216 216 214 214 214 214 216 216 212 212 210 210 184 210 240 240 240 240 240 240 240 240 240 240 240 240 228 211 211 211 208 208 208 210 210 208 208 208 210 210 210 210 209 209 209 206 207 207 207 206 206 206 206 206 201 203 203 203 201 201 202 202 201 201 201 200 199 199 201 201 199 199 199 198 196 196 196 196 
198 198 198 198 202 203 203 203 205 205 206 206 209 210 210 210 211 211 211 211 213 213 216 216 211 211 228 228 210 9 9 9 3 3 3 3 4 4 4 4 3 3 3 3 3 3 3 3 7 7 7 7 4 4 2 2 5 5 5 5 7 7 7 10 14 14 14 14 19 19 48 48 64 64 64 64 59 83 83 83 62 62 62 62 25 25 25 8 7 7 8 8 9 9 11 11 11 11 14 14 14 14 14 14 8 8 8 3 1 1 1 1 3 3 0 0 4 4 4 98 106 18 18 18 53 53 234 234 183 19 19 19 5 30 30 5 1 22 22 22 57 57 11 57 228 228 228 228 211 211 221 211 215 217 217 217 216 216 213 213 214 214 214 214 215 215 215 215 213 216 216 213 212 215 215 212 213 213 215 215 215 215 215 215 216 216 211 216 213 213 191 191 239 239 239 239 239 239 239 239 236 242 236 242 229 210 210 210 207 207 207 210 211 211 208 208 212 212 212 207 209 209 209 209 207 207 207 207 206 206 206 206 204 204 201 201 201 201 201 201 200 202 202 200 198 198 200 200 200 200 200 198 199 199 195 195 
198 198 198 198 202 203 203 203 205 205 206 206 209 210 210 210 211 211 211 211 213 213 216 216 228 211 228 228 210 210 9 9 3 3 3 3 4 4 4 4 3 3 3 3 3 3 3 3 7 7 7 7 4 4 4 2 5 5 5 5 7 7 10 10 11 14 14 14 19 19 48 48 64 64 64 64 83 83 83 83 62 62 62 62 25 8 8 8 7 8 8 8 9 11 11 11 11 14 14 14 14 14 14 14 8 8 8 3 1 1 1 1 3 0 0 0 4 4 4 98 106 106 18 18 53 53 234 234 183 183 19 19 5 30 5 5 1 1 1 22 11 57 11 57 228 210 228 210 221 211 221 221 215 217 217 217 216 216 213 213 216 216 216 214 215 215 215 215 213 216 216 213 212 215 215 212 213 213 215 215 215 215 215 215 211 211 211 216 213 213 191 191 232 232 239 239 239 236 236 236 236 242 236 242 229 210 210 210 210 210 210 210 211 211 211 211 212 212 212 212 209 209 209 209 207 207 207 207 206 206 206 206 204 204 201 201 203 203 203 201 202 202 202 200 200 200 200 200 200 200 198 198 199 199 199 195 
198 198 198 198 202 203 203 203 205 206 206 206 209 210 210 210 211 211 211 211 213 213 216 216 211 211 228 228 210 210 9 9 3 3 3 3 4 4 4 4 3 3 3 3 3 3 3 3 2 2 7 7 4 4 4 4 2 2 2 5 7 10 10 10 11 11 11 11 19 19 48 48 64 45 45 45 59 59 59 59 62 30 30 30 25 8 8 8 8 8 8 8 11 11 11 11 14 14 14 14 14 14 11 11 8 8 3 3 1 1 1 1 3 0 3 3 4 4 4 98 106 18 18 106 53 234 234 234 183 183 19 19 5 30 5 30 22 1 1 1 11 57 11 11 228 210 228 210 221 211 221 221 215 217 217 217 216 216 213 213 216 216 216 216 215 215 214 214 213 216 216 213 212 215 215 212 215 215 215 213 213 213 215 215 211 211 211 216 213 213 191 191 232 232 239 239 239 239 236 236 236 242 236 236 229 210 210 210 210 210 210 210 208 211 211 211 212 212 207 207 209 209 209 209 207 207 206 206 206 205 205 205 204 204 204 204 203 203 203 203 202 202 202 202 200 200 200 200 200 200 198 200 199 199 199 199 
198 198 198 198 202 203 203 203 206 206 206 206 209 210 210 210 211 211 211 211 213 213 216 216 211 228 228 228 210 210 9 9 3 3 3 3 4 4 4 4 3 3 3 3 3 3 3 3 2 2 2 2 2 4 4 4 2 5 5 5 7 10 10 10 11 14 14 11 19 19 48 48 64 45 45 45 59 59 59 59 62 30 30 30 8 8 25 8 8 8 8 8 11 11 11 11 14 14 14 14 14 11 11 11 8 8 3 3 1 1 1 1 0 0 3 3 4 4 4 98 106 18 18 106 53 234 234 234 183 183 19 19 5 5 5 5 1 1 22 1 11 57 57 11 210 228 228 210 221 211 211 221 217 217 217 217 216 216 216 213 216 216 216 216 215 215 215 215 216 216 216 213 215 215 215 212 215 215 215 213 213 213 213 215 216 216 211 216 213 213 191 191 232 232 239 239 239 239 239 239 236 242 236 236 229 210 210 210 210 210 210 210 211 211 211 211 207 207 207 207 206 206 206 206 207 207 207 207 206 206 205 205 204 204 204 204 203 203 203 203 202 202 202 200 200 200 200 200 200 200 200 200 199 199 199 199 
198 198 198 198 202 203 203 203 206 207 207 207 210 212 212 212 211 211 211 211 213 213 216 216 212 228 212 228 200 200 10 10 3 3 3 3 4 4 4 4 3 3 3 3 3 3 3 3 2 2 2 2 4 4 4 4 8 8 8 8 8 8 8 8 9 13 13 13 21 21 37 37 40 40 28 40 62 62 62 62 46 20 20 20 11 11 11 11 11 11 11 13 13 13 13 16 15 15 15 15 10 10 10 7 4 4 4 1 0 0 0 0 0 5 0 0 11 11 11 153 84 16 16 84 133 133 244 244 187 187 42 42 11 11 11 11 28 28 28 28 11 11 77 11 59 224 224 224 220 214 214 220 216 216 216 216 215 215 215 214 214 214 214 214 215 215 215 215 214 214 214 214 213 213 213 213 215 215 215 213 213 213 213 215 216 216 211 216 213 213 191 191 239 239 239 234 235 233 235 235 240 240 235 235 229 211 211 211 203 203 210 210 211 211 211 211 210 210 210 210 208 208 208 208 208 208 208 208 206 206 206 206 205 205 202 202 202 205 202 202 202 202 202 202 199 199 199 203 203 203 203 200 199 199 197 197 
198 198 198 198 202 203 203 203 206 207 207 207 210 212 212 212 211 211 211 211 213 213 216 216 212 228 212 228 200 10 10 10 3 3 3 3 4 4 4 4 3 3 3 3 3 3 3 3 2 2 2 2 4 4 4 10 13 13 13 13 12 8 8 8 9 13 13 13 21 37 37 37 40 28 28 40 45 62 62 62 46 46 20 20 11 11 11 11 13 13 13 13 13 16 16 16 15 15 15 15 10 10 7 7 4 4 4 1 0 0 0 0 0 5 0 0 11 11 11 153 16 16 16 84 133 244 244 244 187 187 42 42 11 11 11 175 219 219 28 28 11 11 77 11 59 224 224 224 220 220 214 220 216 216 216 216 215 215 215 215 213 213 214 214 215 215 215 215 214 214 214 214 213 213 210 213 215 215 215 213 213 213 215 215 211 211 211 216 213 213 191 191 239 239 239 234 233 233 235 235 235 240 235 240 229 211 211 211 203 203 210 210 211 211 211 209 207 210 210 210 208 208 208 205 208 208 208 208 206 206 206 206 205 205 202 202 202 205 202 202 202 202 202 202 199 199 199 203 203 203 203 203 199 197 197 197 
198 198 198 198 202 203 203 203 207 207 207 207 210 212 212 212 211 211 211 211 213 213 216 216 212 228 228 228 200 10 10 10 3 3 3 3 4 4 4 4 8 8 8 8 8 8 8 8 10 10 10 10 10 10 10 10 13 13 13 13 12 12 8 8 9 13 13 9 21 37 37 37 28 28 28 40 45 45 45 45 20 46 46 46 53 53 11 11 13 13 13 13 16 16 16 16 15 15 15 15 10 10 10 7 4 4 4 1 0 0 0 0 5 0 0 0 11 11 11 153 16 16 16 84 133 244 244 244 187 42 42 42 11 11 11 175 219 219 28 28 11 11 77 77 59 59 224 224 220 220 220 214 216 216 216 216 215 215 215 215 213 213 213 214 215 215 215 215 214 211 211 214 213 210 210 213 213 213 215 215 215 215 215 215 211 211 211 216 213 213 191 191 239 239 239 239 235 235 235 235 235 240 235 240 229 211 211 211 210 210 210 210 211 211 211 209 207 207 207 207 208 205 205 205 208 208 208 208 206 206 206 206 205 205 205 202 205 205 205 202 206 206 206 206 203 203 203 203 203 203 203 203 199 197 199 199 
198 198 198 198 202 203 203 203 207 207 207 207 212 212 212 212 211 211 211 211 213 213 216 216 228 212 212 228 200 10 10 10 3 3 3 3 4 4 4 4 8 8 8 8 8 8 8 8 10 10 10 10 10 10 10 10 13 13 13 13 12 12 12 12 13 13 9 9 21 37 37 37 28 28 40 40 45 62 45 45 46 46 46 46 53 53 11 11 13 13 13 13 16 16 16 16 15 15 15 13 10 10 10 7 4 4 1 1 0 0 0 0 5 0 5 5 11 11 153 153 16 16 16 84 133 244 244 244 187 42 42 42 11 11 175 175 219 219 219 28 11 11 11 77 59 59 224 224 220 214 220 220 216 216 216 215 215 215 215 215 214 214 214 213 211 211 211 211 214 211 211 214 213 210 210 213 213 213 215 215 215 215 215 215 216 216 211 216 213 213 191 191 234 234 234 234 235 233 233 235 235 240 235 240 229 211 211 211 210 210 210 210 209 209 211 211 210 210 210 210 208 208 208 208 208 208 208 206 206 205 205 205 205 205 205 205 205 205 205 205 206 206 206 206 203 203 203 203 200 203 203 203 199 199 199 199 
196 196 199 199 202 204 204 204 207 207 206 207 208 210 210 210 212 212 212 212 214 216 216 216 225 215 225 225 121 4 4 4 3 3 3 3 3 3 3 3 6 6 6 6 10 10 10 10 13 13 13 13 11 11 11 11 11 11 14 14 13 13 10 10 11 11 11 11 21 21 21 21 42 42 42 42 51 51 31 31 45 45 45 45 31 31 31 31 11 11 11 19 17 17 13 13 14 7 14 7 8 8 8 8 4 4 4 4 1 13 1 13 0 7 0 0 16 16 173 16 16 16 16 95 133 242 242 242 219 65 65 65 153 221 221 221 220 220 220 90 4 4 4 37 41 41 206 206 226 211 226 211 217 217 214 214 215 215 215 214 213 213 213 213 214 214 214 214 214 214 214 214 214 214 214 214 214 214 214 214 213 213 213 213 215 210 215 210 211 211 190 190 235 235 238 238 237 237 237 237 235 240 235 240 229 211 211 211 209 209 209 209 210 210 210 210 209 209 209 209 209 209 209 209 207 207 207 202 203 203 207 207 207 207 203 207 206 206 206 204 202 202 202 203 204 201 201 201 201 201 201 201 202 202 202 202 
196 196 199 199 202 204 204 204 207 207 207 207 208 210 210 210 212 212 212 212 214 216 216 216 225 215 225 225 121 4 4 4 3 3 3 3 3 3 3 3 6 6 6 6 10 10 10 10 13 13 13 13 11 11 11 11 14 14 14 11 13 13 13 13 11 11 4 11 10 21 21 21 42 21 42 42 51 31 31 51 45 13 13 13 12 12 31 31 19 19 11 11 13 17 17 17 14 7 14 7 37 8 8 8 4 4 4 4 13 1 13 1 0 7 0 0 16 16 173 16 16 16 16 95 133 242 242 242 219 65 65 65 221 221 221 153 220 220 220 90 37 4 4 37 41 41 206 206 211 226 211 211 217 217 214 214 215 215 215 214 213 213 213 213 214 214 214 214 216 216 216 216 216 216 216 216 214 214 214 214 213 213 213 213 215 215 215 215 211 211 190 190 238 238 238 238 237 237 237 237 235 240 235 240 229 211 211 211 212 212 212 212 210 210 208 208 209 209 209 206 209 209 204 204 207 207 207 207 207 207 207 207 203 203 203 207 206 206 206 206 203 203 203 203 204 204 204 204 201 201 201 200 200 202 202 202 
196 199 199 199 202 204 204 204 207 207 207 207 208 210 210 210 212 212 212 212 214 216 216 216 215 215 225 225 121 4 4 4 3 3 3 3 3 3 3 3 3 3 6 6 6 6 10 10 8 8 8 13 11 11 11 11 14 14 14 11 13 13 13 13 4 4 4 4 10 10 10 21 21 21 21 42 31 31 51 51 45 13 13 13 12 12 12 31 19 11 11 19 17 17 13 13 7 14 14 7 8 8 37 37 99 4 4 4 1 13 1 13 7 0 7 7 16 16 173 16 16 16 16 95 133 242 242 242 219 65 65 219 221 221 153 221 220 220 220 90 4 4 4 4 41 41 41 206 226 226 211 226 217 217 214 214 215 215 215 215 213 213 213 213 214 214 214 214 216 216 216 216 216 216 216 216 214 214 214 214 213 213 211 211 215 210 215 210 211 211 190 190 238 238 238 238 237 237 237 237 240 240 235 240 229 211 211 211 212 212 212 212 210 210 208 208 209 209 206 206 209 209 204 204 202 202 207 207 207 207 203 203 203 203 207 207 206 206 206 206 203 203 203 203 204 204 204 204 201 201 201 200 200 200 202 202 
199 199 199 199 202 204 204 204 207 207 207 207 208 210 210 210 212 212 212 212 214 216 216 216 215 215 225 225 121 4 4 4 3 3 3 3 3 3 3 3 3 3 3 3 6 6 6 6 8 8 8 8 9 9 11 11 14 14 14 14 13 13 13 13 4 4 4 4 10 10 10 10 21 21 21 21 31 31 51 51 45 45 45 13 12 12 12 12 11 11 19 19 17 13 13 17 14 14 14 7 8 8 8 37 99 4 4 4 1 1 13 1 7 0 0 7 16 16 173 16 16 16 16 95 133 242 242 242 219 65 219 219 221 221 221 221 220 220 220 220 4 37 4 37 41 41 41 206 226 226 211 226 217 217 217 214 215 215 215 215 213 213 213 213 214 214 214 214 214 214 214 214 214 214 214 214 213 213 214 214 213 213 211 211 215 210 215 210 211 211 190 190 235 235 235 235 234 234 234 234 240 240 235 240 229 211 211 211 212 212 212 212 210 210 210 210 209 209 206 209 209 209 209 204 202 202 202 202 203 203 207 207 203 207 207 207 206 206 206 204 203 203 203 203 204 204 204 204 201 201 201 201 202 202 202 202 
199 199 201 201 203 204 204 204 208 208 208 208 209 209 211 211 212 212 212 212 214 216 216 216 224 204 224 224 8 2 8 2 3 3 3 3 3 3 3 3 3 3 3 3 2 2 2 2 4 4 4 4 7 7 7 7 12 12 12 12 10 10 10 10 1 3 3 3 2 2 8 8 7 19 19 19 33 33 33 33 46 46 46 46 10 10 10 10 12 12 12 12 10 10 10 17 13 13 5 13 9 9 9 191 220 220 59 59 4 4 4 4 5 5 0 0 19 19 136 19 13 13 13 107 167 167 248 248 231 126 126 231 224 206 206 224 213 223 223 223 189 9 9 9 13 82 13 82 227 227 227 173 217 217 217 216 215 215 215 215 214 214 214 214 213 213 213 213 214 214 214 214 214 214 214 214 213 213 214 214 213 213 211 211 215 210 215 215 213 213 194 194 238 238 238 238 234 234 234 234 235 241 235 241 231 210 210 210 211 211 211 211 211 211 211 211 210 210 207 207 208 208 208 208 219 219 219 219 207 207 207 207 202 202 217 202 199 205 205 199 203 203 201 201 203 203 207 207 203 203 203 203 202 202 202 202 
199 201 201 201 203 204 204 204 208 208 208 208 209 209 211 211 212 212 212 212 214 216 216 216 224 204 224 224 8 2 2 2 3 3 3 3 3 3 3 3 3 3 3 3 2 2 2 2 4 4 4 4 7 7 7 7 7 12 12 12 10 10 10 3 3 3 3 3 2 2 8 8 19 19 7 19 33 33 11 11 11 46 46 46 45 45 45 10 12 12 12 12 17 10 10 17 13 5 13 13 9 9 9 191 220 220 59 59 4 4 4 4 0 5 0 0 19 136 136 19 13 13 13 107 167 248 248 248 231 126 126 231 206 224 206 224 213 223 213 223 189 9 9 9 13 82 13 13 227 227 227 227 217 217 217 216 213 213 215 215 214 214 214 214 213 213 213 213 216 216 216 216 216 216 216 216 214 214 214 214 213 213 211 211 215 210 215 215 213 213 194 194 238 238 238 233 234 234 234 234 235 241 235 241 231 210 210 210 210 211 211 211 211 211 211 211 210 210 210 207 208 208 208 208 240 240 240 240 235 235 207 207 202 202 202 202 199 205 205 199 203 203 201 201 203 203 207 207 203 203 203 203 202 202 202 199 
201 201 201 201 203 204 204 204 208 208 208 208 209 211 211 211 212 212 212 212 214 216 216 216 224 224 224 204 8 8 2 2 3 3 3 3 3 3 3 3 3 3 3 3 2 2 2 1 2 2 4 4 4 4 4 4 7 7 12 12 10 10 3 3 3 3 3 1 2 2 8 8 7 7 7 7 33 33 11 11 11 11 11 11 45 45 45 10 58 12 12 12 17 17 10 10 13 5 13 13 9 9 191 191 220 220 220 59 4 4 4 4 0 5 0 5 19 136 19 19 13 13 13 107 167 248 248 248 231 126 126 231 206 224 224 206 213 213 213 223 189 9 9 9 13 82 82 13 173 227 173 227 216 217 217 217 213 213 215 215 214 214 214 214 213 213 213 213 216 216 216 216 216 216 216 216 214 214 214 214 213 213 213 213 210 210 215 210 213 213 194 194 238 233 233 233 231 231 231 231 235 241 235 241 231 210 210 210 211 211 211 211 211 211 211 211 210 210 210 210 208 208 222 222 240 240 240 240 235 235 207 207 217 217 217 202 199 205 205 199 203 203 201 201 203 207 207 207 203 203 203 203 202 202 199 199 
201 201 201 201 203 204 204 204 208 208 208 208 209 211 211 211 212 212 212 212 214 216 216 216 224 224 224 204 2 8 8 2 3 3 3 3 3 3 3 3 3 3 3 3 2 2 1 1 2 2 2 4 4 4 4 4 7 7 7 7 3 3 3 3 3 3 1 1 2 2 8 8 7 7 19 19 11 33 33 11 11 11 11 11 10 45 45 45 58 58 58 12 10 17 17 17 13 5 13 5 9 9 191 191 220 220 220 220 179 4 4 4 5 5 5 5 19 136 19 19 13 13 13 107 167 248 248 248 231 126 126 231 224 206 224 206 223 213 213 223 189 189 9 9 13 13 82 13 173 227 227 173 216 217 217 217 213 213 215 215 214 214 214 214 213 213 213 213 214 214 214 214 214 214 214 214 214 214 214 214 213 213 213 213 215 210 215 210 213 213 194 194 238 238 233 233 231 234 234 234 235 241 235 241 231 210 210 210 211 211 211 210 207 207 207 207 207 210 210 210 222 222 222 222 240 240 240 240 235 235 235 235 217 217 217 202 205 205 205 199 203 203 203 203 203 207 207 207 202 202 203 203 202 199 199 199 
201 201 201 201 203 204 204 204 208 208 209 209 210 211 211 211 210 210 214 214 214 214 214 219 224 224 224 45 0 9 9 0 3 3 3 3 2 2 2 2 3 3 3 3 3 3 3 1 1 1 1 1 1 1 1 1 4 4 4 4 4 4 4 4 2 2 2 2 18 3 3 3 0 6 6 6 45 45 45 45 11 11 11 11 5 5 5 27 49 49 49 16 4 4 16 16 16 5 5 16 25 25 220 220 210 223 223 223 221 221 30 30 11 11 1 1 21 153 21 21 19 19 19 140 151 246 246 246 233 151 151 233 214 214 214 214 220 208 220 220 217 217 23 23 8 8 87 8 27 217 217 217 215 215 215 215 218 218 218 218 214 214 214 214 211 211 211 211 215 215 210 210 212 212 218 218 215 215 215 215 215 215 215 215 212 212 212 208 209 209 192 192 236 236 232 232 233 226 226 226 231 231 231 237 225 209 209 225 210 210 210 210 209 209 209 209 207 207 213 213 205 239 239 239 236 236 202 202 246 246 246 246 236 236 236 207 200 208 208 200 206 206 202 202 204 207 207 204 200 205 205 205 196 196 196 196 
201 201 201 201 203 204 204 204 208 208 209 209 211 211 211 211 210 210 214 214 214 214 219 219 224 224 224 45 9 9 0 9 3 3 3 3 2 2 2 2 3 3 3 3 3 1 1 1 1 1 1 1 1 1 1 1 1 1 1 4 4 4 12 12 11 11 11 11 18 18 18 3 0 6 6 6 6 45 45 45 41 41 11 11 5 5 27 27 49 49 16 16 16 16 16 4 16 5 16 5 25 25 220 220 223 210 223 223 221 221 221 30 11 11 1 11 21 153 21 21 19 19 19 140 151 246 246 246 233 151 151 233 209 209 209 209 208 208 220 220 217 217 23 23 8 8 87 87 27 217 217 217 215 215 215 215 218 218 218 218 214 214 214 214 211 211 211 211 215 215 215 215 218 218 218 212 215 215 215 215 215 215 215 215 212 208 212 208 209 209 192 192 232 232 232 232 226 226 226 226 231 231 237 237 225 209 209 209 210 210 210 210 209 209 209 209 207 207 213 213 205 239 239 239 236 236 202 202 246 246 246 246 236 236 236 207 200 208 208 208 206 206 202 206 207 207 207 207 200 205 205 200 196 199 199 199 
201 201 201 201 203 204 204 204 208 209 209 209 211 211 211 211 210 214 214 214 219 219 219 219 224 224 224 45 9 9 0 9 5 5 5 5 5 5 5 5 3 3 3 3 1 3 3 3 1 1 1 1 1 1 1 1 4 1 1 1 4 12 12 12 11 2 2 2 18 3 3 3 6 0 0 6 6 6 6 45 41 41 41 11 5 5 27 27 49 16 16 16 16 16 16 4 16 5 16 5 25 220 220 220 223 210 223 223 221 221 221 221 11 1 1 11 153 153 21 21 19 19 19 140 151 246 246 246 233 151 151 233 214 209 214 214 208 208 220 220 217 217 217 23 8 8 8 87 27 27 217 217 215 215 237 237 244 244 244 244 240 240 240 214 221 211 211 211 215 215 210 215 218 218 212 212 215 215 215 212 212 212 215 215 212 208 212 208 209 209 192 192 236 236 236 236 233 233 233 233 237 237 237 237 225 209 209 209 210 210 210 210 209 209 209 209 207 207 213 213 205 205 239 239 236 236 202 202 206 206 206 206 236 207 236 207 200 208 200 208 202 202 206 206 207 207 207 207 205 205 205 200 199 199 199 199 
200 201 201 201 204 204 204 204 209 209 209 209 211 211 211 211 214 214 214 214 219 219 219 219 224 224 224 45 0 9 9 0 5 5 5 5 5 5 5 5 3 3 0 0 1 3 3 3 1 1 1 1 1 1 1 1 4 4 4 4 4 12 12 12 11 11 11 2 18 18 3 3 6 0 0 6 6 6 6 6 11 41 41 41 27 5 5 5 16 16 49 16 4 4 16 16 5 16 5 5 25 220 220 220 210 223 210 210 221 221 221 221 11 1 1 11 153 21 21 21 140 140 19 140 151 246 246 246 233 151 151 233 214 214 214 214 208 220 208 208 217 217 217 23 8 8 8 87 27 27 217 217 237 237 237 237 244 244 244 244 240 240 240 240 221 221 221 211 215 210 210 210 212 212 212 212 215 212 212 212 212 212 212 212 212 208 212 208 209 209 192 209 236 236 236 236 233 233 233 233 237 237 237 237 225 209 209 209 210 210 210 210 209 209 209 209 213 207 207 213 205 205 205 205 202 202 202 202 206 206 206 206 207 207 207 207 208 208 200 208 202 206 206 206 207 204 207 207 205 205 200 200 199 199 199 199 
201 201 201 201 204 206 206 206 209 209 210 210 212 212 213 213 216 212 212 212 215 221 221 221 215 215 21 21 4 4 19 4 9 9 9 9 9 9 11 11 4 4 4 4 1 1 1 1 2 2 2 2 2 2 2 2 3 3 3 13 11 11 11 11 14 14 14 3 20 15 20 15 10 10 10 10 2 2 2 2 6 30 30 30 17 17 7 7 8 17 17 8 6 16 16 6 8 26 8 8 122 221 221 221 208 223 223 223 223 223 223 90 4 4 4 4 204 24 24 24 200 200 71 71 171 249 249 249 232 150 150 232 212 209 212 212 210 217 210 217 219 219 219 153 5 5 5 62 155 26 155 155 244 244 244 244 244 244 244 244 254 254 254 254 251 230 230 230 209 209 209 209 213 213 219 219 213 213 213 213 211 211 211 211 209 209 215 209 210 210 192 210 234 234 234 234 231 231 234 234 236 236 240 240 226 226 207 207 209 209 209 209 210 210 210 210 213 207 207 213 215 202 202 202 201 201 201 209 201 201 201 201 202 202 215 215 210 210 202 210 201 207 207 207 203 203 203 203 207 207 201 201 198 201 201 201 
198 201 201 201 204 206 206 206 210 210 210 210 212 213 213 213 212 212 212 212 215 215 221 221 215 215 21 21 19 4 4 19 9 9 9 9 11 11 11 11 12 12 12 4 1 1 1 1 2 2 2 2 2 2 2 2 3 3 3 13 15 15 15 15 3 3 14 3 20 15 15 15 17 17 17 10 14 14 2 2 6 6 6 6 7 7 7 7 17 8 8 17 16 6 6 16 8 8 8 8 122 221 221 221 208 223 223 223 223 223 223 90 4 4 4 30 204 24 24 204 200 200 71 71 171 171 249 249 232 150 150 232 212 209 212 212 210 217 217 217 219 219 219 219 5 5 5 5 155 26 26 155 244 244 236 236 237 237 237 244 249 249 254 254 251 251 230 230 209 209 209 227 219 213 213 213 213 213 213 213 211 211 211 211 209 209 215 209 210 210 192 192 234 234 234 230 231 234 234 234 240 240 240 240 226 207 207 207 209 209 209 209 210 210 210 210 213 213 207 213 215 215 202 202 201 201 201 209 201 189 201 189 202 202 215 215 210 210 202 210 207 207 207 207 203 202 202 202 207 207 207 201 198 201 201 201 
198 198 201 201 204 206 206 206 210 210 210 210 212 213 213 213 212 216 216 216 215 215 221 221 215 215 21 21 19 4 4 19 9 9 9 9 11 11 11 11 12 12 12 12 11 11 1 1 2 2 2 2 2 2 2 2 3 13 13 13 15 15 15 15 14 14 14 3 20 20 20 20 17 17 17 17 14 14 2 2 6 6 6 6 17 17 17 17 8 8 17 17 16 6 6 16 8 8 26 26 221 221 221 221 208 223 208 208 223 223 223 90 4 4 4 30 204 24 24 204 200 200 71 71 171 249 249 249 232 150 150 232 212 212 212 212 210 217 217 217 219 219 219 219 62 5 5 5 26 26 26 155 244 236 236 236 237 237 244 244 249 249 249 254 251 251 251 230 227 227 209 209 213 219 219 213 222 222 213 213 211 211 211 211 215 209 215 209 210 210 192 192 234 234 234 234 234 234 234 234 240 240 240 240 226 207 207 207 209 209 209 209 210 210 210 210 207 213 207 207 215 215 202 202 209 201 201 209 189 189 201 189 202 202 215 215 202 210 202 202 207 207 201 201 203 203 203 202 201 207 207 201 198 201 201 201 
198 198 201 201 204 206 206 206 210 210 210 210 212 213 213 213 212 216 216 216 215 215 221 221 215 21 21 21 4 4 19 4 7 7 9 9 9 9 11 11 12 12 12 12 11 11 11 11 2 2 2 2 2 2 2 2 13 13 13 13 15 15 15 15 14 14 14 3 20 15 20 15 17 17 17 17 14 14 14 14 6 6 6 30 17 17 7 7 8 17 17 8 16 16 16 6 8 8 26 26 221 221 221 221 223 208 223 223 223 223 223 90 30 4 4 30 204 24 24 204 200 200 71 71 171 249 249 249 232 150 150 232 212 209 212 212 217 210 217 210 219 219 219 153 62 5 5 5 26 155 26 155 244 244 244 244 244 244 244 244 254 254 249 249 251 251 251 251 227 227 209 209 213 219 219 219 222 222 222 222 222 222 222 222 215 215 215 215 210 210 192 192 230 230 230 230 231 231 231 234 236 236 240 240 226 207 207 207 209 209 209 209 210 210 210 210 207 213 207 207 215 215 202 215 209 209 209 209 201 189 201 189 202 202 215 215 202 210 202 210 207 201 201 201 203 203 203 203 201 207 207 207 198 198 198 198 
200 200 200 200 204 205 205 205 209 209 208 209 210 212 212 212 210 218 218 210 227 227 227 227 53 53 8 8 7 15 15 15 16 10 10 10 8 8 11 11 11 11 11 11 12 12 12 12 14 8 8 8 5 5 7 7 10 13 13 13 16 16 16 16 14 14 10 10 15 18 18 18 18 18 18 18 16 16 16 14 15 16 16 16 16 16 16 15 14 14 14 13 11 11 11 11 14 14 14 203 223 223 212 223 210 220 220 220 222 222 222 30 9 9 9 199 183 26 26 183 200 200 75 75 161 247 247 247 232 150 150 232 213 211 211 213 216 216 216 216 166 166 166 166 169 12 12 12 12 77 12 12 231 231 231 231 242 242 242 242 247 247 247 247 247 247 247 247 245 245 224 224 191 229 229 229 227 227 227 227 222 222 222 222 217 217 217 217 211 211 190 190 234 234 230 230 229 232 232 232 239 235 239 239 226 226 210 210 207 212 212 207 204 209 209 204 212 212 212 205 214 214 200 200 204 204 197 204 194 194 204 194 198 198 213 213 202 207 202 207 205 205 205 205 204 204 201 201 203 203 203 203 202 202 199 199 
200 200 200 200 204 205 205 205 209 209 209 209 210 212 212 212 210 218 210 210 144 227 227 227 53 8 8 53 7 15 15 15 16 16 10 10 8 8 11 11 8 11 11 11 12 12 12 12 14 14 8 8 5 5 7 7 10 13 13 13 16 16 16 16 14 14 10 10 15 18 18 18 18 18 18 18 16 16 16 14 15 16 16 16 16 16 16 15 14 14 14 13 11 11 11 11 14 14 14 203 223 223 212 223 220 210 220 220 222 222 222 30 9 9 9 199 26 26 26 183 200 200 75 75 161 247 247 247 232 150 150 232 213 211 213 213 199 216 216 199 166 166 118 166 169 12 12 12 12 77 77 12 77 231 231 231 222 222 222 242 233 233 233 233 236 236 236 236 245 224 224 224 229 229 229 229 227 227 227 227 222 222 222 222 217 217 217 217 211 211 190 190 234 234 234 234 232 232 232 232 235 235 239 239 226 210 210 210 212 212 212 207 209 209 209 204 205 205 212 205 214 214 200 214 204 204 197 204 204 204 204 194 198 198 213 213 207 207 207 207 207 207 207 207 204 204 204 201 203 203 200 200 202 202 202 199 
200 200 200 200 204 205 205 205 209 209 209 209 210 212 212 212 218 218 210 218 227 227 227 144 8 8 53 8 7 7 15 15 16 16 16 16 11 11 8 8 8 8 11 11 12 12 10 10 14 14 14 8 7 7 7 7 10 13 13 13 16 16 16 16 14 14 10 10 15 18 18 18 18 18 18 18 16 16 14 14 15 16 16 16 16 16 16 15 14 14 14 13 11 11 11 11 14 14 14 203 212 223 212 212 220 210 220 210 222 222 30 30 9 9 9 199 26 26 183 183 200 200 75 75 161 247 247 247 232 150 150 232 213 211 213 213 216 216 199 199 118 118 118 118 169 169 12 12 12 12 77 12 77 231 231 231 222 222 222 242 233 233 233 233 236 236 247 236 245 224 245 245 229 191 191 191 187 187 187 187 187 187 187 187 190 190 217 217 211 211 190 190 234 234 230 230 229 229 232 232 235 235 239 239 226 210 210 210 212 212 207 212 209 209 209 209 212 212 212 205 214 214 200 200 204 204 197 204 204 204 204 194 198 198 213 213 207 207 202 202 207 207 207 207 204 204 204 204 203 203 200 200 202 202 202 199 
200 200 200 200 204 205 205 205 209 209 209 209 210 212 212 212 218 218 210 218 227 227 227 144 8 8 8 8 7 7 7 15 16 16 16 16 11 11 11 11 11 11 11 11 12 12 12 10 14 14 14 8 7 7 7 7 10 10 13 13 16 16 16 16 14 14 10 14 15 18 18 18 18 18 18 18 16 16 14 14 15 16 16 16 16 16 16 15 14 14 14 13 11 11 11 11 14 14 203 203 223 212 223 212 210 220 220 220 222 222 30 30 9 9 9 199 26 26 183 183 200 200 75 75 161 247 247 247 232 150 150 232 213 211 213 213 216 216 199 199 118 118 118 166 169 169 12 12 12 12 77 12 77 231 231 231 242 242 242 242 247 247 247 247 247 247 247 247 245 245 245 245 229 191 191 191 187 187 187 187 187 187 187 187 190 190 190 217 211 211 190 190 234 230 230 230 229 229 229 229 239 239 239 239 226 226 210 210 212 207 207 212 209 204 204 209 212 212 212 205 214 214 200 200 204 204 197 204 204 194 204 194 198 198 213 213 207 207 202 202 207 207 207 207 204 204 204 204 203 200 200 200 202 202 202 202 
200 200 200 200 204 205 205 205 210 210 210 210 211 211 213 213 211 220 220 220 216 216 216 16 4 14 4 14 17 17 5 5 14 14 14 14 18 18 15 15 13 13 13 13 14 12 12 12 13 10 10 10 9 9 9 9 9 12 12 12 15 15 15 15 13 13 10 13 18 18 18 15 15 15 15 15 14 14 14 14 15 16 16 16 16 16 16 15 14 14 14 13 11 11 11 11 24 24 215 215 222 222 222 222 209 223 223 223 208 208 5 5 14 14 14 149 24 24 221 221 181 181 43 181 167 249 249 249 229 156 156 229 212 212 212 212 204 204 204 204 112 112 149 149 171 171 49 49 5 5 64 64 39 202 202 202 233 233 233 233 241 241 241 241 238 238 238 238 234 234 242 242 250 229 229 229 215 215 215 215 192 218 218 192 201 201 201 215 210 210 188 188 231 231 231 231 231 231 231 236 239 239 239 239 226 226 210 210 210 205 205 210 210 205 205 210 211 205 211 205 214 214 202 202 206 206 199 206 206 197 206 197 198 198 213 213 208 208 208 208 206 206 206 206 204 204 201 201 200 200 199 200 201 201 201 201 
200 200 200 200 204 205 205 205 210 210 210 210 211 211 213 213 211 220 211 211 216 216 16 16 4 14 4 14 17 5 5 17 11 11 14 14 18 18 18 18 15 15 15 15 14 14 14 12 10 10 10 10 9 9 9 9 9 9 12 12 15 15 15 15 13 13 10 13 18 18 18 15 15 15 15 15 14 14 14 11 15 16 16 16 16 16 16 15 14 14 14 13 11 11 11 11 24 24 215 215 204 222 204 222 209 223 209 223 208 208 5 5 14 14 149 149 24 24 221 221 181 181 43 181 167 249 249 249 229 156 156 229 208 208 212 212 204 204 204 116 112 112 149 149 171 171 171 49 5 5 5 64 39 39 202 202 205 205 233 205 217 217 217 217 227 227 238 227 234 234 242 242 250 250 250 229 246 246 215 215 218 218 218 218 215 215 215 215 210 210 188 188 231 231 231 231 231 231 236 236 235 235 239 239 226 210 210 210 210 205 205 205 205 205 205 210 211 211 211 205 214 214 202 202 199 199 199 206 197 197 206 206 198 198 213 213 202 202 202 208 205 205 205 205 204 204 201 201 200 200 199 200 201 201 201 197 
200 200 200 200 204 205 205 205 210 210 210 210 211 213 213 213 220 220 211 211 216 216 16 16 14 14 4 14 5 5 17 17 11 11 14 14 18 18 18 18 15 15 15 15 14 14 14 12 13 13 13 13 9 9 9 6 9 9 12 12 15 15 15 15 13 13 10 13 18 18 18 15 15 15 15 15 14 14 11 11 15 16 16 16 16 16 16 15 14 14 14 13 11 11 11 11 24 215 215 215 204 222 204 222 209 223 209 223 208 208 5 5 14 14 149 149 24 24 221 221 181 181 43 181 167 249 249 249 229 156 156 229 208 208 212 212 204 204 116 116 112 112 112 149 171 171 171 49 5 5 5 64 39 39 202 202 205 205 205 205 217 217 217 217 227 227 238 238 234 242 242 242 250 250 250 250 246 246 246 215 218 218 218 218 215 215 215 215 210 210 188 188 227 227 227 227 231 231 236 236 235 235 239 239 226 210 210 210 210 210 210 210 210 210 210 210 211 211 211 205 214 214 202 202 199 199 199 206 197 197 206 206 198 198 213 213 202 202 202 202 206 206 206 206 204 204 204 201 200 200 200 200 201 201 197 197 
200 200 200 200 204 205 205 205 210 210 210 210 211 213 213 213 211 220 220 220 216 216 16 16 4 14 4 14 17 17 17 5 11 11 14 14 15 18 18 18 15 15 15 15 14 14 14 12 13 13 13 13 9 9 9 6 9 9 12 12 14 15 15 15 13 10 10 13 18 18 18 15 15 15 15 15 14 14 11 11 15 16 16 16 16 16 16 15 14 14 14 13 11 11 11 11 24 215 215 215 204 222 222 204 209 209 223 223 208 208 5 5 14 14 149 14 24 24 221 221 181 181 43 43 167 249 249 249 229 156 156 229 208 208 212 212 204 204 116 116 112 112 112 149 171 171 171 49 5 5 5 5 39 39 39 202 233 233 233 233 241 241 241 217 227 227 238 238 242 242 242 242 250 250 250 250 246 246 246 215 192 192 192 192 201 201 201 215 210 210 188 188 231 231 231 231 236 236 236 236 239 235 239 239 226 226 210 210 205 210 210 210 210 210 210 205 205 205 211 205 214 214 202 214 206 206 206 206 197 197 206 206 213 198 213 213 208 208 208 202 206 206 206 206 204 204 204 204 200 200 200 200 201 201 197 197 
199 199 199 202 206 202 202 206 207 213 213 207 210 215 215 215 215 215 215 224 170 10 10 10 8 8 8 8 11 11 11 11 14 14 14 14 11 11 17 17 15 18 18 18 18 18 18 14 17 17 13 13 11 11 11 11 8 8 8 8 25 11 11 25 14 9 9 14 16 16 16 16 16 16 16 14 13 13 13 13 16 16 16 15 15 15 15 15 17 17 9 17 8 8 8 29 119 216 216 216 220 220 240 220 222 222 222 247 234 12 12 12 16 16 182 16 38 38 216 216 178 178 15 178 164 250 250 250 215 145 145 215 216 216 188 216 205 205 119 119 136 136 177 177 183 183 183 201 6 6 6 6 128 28 28 128 245 245 245 245 220 220 220 220 229 229 229 229 243 243 243 243 249 249 249 249 241 252 252 252 238 238 196 196 193 209 209 209 210 210 190 190 233 233 233 233 230 230 227 227 232 232 242 242 228 209 209 209 210 210 210 210 208 208 208 208 210 203 203 210 211 211 195 195 191 191 202 202 197 197 197 197 200 200 211 211 201 201 201 210 205 205 202 202 204 204 201 201 204 204 204 204 202 198 198 198 
202 199 199 202 206 202 202 206 207 213 213 207 210 215 215 215 215 224 224 224 170 10 10 10 8 8 3 3 4 11 11 11 14 14 14 14 17 17 17 17 15 15 18 18 18 18 18 18 17 17 17 13 14 14 14 14 15 15 15 15 11 11 11 11 14 9 9 14 16 16 16 16 16 16 16 14 13 13 13 13 16 16 16 15 15 15 15 15 9 9 9 17 8 8 29 8 119 216 216 216 240 220 240 240 247 247 247 247 234 12 12 12 16 16 182 16 38 216 216 216 178 178 15 178 164 250 250 250 215 145 215 215 216 188 188 216 205 205 119 119 136 136 177 177 183 183 183 201 153 6 6 6 28 28 28 128 245 245 245 245 220 220 220 220 229 229 229 229 237 243 243 243 249 249 249 249 252 252 252 252 238 238 196 196 193 193 209 209 210 210 190 190 233 239 239 233 230 230 227 227 232 242 242 242 228 209 209 209 210 210 207 207 206 206 208 208 210 203 210 210 211 211 195 195 191 191 191 191 197 197 197 197 200 200 211 211 201 201 201 210 205 205 205 205 204 204 204 204 204 204 201 201 202 202 202 198 
202 202 202 202 206 202 206 206 207 213 213 213 210 210 215 215 215 215 215 224 170 10 10 10 3 3 3 3 4 4 4 4 3 3 14 14 17 17 17 17 18 18 18 18 18 18 18 18 17 17 17 13 14 14 14 14 15 15 15 15 11 25 25 11 14 9 9 14 16 16 15 16 16 16 16 14 13 13 13 13 16 16 16 15 15 15 15 15 9 9 17 9 8 8 29 29 216 216 216 216 240 240 240 240 247 247 247 247 234 12 12 12 16 16 182 16 38 216 216 216 178 178 15 178 164 250 250 250 215 145 215 215 216 188 188 216 205 205 119 119 136 177 177 177 201 201 183 201 153 6 6 6 28 128 28 128 245 245 245 167 173 173 173 220 211 211 229 229 237 237 243 243 237 237 237 249 252 241 241 241 238 238 196 196 193 193 209 209 210 210 190 190 239 239 239 239 230 230 230 230 232 242 242 242 228 209 209 209 210 207 207 207 206 208 208 208 210 203 210 210 211 211 195 195 202 202 202 202 204 204 204 204 211 200 211 211 210 210 201 210 205 205 202 205 204 204 204 201 201 201 201 201 202 202 202 202 
202 202 202 202 206 206 206 206 207 213 213 213 210 210 215 215 224 224 224 224 10 10 10 10 8 8 8 8 4 4 4 4 3 3 3 3 11 11 11 11 18 18 18 18 18 14 14 14 17 17 13 13 14 14 14 14 15 8 15 15 11 25 25 11 9 9 14 14 16 16 15 16 16 16 14 14 13 13 13 13 16 16 15 15 14 14 15 15 17 9 17 9 8 29 8 29 216 216 216 216 220 220 220 220 222 222 222 247 234 12 12 12 16 182 182 16 38 216 216 216 178 178 15 178 164 250 250 250 215 145 145 215 188 188 188 216 205 205 119 119 136 136 177 177 201 201 183 201 153 6 6 6 28 128 28 28 245 245 245 167 173 173 173 173 211 211 211 229 237 237 237 237 237 237 237 237 241 241 241 241 238 238 238 238 193 193 209 209 210 210 190 190 239 239 239 233 230 227 227 227 232 232 242 242 228 228 209 209 210 210 210 210 208 208 208 208 203 203 210 210 211 211 195 195 202 202 202 202 204 197 197 204 200 200 211 211 210 210 201 210 205 202 202 202 204 204 204 201 204 204 204 204 202 202 202 202 
195 200 200 200 203 203 203 203 207 207 207 207 213 213 213 213 222 222 222 58 1 9 1 9 11 11 11 10 11 8 8 8 2 2 2 2 2 2 2 11 12 12 12 12 18 18 18 9 15 15 12 12 11 11 11 11 15 8 15 15 8 30 30 30 8 8 17 17 15 18 15 15 15 15 15 14 14 14 14 14 15 15 15 13 13 13 13 13 15 10 15 15 14 14 14 214 199 199 199 199 184 184 184 184 196 196 196 196 67 4 4 4 21 234 21 21 92 239 239 239 192 192 22 192 167 251 251 251 217 150 150 217 181 181 181 212 202 202 118 118 148 148 174 174 174 174 174 193 204 19 19 19 7 7 88 7 70 232 232 232 216 216 233 216 227 227 227 235 234 234 234 226 231 231 224 224 234 234 234 234 233 233 233 233 209 209 209 209 214 214 191 191 236 236 236 230 226 226 226 226 230 230 238 238 224 224 207 207 210 210 210 210 207 207 207 207 208 208 208 208 208 208 193 193 195 195 204 204 208 188 208 208 205 194 205 194 199 199 199 199 203 203 203 203 205 205 205 205 203 203 203 203 204 204 204 204 
195 200 200 200 203 203 203 203 207 207 207 207 213 213 213 213 222 222 222 58 1 1 1 1 11 11 11 11 11 11 8 8 12 12 12 2 2 2 2 2 2 2 12 12 18 18 18 18 15 15 12 12 10 11 11 11 15 8 15 15 8 30 30 8 8 8 17 17 15 18 18 15 15 15 15 14 14 14 14 14 15 15 15 13 13 13 13 13 15 10 10 15 14 14 14 214 236 236 236 236 184 236 236 236 196 244 244 244 67 4 4 4 21 234 21 21 92 239 239 239 192 192 22 192 167 251 251 251 217 150 150 217 212 181 181 212 202 202 118 118 148 148 174 174 174 174 193 193 204 204 19 19 7 7 88 7 70 232 232 232 233 233 233 233 227 227 235 235 234 234 226 226 224 224 224 224 219 234 234 219 220 220 233 233 234 209 209 209 214 214 191 191 236 236 236 236 234 234 234 234 238 238 238 238 224 224 207 207 208 208 208 208 207 207 202 202 208 208 208 208 208 208 193 193 195 195 204 204 188 188 188 208 205 194 205 194 199 214 199 214 203 203 203 203 205 205 205 205 203 203 203 203 204 204 204 204 
195 200 200 200 203 229 229 229 227 207 207 227 243 243 243 243 222 222 222 58 9 9 9 9 10 11 11 11 11 11 11 8 12 12 12 12 11 11 2 2 2 2 2 12 9 9 18 18 15 15 15 12 11 11 11 11 8 8 8 8 8 8 8 8 8 17 17 17 18 18 18 15 15 15 15 14 14 14 14 14 15 15 13 13 13 13 13 13 10 15 10 15 14 14 214 214 236 236 236 236 236 236 236 236 244 244 244 244 67 4 4 4 21 234 21 21 92 239 239 239 192 192 22 192 167 251 251 251 217 150 217 217 212 181 181 212 202 202 118 118 148 148 174 174 193 174 193 193 204 204 19 19 7 7 88 88 70 232 232 232 216 233 233 233 227 235 235 227 226 226 226 234 231 231 224 224 219 219 219 219 220 220 220 233 234 234 234 209 214 214 191 191 236 236 236 236 234 234 234 234 238 238 238 238 224 207 207 207 210 210 210 208 207 202 202 202 208 189 208 189 193 208 193 208 195 195 195 195 188 188 188 188 205 194 194 194 199 214 199 214 215 215 203 215 217 217 217 205 203 221 221 221 220 220 220 220 
195 195 200 200 229 229 229 229 227 227 227 227 243 243 243 243 222 222 58 58 1 9 1 9 11 11 11 11 11 11 11 11 2 12 12 12 11 11 11 11 2 2 2 2 9 9 9 18 15 15 15 12 11 11 11 11 15 15 15 15 30 8 8 8 8 17 17 17 18 18 18 18 15 15 14 14 14 14 14 14 15 15 13 13 13 13 13 13 10 15 10 15 14 14 214 214 236 236 199 236 236 236 236 236 244 196 244 244 4 4 4 4 21 234 21 21 239 239 239 239 192 192 22 192 167 251 251 251 217 150 217 217 212 181 181 212 202 202 118 118 148 148 174 174 174 174 174 193 204 204 204 19 7 7 7 88 70 70 232 232 216 233 233 233 235 235 235 235 226 226 234 234 231 231 231 231 219 219 234 219 220 220 233 233 234 234 234 234 214 214 191 191 230 230 230 230 226 226 226 226 230 230 230 230 224 207 207 207 210 210 210 210 207 207 202 202 189 189 189 189 193 193 193 208 204 204 204 204 208 208 208 208 205 205 205 205 214 214 214 214 215 215 215 215 217 217 217 217 221 221 221 221 220 220 220 220 
181 181 181 206 223 223 223 223 192 192 192 192 215 215 215 215 217 217 16 16 11 2 11 11 10 11 11 11 11 11 11 10 10 10 10 10 11 13 13 13 9 9 9 9 3 3 3 3 11 11 11 11 13 13 13 13 10 10 15 15 15 15 10 10 5 5 17 17 22 22 22 13 16 16 16 16 17 17 12 12 16 16 12 16 14 10 10 14 15 15 8 15 54 54 248 248 241 241 241 241 245 245 245 245 247 247 247 247 2 11 11 2 32 171 32 32 242 254 254 242 212 212 65 65 177 250 250 250 222 134 222 222 219 219 219 236 242 176 176 176 187 187 187 187 216 216 157 157 213 213 213 107 5 5 5 66 44 44 227 227 234 234 234 207 231 231 231 231 232 232 232 232 234 234 234 234 227 227 227 227 225 225 225 225 221 221 221 221 232 232 232 232 221 221 221 221 229 229 229 229 227 227 227 227 221 221 221 200 211 211 211 211 201 201 201 201 195 195 195 195 201 201 201 201 208 208 208 208 216 220 220 220 216 216 204 216 217 217 217 217 216 216 216 216 214 214 214 214 206 206 206 206 216 216 216 216 
181 181 206 206 223 223 223 223 192 192 192 134 161 161 215 215 217 217 16 16 2 2 11 2 10 11 11 11 11 11 11 10 10 10 10 10 11 13 13 13 14 14 9 9 10 3 3 3 3 3 11 11 13 13 13 13 10 10 15 15 15 15 10 10 5 5 5 17 13 13 22 13 16 16 11 11 12 12 12 17 12 12 12 16 14 14 14 14 15 15 15 15 54 54 248 248 253 253 253 253 254 254 254 254 247 247 247 76 2 11 2 11 171 171 32 32 254 254 254 254 212 212 65 65 177 250 250 250 222 134 222 222 219 236 219 236 242 242 242 242 235 235 235 235 216 216 157 157 107 213 213 107 5 5 5 66 44 44 227 227 234 234 234 234 231 231 231 231 232 232 232 232 234 234 234 234 227 227 227 227 225 225 225 225 221 221 221 221 232 232 232 232 221 221 221 221 229 229 229 229 227 227 227 227 221 221 221 200 202 202 202 202 201 201 201 201 195 195 218 218 201 201 201 222 208 208 208 208 216 220 220 216 216 216 204 204 183 183 183 217 216 174 174 174 173 173 173 173 206 206 206 206 169 169 169 169 
181 181 181 206 223 152 152 152 134 192 192 134 161 161 161 161 217 16 16 16 2 11 2 11 10 11 11 11 11 11 11 10 10 10 10 10 11 11 13 13 14 14 14 14 10 10 10 10 3 3 3 3 7 7 13 13 10 10 15 15 15 15 10 10 17 5 5 17 13 22 22 22 16 11 11 11 12 12 17 17 16 12 12 16 14 14 10 14 8 15 15 8 54 248 248 248 241 241 241 241 245 245 245 245 247 247 247 76 11 2 2 11 171 32 32 32 254 254 242 254 212 212 65 212 177 250 250 250 222 134 222 222 219 219 236 236 242 242 242 242 235 235 235 235 216 216 216 157 107 213 213 107 5 5 5 5 44 44 44 227 234 207 234 234 231 231 231 202 232 232 232 232 234 191 191 234 227 227 227 227 225 225 225 179 221 221 221 221 232 232 180 180 221 153 153 153 179 179 179 179 195 195 195 195 200 200 200 200 202 202 202 211 216 216 216 216 218 218 218 218 222 222 222 222 223 223 223 223 220 220 216 216 216 216 204 204 183 183 183 183 174 174 174 174 173 173 173 173 162 162 162 162 169 169 169 169 
206 206 206 206 152 152 152 152 134 134 134 134 161 161 161 161 217 16 16 16 2 11 2 11 10 11 11 11 11 11 11 10 10 10 10 10 11 11 13 13 14 14 14 14 10 10 10 10 11 11 3 3 7 7 7 7 10 15 15 15 15 15 15 10 17 5 17 17 22 22 22 13 11 11 16 16 17 17 17 12 16 16 16 16 14 10 10 10 8 8 15 8 54 248 248 248 253 253 253 253 254 254 254 254 247 247 247 76 11 2 11 11 171 32 32 171 254 242 254 254 212 212 65 212 177 250 250 250 222 134 222 222 219 236 236 236 242 242 242 242 235 235 235 187 216 216 216 157 213 213 213 213 5 5 5 66 44 44 44 227 207 207 207 207 202 202 202 202 182 182 182 182 191 191 191 191 177 177 177 177 179 179 179 179 160 160 160 160 180 180 180 180 153 153 153 153 179 179 179 179 195 195 195 195 200 200 200 221 202 211 211 211 216 216 216 216 218 218 218 218 222 222 222 222 223 223 223 223 220 220 220 220 216 216 216 216 217 217 183 183 174 174 216 216 214 214 214 214 162 162 206 206 216 216 216 216 
194 194 194 194 186 151 151 151 101 101 101 101 109 109 109 109 42 6 6 6 3 8 3 8 10 11 11 11 11 11 11 10 10 10 10 10 10 10 10 10 12 12 12 12 12 12 12 11 11 11 11 8 7 7 7 7 12 12 15 15 15 15 12 12 12 12 12 12 15 15 15 3 5 13 13 13 15 15 15 15 14 14 14 14 8 8 4 8 9 22 9 9 107 243 243 243 253 253 253 253 253 253 253 253 235 235 235 38 7 7 7 7 207 25 25 207 246 246 246 246 186 186 41 186 168 252 252 252 228 146 228 228 239 239 239 239 247 247 247 247 246 246 213 213 189 189 189 189 179 179 179 179 135 6 6 6 13 84 13 84 180 180 180 180 185 185 185 185 180 229 180 180 172 172 225 172 190 190 190 190 167 167 167 167 200 200 200 200 213 213 213 213 138 138 138 138 183 183 183 183 202 202 202 202 211 211 211 211 225 225 225 225 226 226 226 226 228 228 228 228 226 226 226 226 231 231 231 231 234 234 234 234 242 236 236 236 235 235 222 222 197 197 197 197 194 194 194 194 163 163 163 163 200 200 200 200 
155 155 194 194 186 186 151 151 149 101 101 101 109 109 96 109 42 42 6 6 8 8 3 8 10 11 11 11 11 11 11 10 10 10 10 10 10 10 10 10 12 12 12 12 12 12 12 11 11 11 11 11 11 11 11 11 12 15 15 15 15 15 15 12 12 4 4 12 3 3 15 3 13 5 5 5 7 7 15 15 14 5 5 5 8 4 4 8 9 22 22 22 107 243 243 243 253 253 253 253 253 253 253 253 235 235 235 38 7 7 7 111 207 25 25 207 246 246 246 246 186 186 41 186 168 252 252 252 228 146 228 228 239 239 239 239 247 247 247 247 246 246 213 213 189 223 223 189 221 221 179 179 135 6 6 6 13 84 13 84 233 233 233 233 237 237 237 237 229 229 229 229 225 225 225 225 229 229 229 229 226 226 226 226 200 225 225 225 213 213 213 213 138 138 138 178 183 206 206 206 202 202 215 215 211 211 222 222 225 225 234 234 235 235 235 235 228 235 235 235 236 226 226 226 235 235 235 235 241 241 241 241 242 242 242 242 235 235 235 235 224 224 197 197 148 148 148 148 108 163 163 163 140 200 200 200 
155 155 194 194 186 186 186 186 149 149 101 101 96 96 109 109 6 6 6 6 3 8 8 8 10 11 11 11 11 11 11 10 10 10 10 9 9 10 10 10 11 11 11 11 12 12 12 12 8 11 11 11 11 11 11 11 15 15 15 15 15 15 15 15 4 4 4 4 3 3 15 15 13 13 5 5 7 7 7 15 14 5 5 5 4 4 4 8 9 22 22 22 107 243 243 243 253 253 253 253 253 253 253 253 235 235 38 38 7 7 7 111 207 25 25 207 246 166 246 166 186 186 41 186 168 252 252 252 228 146 228 228 239 239 239 239 247 247 247 247 246 246 246 246 223 223 223 223 221 221 221 221 135 6 6 6 13 84 13 13 180 233 233 233 237 237 237 237 229 229 229 229 225 225 225 225 229 229 229 229 226 226 226 226 225 225 225 225 213 213 151 151 138 138 178 178 183 206 206 206 202 202 215 215 211 222 222 222 234 234 234 234 235 235 235 235 235 235 235 235 236 236 236 236 235 235 235 235 241 241 241 241 236 242 242 236 222 222 222 235 224 224 224 197 148 148 148 148 108 163 108 108 140 140 200 140 
155 155 155 155 151 151 186 186 149 149 149 101 96 96 96 96 42 6 6 6 3 8 3 8 10 11 11 11 11 11 11 10 10 10 10 9 9 9 10 10 11 11 11 12 12 12 12 12 8 11 11 11 11 11 7 7 15 15 15 15 15 15 15 15 4 4 12 12 3 3 15 15 13 13 13 13 7 15 15 15 14 14 5 5 4 4 4 8 9 22 22 9 107 243 107 243 198 198 198 198 188 188 188 188 235 235 38 38 7 7 7 111 25 25 25 207 166 166 166 166 186 41 41 186 168 252 252 252 228 146 146 146 172 172 172 172 215 215 215 247 246 246 246 213 189 223 223 223 179 221 221 179 135 135 6 6 13 13 84 13 180 233 233 180 185 185 185 237 180 180 180 180 225 172 172 172 190 190 190 190 167 167 167 226 225 200 200 225 213 151 151 151 138 178 178 178 206 206 206 206 215 215 215 215 222 222 222 222 234 234 234 234 235 235 235 235 235 235 235 235 236 236 236 236 235 235 235 235 234 234 234 234 236 236 242 242 235 235 222 222 224 224 224 224 194 194 194 148 163 108 108 108 140 140 200 140 
111 111 111 111 126 126 126 126 104 104 104 104 99 99 99 36 11 11 2 2 5 5 8 8 10 12 12 12 14 14 14 14 12 12 11 11 11 10 10 10 11 11 11 11 11 11 11 11 11 11 11 11 12 12 12 12 15 15 15 15 14 14 11 11 6 6 19 19 16 16 16 16 14 14 14 14 14 14 14 14 15 15 11 11 7 12 12 7 12 45 12 12 122 122 122 122 106 106 106 106 104 104 104 104 187 187 6 6 14 14 14 237 25 25 25 180 151 151 151 151 172 61 61 172 179 249 249 249 234 167 167 167 167 167 167 167 130 130 130 130 182 237 237 182 163 163 163 209 210 149 149 149 198 198 21 21 6 6 52 52 44 192 192 44 43 43 184 184 113 40 40 113 178 178 40 40 75 206 206 75 88 88 222 222 243 243 188 243 178 178 178 178 186 186 186 186 213 213 213 213 208 231 231 208 231 231 241 241 232 232 232 232 233 241 241 233 235 235 235 237 240 240 240 240 236 241 241 236 234 234 240 234 236 236 236 236 217 217 217 217 195 195 195 195 160 160 160 160 126 126 84 84 125 157 157 157 
87 87 87 87 90 90 90 126 104 88 88 88 99 99 99 36 11 11 2 2 5 5 8 8 10 12 12 12 14 14 14 14 12 12 12 11 11 11 10 10 13 13 13 13 13 13 13 13 11 11 11 11 12 12 12 12 15 16 16 16 14 14 11 11 6 6 19 19 16 16 16 16 14 14 14 14 14 14 14 14 15 15 15 11 12 12 12 7 12 12 12 12 122 236 236 236 228 228 228 228 227 227 227 227 187 187 6 6 14 14 14 237 25 25 180 180 240 240 240 240 172 172 61 172 179 249 249 249 234 167 234 234 225 225 225 225 225 130 130 130 182 182 237 237 163 163 163 209 210 149 149 149 198 198 21 21 6 6 52 52 44 192 192 44 43 43 184 184 113 40 40 113 178 178 40 40 75 206 206 75 88 88 222 222 243 243 243 243 178 178 178 178 186 186 186 186 213 213 213 213 208 231 231 231 231 231 241 241 239 239 232 232 233 233 233 241 237 237 237 237 240 240 236 236 236 241 236 236 240 240 240 240 236 236 236 236 217 217 217 217 195 195 136 136 160 160 160 160 126 126 126 126 125 157 157 125 
87 87 87 87 90 90 90 90 104 88 104 104 99 99 36 36 11 11 2 2 5 8 8 8 10 12 12 12 14 14 14 14 12 12 12 12 11 11 11 11 13 13 13 13 13 13 13 13 11 11 11 11 12 12 12 12 16 16 16 16 14 14 14 11 6 6 19 19 16 16 16 16 14 14 14 14 14 14 14 14 15 15 15 11 12 12 12 7 12 12 12 45 236 236 236 236 228 228 228 228 227 227 227 227 187 187 6 6 14 14 14 237 25 25 180 180 240 240 240 240 172 172 61 172 179 249 249 249 234 167 234 234 225 225 225 225 225 225 225 225 182 237 237 237 163 163 163 209 210 149 149 149 198 198 21 21 6 6 6 52 44 44 192 44 43 43 184 184 113 40 40 113 178 178 40 40 75 206 206 206 88 88 222 222 243 243 243 188 178 65 65 65 69 69 69 69 109 109 213 213 231 231 208 231 241 241 241 231 239 239 239 239 233 233 241 241 237 237 237 237 240 240 236 236 236 241 241 241 240 240 234 234 236 236 236 208 217 154 154 154 136 136 136 136 76 76 76 76 84 126 126 126 125 157 157 125 
87 87 87 87 90 90 90 90 104 88 88 104 99 99 36 36 11 11 2 2 8 8 8 8 10 12 12 12 14 14 14 14 12 12 12 12 11 11 11 11 13 13 13 13 13 13 13 13 11 11 11 11 12 12 12 12 16 16 16 16 14 14 14 11 6 6 19 19 15 15 16 16 14 14 14 14 14 14 14 14 15 15 15 11 12 12 12 7 12 45 45 45 236 236 236 236 228 228 228 228 227 227 227 227 187 187 6 6 14 14 14 237 25 25 180 180 151 151 151 151 172 61 61 172 179 249 249 249 234 167 167 167 167 167 225 167 225 225 225 225 237 237 237 182 209 209 209 209 210 210 210 210 198 198 198 21 6 6 6 52 44 44 192 192 43 43 184 184 113 40 40 113 178 178 40 40 75 206 206 206 88 88 222 222 243 243 188 188 65 65 65 65 69 69 69 69 109 109 109 109 208 208 231 231 241 231 241 241 239 239 239 239 241 241 241 241 237 237 237 237 240 240 240 240 241 241 241 241 240 234 234 234 236 208 208 208 154 154 154 154 136 136 136 136 76 76 76 76 84 84 84 126 125 125 125 125 
93 93 93 93 95 95 95 95 97 97 97 97 119 119 24 24 12 5 5 5 8 8 8 9 10 12 12 12 14 14 14 14 14 14 14 14 13 13 13 12 15 15 15 15 15 15 15 15 12 12 12 12 11 11 11 11 16 16 16 16 12 12 12 12 2 16 16 16 13 13 13 13 14 14 14 14 14 14 14 14 14 14 14 11 12 12 12 5 12 36 12 36 68 68 68 68 56 56 56 56 49 49 49 49 42 42 5 5 19 19 202 202 20 20 100 100 39 52 39 39 49 49 49 167 176 251 251 251 222 129 129 129 78 142 142 78 117 166 166 166 180 180 180 180 189 189 189 189 198 198 198 198 206 206 147 147 6 6 6 48 35 35 119 119 42 42 192 192 141 66 66 66 166 166 76 76 100 100 207 207 104 104 192 192 144 144 144 40 24 24 35 35 35 45 45 45 42 42 42 52 52 155 155 155 219 219 219 219 244 244 244 244 247 239 239 239 240 240 240 240 243 247 243 243 237 237 237 237 225 225 225 225 161 161 161 130 139 145 139 139 140 140 134 140 112 74 74 74 67 67 82 82 98 129 129 129 
93 93 93 93 95 95 95 95 97 97 97 97 119 119 24 24 12 12 5 5 9 9 9 9 10 12 12 12 14 14 14 14 15 15 15 14 13 13 13 13 15 15 15 15 15 15 15 15 12 12 12 12 11 11 11 11 16 16 16 16 12 12 12 8 2 16 16 16 13 13 13 13 14 14 14 14 14 14 14 14 11 14 14 11 12 12 5 5 12 12 36 36 34 34 68 34 33 33 33 33 29 29 29 29 42 5 5 5 19 19 202 19 20 20 100 20 39 52 52 52 49 49 49 167 176 251 251 251 222 222 129 129 78 78 142 78 117 166 166 166 126 126 180 180 189 189 189 189 198 198 198 140 206 206 147 147 6 48 6 6 119 35 35 119 42 42 192 192 141 66 66 141 166 166 76 76 100 207 207 207 104 104 192 192 144 144 40 40 35 24 35 35 35 45 45 45 52 42 42 52 52 52 52 155 219 219 219 219 244 244 244 244 239 247 247 247 246 246 246 246 247 247 243 243 237 237 215 237 225 225 225 108 130 130 130 130 145 145 145 139 140 140 134 134 112 74 74 74 82 67 82 82 98 129 129 129 
93 93 131 93 95 95 95 95 97 97 135 97 119 24 24 24 12 12 5 5 9 9 9 9 10 12 12 12 14 14 14 14 15 15 15 15 13 13 13 13 15 15 15 15 15 15 15 15 12 12 12 12 11 11 11 11 16 16 16 14 12 12 8 8 2 16 16 16 13 13 13 13 14 14 14 14 14 14 14 14 11 14 14 11 12 12 12 5 12 12 36 36 34 34 68 34 33 33 33 33 29 29 29 29 42 5 5 5 19 19 202 19 20 20 100 100 39 52 39 39 49 49 49 167 176 251 251 251 222 129 129 129 78 78 142 78 117 166 117 117 126 126 180 126 139 139 139 189 140 140 140 140 147 206 147 206 48 6 6 6 35 35 35 119 42 42 192 192 141 66 66 141 166 166 76 76 100 207 207 207 104 104 192 192 144 40 40 40 35 24 24 24 45 45 45 45 52 42 42 52 52 52 52 52 63 63 219 219 204 244 244 244 239 247 247 247 246 246 246 246 247 247 243 243 237 237 237 215 225 108 108 108 130 130 161 161 139 145 145 139 134 140 134 140 112 74 74 74 82 67 82 67 98 129 129 129 
131 131 131 131 143 143 143 143 135 135 135 135 119 24 24 24 12 12 5 5 9 9 9 9 10 12 12 12 14 14 14 14 15 15 15 15 13 13 13 13 15 15 15 15 15 15 15 15 12 12 12 12 11 11 11 11 16 16 16 14 12 12 8 8 2 16 16 16 13 13 13 13 14 14 14 14 14 14 14 14 14 14 14 14 12 12 12 5 12 36 36 36 34 34 68 68 33 56 56 56 49 29 29 49 42 5 5 5 19 19 202 19 20 100 100 100 52 52 39 52 49 49 49 167 176 251 251 251 222 129 129 222 142 142 142 142 117 166 117 117 126 126 180 126 139 139 139 139 140 140 140 140 147 206 147 206 48 6 6 6 35 35 35 119 42 42 192 192 141 66 141 141 166 166 76 76 100 100 207 207 104 104 104 104 40 40 40 40 24 24 35 35 35 35 45 45 52 52 42 52 52 52 52 52 63 63 63 63 204 204 244 244 239 247 247 247 246 246 246 246 247 247 247 247 237 237 215 215 108 108 108 108 130 130 161 130 139 145 145 139 134 140 140 134 112 74 74 74 82 67 82 67 98 98 98 129 
144 174 174 174 181 156 181 156 191 155 191 155 101 16 16 16 13 4 4 4 12 12 8 8 10 10 13 13 14 14 14 14 15 15 15 15 14 14 14 14 15 15 15 15 14 14 14 14 14 14 11 11 11 11 14 14 15 15 15 12 11 11 11 4 3 17 17 17 14 13 14 14 14 14 14 13 13 14 14 14 18 18 18 9 17 6 17 6 56 56 56 56 99 99 99 99 112 112 112 112 104 104 104 104 26 3 3 3 22 22 184 22 25 196 196 196 57 57 57 57 96 207 207 207 185 185 185 103 243 115 115 243 242 242 147 147 127 127 127 89 92 92 134 134 99 99 99 99 107 107 86 107 174 174 132 174 202 10 10 10 9 55 9 55 41 41 189 189 150 86 86 150 144 144 101 101 102 166 166 166 112 112 112 63 57 57 57 37 33 33 43 33 42 42 42 50 52 52 52 52 62 62 62 52 45 37 37 37 46 172 172 172 236 236 236 236 241 241 241 241 234 234 234 234 172 172 172 84 57 81 81 81 101 145 145 145 152 135 135 152 139 139 139 139 80 80 80 80 84 68 84 84 60 95 95 95 
144 174 174 144 181 156 181 156 191 155 155 155 101 16 16 16 13 4 4 13 12 12 8 12 10 10 13 13 14 14 14 14 15 15 15 15 14 14 14 14 15 15 15 15 14 14 14 14 14 14 11 11 11 11 14 14 15 15 15 12 11 11 11 4 3 17 17 17 14 13 14 14 14 14 14 13 13 14 14 14 18 9 9 9 17 17 17 6 56 204 204 204 206 99 206 206 112 112 172 172 104 104 104 197 26 3 26 3 22 184 184 22 25 196 196 196 57 93 93 57 96 207 207 207 185 185 185 103 243 115 115 243 242 242 242 147 89 127 127 89 92 92 134 134 99 99 88 99 107 86 86 107 174 174 132 174 202 10 10 10 9 55 55 9 41 41 189 189 150 86 86 150 144 144 101 101 102 166 166 166 112 112 112 63 37 37 37 37 33 33 43 33 42 42 42 42 52 52 52 85 62 62 62 52 45 45 45 37 46 46 172 172 236 236 236 236 226 226 226 241 234 234 234 234 172 172 84 84 57 81 81 57 101 145 145 145 152 152 135 135 139 139 139 100 80 80 80 80 68 84 84 84 60 95 95 95 
144 144 144 144 156 156 156 156 191 155 155 155 101 16 16 16 13 4 4 13 12 8 8 12 10 10 13 13 14 14 14 14 15 15 15 15 14 14 14 14 15 15 15 15 14 14 14 14 14 14 11 11 11 11 14 14 15 15 15 12 11 11 11 4 3 17 17 17 14 14 14 14 14 14 14 13 13 14 14 14 18 9 18 9 17 6 17 6 56 204 204 204 206 206 206 206 172 172 172 172 197 197 197 197 3 3 3 3 22 184 184 22 25 196 196 196 93 93 93 93 96 96 207 96 185 103 103 185 243 115 115 243 242 242 242 147 89 89 89 89 92 92 134 92 88 88 88 99 107 86 86 107 174 174 132 174 202 202 10 10 9 9 55 9 41 41 189 189 150 86 86 86 144 144 101 101 102 166 166 102 112 112 63 63 57 37 37 37 33 33 43 43 50 50 50 50 52 52 52 85 62 62 52 52 45 45 45 37 46 46 46 46 127 236 236 236 241 226 226 241 234 234 234 164 172 84 84 84 81 57 57 57 101 145 145 145 152 152 152 135 139 139 139 100 50 50 50 50 68 84 84 68 60 95 95 60 
174 174 174 174 181 181 181 181 191 191 191 155 16 16 16 16 13 13 13 13 12 8 12 12 10 13 13 13 14 14 14 14 15 15 15 15 14 14 14 14 15 14 14 14 14 14 14 14 14 14 14 11 11 14 14 14 15 15 15 12 11 11 11 4 3 17 17 17 14 14 14 14 14 14 14 13 13 14 14 14 18 9 18 9 6 6 17 17 56 204 204 204 206 206 206 206 172 172 172 172 197 197 197 197 3 3 3 26 22 184 22 22 25 196 196 196 93 93 93 93 96 207 207 96 103 103 103 103 115 115 115 243 242 242 242 147 89 89 89 127 134 134 134 134 99 88 88 99 107 86 86 107 132 174 132 132 202 202 10 10 9 9 55 55 41 41 189 189 150 86 86 86 144 101 101 101 102 102 166 166 112 112 63 63 57 57 37 37 43 43 43 43 42 50 50 50 52 52 85 85 62 62 52 52 45 45 45 37 46 46 46 46 127 127 127 236 226 226 226 226 234 164 164 164 84 84 84 84 81 57 57 57 101 145 145 145 152 152 152 135 139 139 100 100 50 50 50 50 68 68 84 68 60 95 60 60 
185 185 185 185 191 191 191 191 183 183 183 66 22 12 22 12 10 10 10 10 11 9 11 11 11 11 14 14 15 15 15 15 16 16 16 15 13 13 13 13 12 12 12 12 13 13 13 13 13 13 13 13 13 13 13 13 15 15 15 12 11 11 11 4 8 14 14 14 14 16 16 14 14 14 14 13 13 14 14 14 11 11 18 11 13 13 13 13 190 190 190 190 194 194 194 194 187 187 187 187 108 223 223 108 11 1 11 11 23 212 23 23 129 193 193 193 126 126 126 126 84 236 236 84 69 69 69 69 98 98 98 176 222 222 222 222 136 136 136 218 193 193 193 193 150 119 119 119 107 107 107 107 134 134 134 134 170 170 36 36 7 7 54 54 37 37 191 191 135 60 60 135 148 98 98 98 106 106 185 106 142 142 77 77 87 87 59 59 51 41 51 51 54 54 54 54 71 51 71 71 63 63 63 50 46 46 46 46 42 42 42 42 35 35 97 97 210 210 210 210 156 156 99 99 99 99 99 99 96 67 67 67 103 140 140 140 143 130 143 130 128 128 128 43 31 31 31 31 44 44 44 44 51 51 51 31 
157 157 157 157 152 152 152 152 183 66 183 66 12 12 22 12 6 10 10 10 11 11 11 11 11 11 14 14 15 15 15 15 16 16 16 15 13 13 13 13 12 12 12 12 13 13 13 13 13 13 13 13 13 13 13 13 15 15 15 12 11 11 11 4 8 14 14 14 14 16 16 14 14 14 14 13 13 14 14 14 18 18 18 11 13 13 13 13 190 190 190 190 194 194 194 194 187 187 187 187 108 108 223 108 1 1 11 1 23 212 23 23 129 193 193 193 126 126 126 69 84 236 84 84 69 69 69 69 98 176 176 176 222 99 99 222 218 218 136 218 193 193 193 193 150 150 150 150 107 107 107 107 134 134 73 134 170 170 36 36 7 7 7 54 37 37 191 191 135 60 60 60 148 98 98 98 106 106 185 106 142 142 77 77 87 87 59 59 51 41 41 51 54 54 54 54 51 51 51 51 50 50 63 50 46 46 42 42 42 42 42 42 35 35 35 97 103 210 210 210 156 156 99 99 99 99 117 99 96 67 67 67 103 140 140 140 130 130 130 143 128 128 43 43 31 31 31 31 22 44 44 44 51 51 31 31 
157 157 157 157 152 152 152 152 183 183 183 66 22 22 12 12 6 6 10 10 11 11 11 9 11 14 14 14 15 15 15 15 16 16 16 15 13 13 13 13 12 12 12 12 13 13 13 13 12 13 13 13 13 13 13 12 15 15 15 12 11 11 11 4 8 14 14 14 14 16 16 14 14 14 14 13 13 14 14 14 18 18 11 11 13 13 13 106 237 190 190 190 194 194 194 194 238 187 238 187 223 223 223 108 1 1 11 1 23 212 23 23 129 129 129 129 126 69 69 69 236 236 84 84 69 171 69 171 98 176 98 176 99 222 99 99 218 218 136 136 193 91 91 91 150 150 150 150 166 166 166 107 134 73 73 134 170 170 170 36 7 7 7 54 37 37 191 191 135 60 60 135 148 148 98 98 106 106 185 185 142 77 77 77 87 59 59 59 41 41 41 41 54 54 54 54 51 51 51 51 50 50 50 50 46 46 42 42 42 62 62 42 35 35 35 35 103 103 210 103 99 99 99 99 99 117 117 117 96 96 67 67 103 140 140 140 143 130 130 143 128 128 43 43 17 17 17 17 22 22 22 22 51 51 31 31 
157 185 185 185 191 152 152 152 183 183 183 66 22 22 12 22 6 6 6 10 11 11 11 9 11 14 14 14 15 15 15 15 16 16 16 15 13 13 13 13 12 12 12 12 13 13 13 13 12 13 13 13 13 13 13 12 15 15 15 12 11 11 11 4 8 14 14 14 14 16 16 14 14 14 14 13 13 14 14 14 11 11 18 18 13 13 106 106 237 237 237 237 252 252 252 252 238 238 238 238 223 223 223 108 11 1 1 11 212 212 23 23 193 129 129 129 69 69 69 69 236 236 84 84 69 171 171 171 176 176 98 98 99 99 99 99 136 218 218 136 91 91 91 91 119 119 119 119 166 166 166 166 73 73 73 134 170 170 170 36 7 7 7 7 37 37 37 191 135 60 60 135 148 148 148 148 185 185 185 185 142 142 77 77 87 59 59 59 51 41 51 51 115 115 115 115 51 71 71 71 63 63 63 50 46 46 46 46 62 62 62 62 97 97 97 97 103 103 103 103 99 156 156 156 117 117 117 117 96 96 96 96 103 140 140 140 143 143 130 130 128 128 43 43 17 17 17 31 22 22 22 22 51 51 31 31 
183 183 183 183 176 176 176 176 179 179 28 28 8 17 17 17 5 5 10 10 10 9 10 10 10 10 10 10 12 12 12 12 14 14 14 14 16 12 12 12 15 15 15 15 15 15 15 15 13 13 13 13 13 13 15 15 15 15 15 15 12 12 3 3 14 15 15 15 14 14 14 12 14 14 14 14 14 14 14 14 14 9 14 14 18 18 18 209 254 254 254 254 253 253 253 253 253 253 253 253 239 239 239 37 4 15 15 4 216 33 33 33 214 214 91 91 56 56 56 197 169 169 40 169 140 223 140 223 187 187 66 66 55 55 73 73 95 215 215 215 115 115 115 115 86 86 86 121 144 180 180 180 109 109 109 151 173 173 173 126 5 5 5 5 95 22 22 95 102 102 102 162 182 182 182 182 201 201 201 201 145 145 115 115 99 99 99 99 106 106 106 106 140 177 177 140 114 114 114 114 106 106 106 106 94 94 94 94 115 115 115 115 141 162 162 141 140 140 163 140 136 136 170 170 116 147 116 116 125 125 125 148 154 135 135 154 156 156 156 129 119 119 40 40 17 17 17 17 23 23 23 23 30 30 30 30 
183 199 199 199 206 206 176 206 179 179 28 28 8 17 17 8 5 5 10 10 10 9 10 10 10 10 8 8 8 12 12 12 14 14 14 14 12 12 12 12 15 15 15 15 15 15 15 15 13 13 13 13 13 13 15 15 15 15 15 15 12 12 3 3 14 15 15 15 14 14 14 12 14 14 14 14 14 14 14 14 14 14 14 9 18 18 18 209 254 254 254 254 253 253 253 253 253 253 253 253 239 239 239 37 4 4 15 15 216 33 33 216 214 214 91 91 56 56 56 197 169 40 40 169 140 140 223 223 187 187 66 66 55 55 73 73 95 95 215 215 213 115 115 115 86 86 86 121 144 180 180 180 151 151 151 151 173 173 173 173 108 5 5 5 22 22 22 95 162 102 102 162 136 182 182 136 128 128 128 201 145 115 115 115 129 99 129 129 150 150 106 106 140 177 177 177 156 156 114 114 143 143 143 106 94 94 94 148 115 115 115 115 141 162 162 141 140 140 163 163 136 136 170 170 147 147 116 116 125 125 125 148 154 135 135 154 156 156 129 129 119 40 40 40 17 17 17 17 23 23 23 23 30 30 30 30 
199 199 199 199 206 206 206 206 179 179 28 28 17 17 17 8 5 5 10 10 10 9 10 10 10 10 8 8 8 8 8 8 7 7 7 14 12 16 16 16 13 15 15 15 15 15 15 15 13 13 13 13 13 15 15 15 15 15 15 15 12 12 3 3 15 15 15 15 14 14 14 14 14 14 14 14 14 14 14 14 9 14 14 9 18 18 209 209 254 254 254 254 253 253 253 253 253 253 253 253 239 239 37 37 15 4 15 15 216 33 33 216 214 214 91 91 56 56 197 197 169 40 40 169 140 140 223 223 187 187 66 66 55 55 55 73 95 95 95 215 213 213 115 213 121 86 121 121 144 144 144 144 151 151 151 151 126 126 173 173 108 5 5 5 22 95 22 95 162 162 162 162 136 182 136 136 128 128 128 128 145 115 115 145 129 99 129 129 150 150 106 106 140 140 177 177 156 156 114 114 106 143 143 106 94 94 148 148 152 152 152 152 141 141 141 141 140 163 163 140 136 136 170 136 147 147 116 116 125 125 125 148 135 135 135 135 129 129 129 129 119 40 40 40 17 109 109 109 23 118 118 118 121 121 121 121 
199 199 183 183 206 206 206 206 179 179 28 28 17 8 8 8 5 5 10 10 10 9 10 10 10 10 10 8 8 8 8 8 7 7 7 7 12 16 16 16 13 13 13 15 15 15 15 14 13 13 13 13 13 15 15 15 15 15 15 14 12 12 3 3 15 15 15 15 14 14 14 14 14 14 14 14 14 14 14 14 9 14 14 9 18 18 209 209 222 222 222 222 215 215 215 215 207 207 207 207 239 239 37 37 4 4 4 15 216 33 33 216 214 214 91 91 56 56 197 197 169 40 40 169 140 223 223 223 187 187 66 66 55 55 55 73 95 215 95 95 213 213 213 213 121 121 121 121 144 144 144 180 151 151 109 109 126 126 126 173 108 5 5 5 22 95 22 22 162 162 162 162 136 136 136 136 128 128 128 128 145 115 145 145 129 129 129 129 150 150 150 150 140 140 140 140 156 156 156 156 143 143 143 143 148 148 148 148 152 152 152 152 162 162 162 162 163 163 163 163 170 170 170 170 147 147 147 147 148 148 148 148 154 154 154 154 156 156 156 156 119 119 119 119 109 109 109 109 118 118 118 118 121 121 121 121 
185 185 185 168 171 186 186 186 132 14 14 14 15 15 15 2 5 5 10 10 10 9 10 10 12 12 12 12 10 10 10 10 14 14 14 14 11 7 7 7 12 12 12 12 15 15 15 15 15 15 14 14 15 15 16 16 15 15 15 12 10 10 3 3 15 16 16 16 15 15 13 13 14 14 14 14 14 14 14 14 16 16 7 7 27 27 164 164 118 118 118 118 135 135 135 135 144 144 144 144 169 169 5 5 7 7 7 191 204 33 33 204 196 113 113 113 79 79 219 219 165 61 61 165 180 249 249 249 201 130 130 130 110 110 110 110 102 102 178 102 112 225 225 112 148 148 148 148 158 158 185 185 161 161 161 161 162 162 162 162 184 19 19 19 11 11 54 11 61 188 188 188 158 158 158 158 155 155 155 155 155 155 155 155 166 166 166 166 174 174 174 174 173 173 173 173 176 176 176 176 177 177 177 177 181 181 194 181 183 183 183 183 181 181 181 192 181 191 181 181 191 183 183 183 180 180 180 180 176 176 176 176 173 173 173 173 175 175 175 175 178 178 178 178 177 177 177 177 176 176 176 176 175 175 175 186 
168 185 185 168 171 171 171 171 132 14 14 14 15 15 15 2 5 5 10 10 10 9 10 10 12 12 12 12 13 13 10 10 14 14 14 9 11 11 11 11 12 12 12 12 10 15 15 15 15 15 15 15 15 16 16 16 15 15 12 12 10 10 3 3 16 16 16 16 15 15 13 13 14 14 14 14 14 14 14 14 7 16 16 7 27 27 164 164 118 118 118 118 135 196 196 196 197 144 144 197 169 169 5 5 7 7 7 191 204 33 33 204 196 196 196 113 79 79 219 219 165 61 61 165 180 249 249 249 201 130 130 130 178 110 110 178 178 178 178 178 112 112 225 225 192 148 192 148 158 158 185 185 183 183 183 183 186 186 186 186 184 184 19 19 11 11 54 11 61 188 188 188 186 186 186 186 186 186 186 155 185 185 185 185 188 188 166 188 189 174 174 189 173 173 193 173 176 195 195 176 177 177 194 177 181 181 181 181 183 183 183 183 181 181 181 181 181 191 181 181 191 183 183 183 193 180 180 180 176 176 189 176 173 173 173 173 175 175 175 175 178 178 178 178 177 177 177 177 176 176 176 176 175 175 175 175 
185 185 185 168 186 186 186 186 132 14 14 14 15 15 2 2 5 5 10 10 10 9 10 10 12 12 12 12 13 13 13 13 9 9 9 9 11 11 11 11 12 12 8 8 10 10 15 15 15 15 15 15 15 16 16 16 15 15 12 12 10 10 3 3 16 16 16 16 15 15 15 13 14 14 14 14 14 14 14 14 7 16 16 7 27 27 164 164 199 199 199 199 196 196 196 196 197 197 197 197 169 169 5 5 7 7 7 191 33 33 33 204 196 196 196 113 79 219 219 219 165 61 61 165 180 249 249 249 201 130 201 201 178 178 178 178 178 178 178 178 112 112 225 225 192 148 192 148 158 158 185 185 161 161 161 161 162 162 186 186 184 184 19 19 11 11 54 54 61 188 188 188 186 186 186 186 186 186 186 186 185 185 185 185 188 188 188 188 189 189 189 189 193 193 193 193 176 195 195 195 194 194 194 194 194 181 194 194 192 192 192 192 192 192 192 192 191 191 191 191 191 191 191 191 193 193 193 193 189 189 189 189 190 190 190 190 191 191 191 191 193 193 193 193 191 191 191 191 187 187 187 187 186 186 186 186 
168 168 168 168 186 186 186 186 132 14 14 14 15 15 2 15 5 5 10 10 10 9 10 10 9 9 12 12 13 13 13 13 14 14 14 14 11 7 7 7 12 12 8 8 10 10 15 15 15 15 15 15 15 16 16 16 15 15 12 12 10 10 3 3 16 16 16 16 15 15 15 13 14 14 14 14 14 14 14 14 16 16 7 7 27 27 164 164 199 199 199 199 196 196 196 196 197 197 197 197 169 169 5 5 7 7 7 191 33 33 33 204 196 196 196 113 79 219 219 219 165 61 61 165 180 249 249 249 201 130 201 201 178 178 178 178 178 178 178 178 225 112 112 225 192 192 192 192 185 185 185 185 183 183 183 183 186 186 186 186 184 184 19 19 11 11 11 54 61 61 188 188 186 186 186 186 186 186 186 186 185 185 185 185 188 188 188 188 189 189 189 189 193 193 193 193 195 195 195 195 194 194 194 194 194 194 194 194 192 192 192 192 192 192 192 181 191 191 191 191 183 191 191 191 193 180 193 193 189 189 189 189 190 190 190 190 191 191 191 191 193 193 193 193 191 191 191 191 187 187 187 187 186 186 186 186 
160 160 160 160 186 100 186 186 15 15 10 10 15 15 15 11 5 5 10 10 11 11 11 11 11 11 11 11 13 14 14 14 13 13 14 14 13 13 11 11 7 7 7 7 13 13 13 13 14 14 13 14 16 16 16 15 14 13 14 14 9 3 3 9 14 15 15 15 13 13 13 12 13 13 13 12 12 13 13 13 11 17 17 11 34 34 182 182 191 191 191 191 193 193 193 193 199 185 199 199 186 7 7 7 14 14 14 184 18 18 179 179 183 183 52 52 182 235 182 182 176 53 53 176 161 243 243 243 193 137 193 193 185 185 185 185 182 199 182 182 192 192 122 122 237 237 237 128 179 179 201 179 180 180 180 180 191 191 185 185 199 199 199 51 5 5 5 38 43 43 198 198 201 186 201 201 196 196 187 187 187 187 199 199 196 207 207 196 206 206 206 206 206 206 206 206 205 205 205 205 197 203 203 203 201 201 201 197 198 198 191 198 198 198 198 198 197 197 191 197 196 196 196 196 196 196 196 196 194 180 180 180 181 181 190 190 192 192 192 192 186 194 194 194 195 188 195 195 181 181 188 188 188 188 188 188 
160 179 160 179 186 186 186 186 15 15 10 10 15 15 15 11 5 5 10 10 11 11 11 11 11 11 11 11 13 14 14 14 14 14 14 14 13 13 11 11 7 7 7 7 9 9 13 13 14 14 13 14 16 16 16 15 14 13 14 14 9 3 3 9 15 15 15 15 13 13 13 13 13 13 13 12 12 13 13 13 17 11 11 17 34 182 182 182 174 174 174 174 177 177 177 177 185 185 185 185 186 7 7 7 14 14 14 184 18 18 179 179 183 183 52 52 235 235 182 182 176 53 53 176 161 243 243 243 193 137 193 193 185 185 185 185 182 182 182 182 192 192 122 122 128 237 237 237 179 179 201 201 180 193 193 193 191 191 191 191 199 199 199 51 5 5 5 38 43 43 198 198 201 186 201 186 196 196 196 196 199 199 199 199 207 207 207 207 206 206 206 206 206 206 206 206 205 205 205 205 203 203 203 203 201 201 201 197 198 191 191 191 193 193 193 193 191 191 191 191 190 190 190 190 186 186 186 186 180 180 180 180 181 181 181 181 184 184 184 184 186 186 186 194 188 188 188 188 181 181 188 188 188 188 188 188 
179 179 179 179 186 186 186 100 15 10 10 15 15 15 15 11 5 5 10 10 11 11 11 11 11 11 11 11 13 14 14 14 14 14 14 14 13 13 13 13 12 12 12 7 9 9 9 9 14 14 13 14 16 16 16 15 14 13 14 14 9 3 3 9 15 15 15 15 13 13 13 13 13 13 13 12 12 13 13 13 17 11 11 17 34 182 182 182 174 174 174 174 177 177 177 177 185 185 199 199 186 7 7 7 14 14 184 184 18 18 179 179 183 183 52 183 235 182 182 182 176 176 53 53 161 161 243 243 137 137 193 193 197 197 197 197 199 199 199 199 192 192 192 192 128 128 237 237 179 201 201 201 193 193 193 193 191 185 191 191 199 199 199 51 5 5 5 38 43 43 43 198 186 186 201 186 187 187 187 187 187 187 187 199 196 207 196 196 190 190 190 190 194 194 194 194 195 195 195 195 203 203 203 203 201 201 201 197 198 191 191 198 198 198 193 193 197 191 191 197 196 196 190 190 196 196 196 196 194 194 194 194 190 190 190 190 192 192 192 184 194 194 194 194 195 195 195 195 188 188 181 181 180 180 180 180 
179 179 179 179 186 186 186 100 10 10 10 15 15 15 15 11 5 10 10 10 11 11 11 11 10 10 11 11 13 13 14 14 14 14 14 14 13 13 13 13 12 12 12 12 9 9 13 13 14 14 13 14 16 16 16 15 14 13 14 14 9 3 3 9 15 15 15 14 13 13 13 13 13 13 13 12 12 13 13 13 17 11 17 17 34 182 182 182 191 191 191 191 193 193 193 193 185 199 199 199 186 7 7 7 14 14 184 184 18 18 179 179 183 52 52 183 235 182 235 235 176 176 53 53 161 243 243 243 137 137 193 193 197 185 197 197 182 199 199 182 192 192 192 192 128 128 128 237 201 179 201 179 193 193 193 193 185 185 185 191 199 199 199 199 38 5 5 5 43 43 43 198 201 201 186 186 196 196 196 196 187 187 187 199 196 196 196 196 190 190 190 190 194 194 194 194 195 195 195 195 197 197 197 197 197 197 197 197 198 198 191 198 198 198 198 198 197 197 197 197 196 196 196 196 186 196 196 196 194 194 194 194 190 190 190 190 192 192 192 184 186 186 186 194 195 195 195 188 188 188 188 188 188 188 180 180 
167 167 181 167 179 179 179 27 8 8 13 13 14 14 14 11 6 6 11 11 10 10 10 10 10 10 10 10 12 12 12 12 14 14 14 14 13 13 13 13 12 12 12 12 10 13 13 13 14 14 13 14 16 16 16 15 14 13 14 14 9 3 3 9 17 17 14 14 15 15 15 15 13 13 13 12 12 13 13 13 7 21 21 7 83 203 203 203 188 204 204 204 204 204 204 204 197 216 197 216 42 3 3 3 19 19 219 19 44 44 194 194 222 56 56 222 201 178 201 201 195 195 53 53 167 249 249 249 193 132 193 193 197 182 182 197 192 192 192 192 194 194 194 194 186 116 116 186 235 235 137 137 195 195 195 195 186 186 186 186 196 196 196 196 127 8 8 8 63 63 10 63 196 196 196 196 192 192 192 192 185 185 185 185 188 188 188 188 183 183 183 183 184 184 184 184 186 186 186 186 186 186 186 186 191 191 191 191 182 182 182 182 182 182 182 182 180 180 180 180 177 177 177 177 173 173 173 173 175 175 175 175 186 186 186 186 183 183 183 183 176 176 176 176 180 180 180 180 176 176 176 176 173 173 173 173 
167 167 181 167 179 179 27 27 8 8 13 13 14 14 14 11 6 11 11 11 10 10 10 10 9 10 10 10 12 12 12 12 14 14 14 14 13 13 13 13 9 9 9 9 10 10 13 13 14 14 13 14 16 16 16 15 14 13 14 14 9 3 3 9 17 17 14 14 15 15 15 15 13 13 13 12 12 13 13 13 7 21 21 7 83 203 203 203 204 204 204 204 204 204 204 204 216 216 197 216 42 3 3 42 19 19 219 19 44 44 194 194 56 56 222 222 178 201 201 201 195 195 53 53 167 249 249 249 193 132 193 193 197 197 197 197 192 192 192 192 194 194 194 194 186 186 116 116 235 235 235 137 195 195 195 195 186 186 186 179 174 174 196 196 127 8 8 8 10 63 10 63 196 158 196 196 176 176 192 192 174 174 174 185 188 188 188 173 183 183 183 183 184 184 184 184 186 186 174 174 186 186 186 186 191 191 191 191 182 182 182 182 182 182 182 182 180 180 180 180 177 177 177 177 173 173 173 173 175 175 175 175 186 186 186 186 183 183 183 183 176 176 176 176 180 180 180 180 176 176 176 176 173 173 173 173 
181 181 181 181 179 179 27 27 8 8 13 13 14 14 11 11 6 11 11 11 10 10 10 10 9 9 10 10 12 12 12 12 14 14 14 14 13 13 11 11 12 12 9 9 10 10 13 13 14 14 13 14 16 16 16 15 14 13 14 14 9 3 3 9 17 17 17 14 15 15 15 15 13 13 13 12 12 13 13 13 21 7 21 21 83 203 203 203 204 204 204 204 204 204 204 204 197 216 216 197 3 3 3 42 19 19 219 19 44 194 194 194 56 56 222 222 178 178 201 201 195 195 53 53 167 249 249 249 193 132 193 193 182 182 197 197 192 192 180 180 181 181 181 181 186 186 186 116 137 235 235 235 177 177 177 177 179 179 179 179 196 174 174 174 127 8 8 8 10 63 63 10 158 196 196 196 176 176 176 176 185 174 174 185 173 188 188 173 166 183 183 183 184 184 163 184 186 186 186 174 168 168 168 168 172 172 172 172 182 163 163 163 163 163 163 182 180 154 154 154 177 151 151 151 150 150 150 150 152 152 152 152 153 153 153 153 155 155 155 155 162 162 162 162 154 154 154 154 145 145 145 145 146 146 146 146 
181 181 181 181 179 179 27 27 8 13 13 13 14 11 11 11 6 11 11 11 10 10 10 10 9 9 10 10 11 12 12 12 13 13 14 14 13 13 11 11 12 12 12 12 10 13 13 13 14 14 13 14 16 16 16 15 14 13 14 14 9 3 3 9 17 17 17 14 13 15 15 15 13 13 13 12 12 13 13 13 21 7 21 21 203 203 203 203 188 188 188 188 186 186 186 186 197 197 216 197 3 3 3 3 19 219 219 19 44 194 194 44 56 56 222 222 178 178 201 178 195 195 53 53 167 249 249 249 193 132 193 193 197 182 182 182 180 180 180 180 181 181 181 181 186 186 186 186 137 137 235 235 177 177 177 177 179 179 179 186 174 196 174 174 127 127 8 8 10 10 63 10 158 196 158 158 176 176 176 176 174 174 174 174 173 173 173 173 166 166 166 166 163 163 163 163 174 174 174 174 168 168 168 168 172 172 172 172 163 163 163 163 163 163 163 163 154 154 154 154 151 151 151 151 150 150 150 150 152 152 152 152 153 153 153 153 155 155 155 155 162 162 162 162 154 154 154 154 145 145 145 145 146 146 146 146 
188 188 188 188 171 171 12 12 9 11 11 11 13 13 13 13 11 11 11 11 10 10 10 10 10 10 10 10 11 11 11 11 13 13 13 13 12 12 11 11 12 12 12 12 13 14 14 14 15 16 16 16 16 16 16 15 12 13 13 13 8 1 1 8 23 16 16 16 16 16 14 16 14 14 14 13 12 12 12 12 16 16 16 171 192 192 192 177 180 180 180 180 184 192 192 184 200 200 200 63 7 1 7 7 18 204 204 18 31 166 166 31 146 146 231 146 175 182 175 182 179 179 55 55 165 249 249 249 189 129 189 189 185 185 175 175 168 168 180 180 178 178 168 178 174 174 159 174 174 104 104 174 229 148 148 148 152 152 172 152 157 166 157 166 162 162 14 14 7 7 55 7 28 172 172 172 158 158 158 158 157 157 174 174 170 170 150 150 145 164 164 164 140 156 156 156 154 154 154 154 153 153 153 153 154 154 154 154 150 150 150 150 144 144 144 144 143 143 143 143 139 139 139 129 140 140 140 126 129 129 129 141 136 144 144 144 155 155 155 146 155 164 164 155 151 151 151 151 148 148 148 148 161 145 161 161 
173 188 188 173 171 171 12 12 9 11 11 11 13 13 13 13 11 11 11 11 10 10 10 10 10 10 10 10 11 11 11 11 13 13 13 13 12 12 12 11 12 12 12 12 13 14 14 14 15 16 16 16 16 16 16 15 12 13 13 13 8 1 1 8 23 16 16 16 16 16 14 16 14 14 14 13 12 12 12 12 16 16 171 171 192 177 177 177 187 187 187 187 192 192 192 184 200 200 200 63 1 1 7 7 18 204 204 18 31 166 166 31 146 231 231 146 182 175 175 175 179 179 55 55 165 249 249 249 189 129 189 189 185 175 175 175 168 168 168 168 168 168 168 168 174 174 174 159 174 104 104 174 229 229 148 148 152 172 152 172 157 157 157 157 162 162 14 14 7 7 55 55 28 172 172 172 174 174 174 174 174 174 174 174 170 170 170 170 164 164 164 145 156 156 156 140 140 154 154 154 153 153 153 153 154 154 154 154 150 150 150 150 144 133 144 144 143 134 134 134 129 129 139 129 126 126 126 126 129 129 141 141 136 136 136 136 146 155 155 146 155 164 164 164 169 169 169 169 166 166 166 166 161 161 161 161 
173 173 173 173 171 12 12 12 9 9 11 11 13 13 13 13 11 11 11 11 10 10 10 10 10 10 10 10 11 11 11 11 13 13 13 13 12 12 12 11 12 12 12 12 14 14 14 14 15 16 16 16 16 16 16 15 13 13 13 13 8 1 1 8 23 16 16 16 16 16 14 16 14 14 14 14 12 12 12 12 16 16 171 171 192 177 177 177 180 180 180 180 184 184 184 184 200 200 200 63 1 1 7 7 18 204 18 18 31 166 31 31 146 231 231 146 182 182 175 182 179 179 55 55 165 249 249 249 189 129 189 189 185 185 175 175 168 168 168 168 168 168 168 178 159 174 159 159 174 174 104 104 229 229 229 148 152 172 172 152 157 166 166 157 162 162 162 14 7 7 7 55 28 28 172 172 174 174 174 174 174 174 174 174 170 170 170 170 164 164 164 164 156 156 156 156 154 154 154 154 153 153 153 153 154 154 130 130 131 150 150 131 133 144 144 133 143 134 134 134 129 129 129 129 126 126 140 140 141 141 141 141 144 136 136 136 146 155 155 146 164 164 155 164 169 169 169 169 166 166 166 148 145 145 161 161 
173 173 173 188 171 12 12 12 9 9 11 11 12 13 12 12 11 10 10 10 10 10 10 10 10 10 10 10 11 11 11 11 12 12 13 13 12 12 12 11 12 12 12 12 14 14 14 14 15 16 16 16 16 16 16 15 13 13 13 13 8 1 1 8 23 16 16 16 16 16 14 16 14 14 14 14 12 12 12 12 16 16 171 171 192 192 177 177 187 187 187 187 192 192 192 192 200 200 200 63 1 7 7 1 18 204 18 18 166 166 31 31 231 231 146 146 175 175 182 182 179 179 55 55 165 249 249 249 189 129 189 189 185 185 185 175 180 180 180 180 178 178 178 178 159 174 159 174 174 174 174 104 148 229 229 148 172 172 172 172 166 166 166 166 162 162 162 14 7 7 7 55 28 28 172 172 158 158 158 158 157 157 157 157 150 150 150 150 145 145 145 145 140 140 140 140 140 140 140 140 130 130 130 130 130 130 130 130 131 131 131 131 133 144 144 133 134 134 134 143 129 139 139 139 140 140 140 140 141 141 141 141 144 144 144 144 155 155 146 146 164 164 155 155 151 151 151 151 148 148 148 148 145 145 145 145 
177 163 177 177 68 10 10 10 9 9 9 9 10 10 10 10 8 8 8 8 9 9 9 9 10 10 10 10 11 11 11 11 11 11 11 11 11 11 11 11 13 13 14 14 14 15 15 15 15 16 16 16 16 16 16 15 14 14 14 11 7 1 1 7 23 16 16 16 16 16 14 16 15 15 15 14 14 14 13 13 35 35 172 172 183 183 183 183 183 183 183 183 187 187 187 187 179 179 179 18 2 8 8 2 31 201 31 31 170 47 47 170 238 238 177 177 172 172 182 172 181 181 61 61 176 251 251 251 190 144 190 144 176 176 176 176 178 178 178 178 177 177 177 177 180 180 180 163 159 177 159 177 83 83 194 194 166 166 166 166 167 157 167 157 162 162 162 77 4 4 4 29 32 32 124 124 169 153 153 153 142 142 142 142 147 147 147 147 130 130 130 130 139 139 139 139 139 139 139 139 134 134 134 134 127 127 127 127 143 143 143 143 140 140 140 140 140 140 151 151 143 151 151 151 151 144 144 144 141 141 141 141 143 143 150 150 151 144 144 151 151 157 151 157 152 142 152 152 143 153 153 143 139 151 151 151 
163 163 177 177 68 10 10 10 9 9 9 9 10 10 10 10 8 8 8 8 9 9 9 9 10 10 10 10 11 11 11 11 11 11 11 11 11 11 11 11 14 14 14 14 15 15 15 15 15 16 16 16 16 16 16 15 14 14 14 11 7 1 1 7 23 16 16 16 16 16 14 16 15 15 15 15 14 14 14 14 35 172 172 172 183 168 183 183 170 170 183 170 168 187 187 187 179 179 179 18 8 8 8 8 201 201 31 31 170 47 47 170 238 177 177 177 172 182 182 172 181 181 61 61 176 251 251 251 190 144 190 144 176 166 176 176 178 178 178 178 177 177 177 177 180 163 180 180 177 159 159 177 194 83 83 194 232 166 166 166 157 157 167 157 162 162 162 77 4 4 4 29 124 32 32 124 169 169 153 153 163 163 142 163 147 147 166 166 163 163 163 163 160 160 139 160 156 156 156 156 155 155 155 155 146 146 146 146 155 143 143 155 151 140 140 151 151 151 151 151 151 151 151 143 151 144 144 144 141 141 147 147 150 150 150 150 144 144 144 151 151 157 151 157 152 142 152 152 143 153 153 143 139 151 151 151 
163 163 163 177 68 10 10 10 9 9 9 9 10 10 10 8 8 8 8 8 9 9 9 9 10 10 10 10 11 11 11 11 9 11 11 11 11 11 11 11 14 14 14 14 15 15 15 15 15 16 16 16 16 16 16 15 14 14 14 11 7 1 1 7 23 16 16 16 16 16 14 16 15 15 15 15 14 14 14 14 35 172 172 172 183 183 168 168 170 183 183 170 168 168 187 187 179 179 18 18 2 8 8 8 201 201 31 31 47 47 47 170 238 177 177 177 182 182 182 182 181 181 61 61 176 251 251 251 190 144 190 190 176 166 166 166 166 178 178 166 165 165 177 165 163 163 163 180 159 159 177 159 194 194 83 194 232 232 166 166 157 157 167 167 162 162 162 162 29 4 4 29 32 32 32 124 169 153 153 153 163 163 163 163 147 147 166 166 163 163 163 163 160 160 160 160 156 156 156 156 155 155 155 134 146 146 146 146 155 143 143 155 151 151 151 151 151 140 151 151 151 151 151 143 151 151 144 151 147 147 147 147 150 150 150 150 151 144 151 151 151 157 151 157 152 142 142 142 143 143 143 143 139 139 139 139 
177 163 163 177 68 10 10 10 8 9 9 9 10 10 8 8 8 8 8 8 9 9 9 9 10 10 10 10 11 11 11 11 9 9 11 11 11 11 11 11 14 14 14 14 15 15 15 15 15 16 16 16 16 16 16 15 14 14 14 11 7 1 7 7 23 16 16 16 16 16 14 16 15 15 15 15 14 14 14 14 35 172 172 172 168 168 168 183 170 170 170 170 168 168 168 168 179 179 18 18 2 8 8 8 201 31 31 31 47 47 170 170 238 177 177 177 182 182 172 182 181 181 61 61 176 251 251 251 190 144 190 190 176 166 166 166 166 166 166 166 165 165 165 165 163 180 180 163 159 177 159 177 194 194 194 83 166 232 232 166 167 167 167 157 162 162 162 162 29 29 4 4 32 32 32 124 169 169 169 169 163 163 163 163 166 166 166 166 163 163 163 163 160 160 139 139 139 139 139 156 155 155 155 155 146 146 146 146 155 155 143 155 151 151 151 151 151 140 140 140 143 143 143 143 151 151 151 151 147 141 141 141 150 143 143 150 151 151 144 144 151 157 151 157 152 142 152 142 143 153 153 153 151 151 139 139 
156 167 156 167 164 31 31 31 19 3 19 19 3 3 15 3 11 11 11 11 11 11 11 11 10 10 10 10 10 12 12 12 12 12 12 12 12 12 12 12 14 14 14 14 15 15 15 15 16 16 16 16 16 16 16 16 9 13 13 9 2 2 9 9 16 16 16 15 15 16 16 16 11 18 11 11 17 12 12 17 109 177 177 177 175 175 187 175 176 176 176 183 182 182 182 182 182 182 12 12 7 7 7 7 238 23 23 23 74 74 223 223 177 177 165 165 180 180 171 180 179 179 61 61 168 251 251 251 182 146 146 182 180 168 168 168 167 167 167 167 165 165 165 172 168 177 168 168 178 178 157 157 167 167 167 145 102 220 220 220 213 158 158 158 149 178 178 178 152 10 10 10 9 45 9 45 171 171 171 171 162 162 177 162 165 175 175 165 163 163 163 163 161 161 161 161 156 156 156 156 157 157 157 157 169 158 158 158 171 156 156 156 153 153 153 153 152 152 152 152 152 152 152 152 158 158 158 158 171 162 162 162 154 154 154 154 155 155 155 155 159 159 173 173 162 162 162 162 159 159 159 159 160 160 160 160 
156 156 156 156 164 164 31 31 19 19 3 3 15 15 3 15 11 11 11 11 11 11 11 11 10 10 10 10 10 12 12 12 12 12 12 12 12 12 12 12 14 14 14 14 15 15 15 15 16 16 16 16 16 16 16 16 9 13 13 9 2 2 9 9 16 16 16 15 15 16 16 16 11 18 18 11 17 12 12 17 109 177 177 177 187 187 187 187 183 183 183 183 193 193 193 193 182 182 12 12 7 7 7 99 238 23 23 23 74 74 223 223 165 177 177 177 180 180 171 180 179 179 61 61 168 251 251 251 182 146 182 182 180 180 180 180 179 179 179 179 172 172 172 172 177 177 177 177 178 178 178 178 167 167 167 167 102 102 220 220 158 213 213 158 178 149 178 178 152 10 10 10 9 45 9 45 77 171 171 171 162 177 162 177 165 175 175 165 163 163 181 181 177 177 177 177 181 181 181 181 177 177 177 177 169 169 169 158 171 171 156 156 171 171 171 171 175 175 175 175 177 177 177 177 175 175 175 175 171 171 171 171 173 173 173 154 175 175 175 175 173 173 173 173 171 162 162 162 169 169 159 159 160 160 160 160 
167 167 167 167 164 164 164 31 3 19 19 3 15 15 3 3 11 11 11 11 11 11 11 11 10 10 10 10 10 12 12 12 12 12 12 12 12 12 12 12 14 14 14 14 15 15 15 15 16 16 16 16 16 16 16 16 13 13 13 9 2 2 9 9 16 16 16 16 16 16 16 16 18 18 18 18 12 17 17 17 109 177 177 177 187 187 187 175 183 176 176 183 182 193 193 193 182 182 12 12 7 7 7 99 238 23 23 23 74 74 223 223 165 177 177 177 180 180 180 180 179 179 61 61 168 251 251 251 182 146 182 182 180 180 180 180 179 179 179 167 172 172 172 172 177 177 177 168 178 178 157 178 167 145 167 145 220 102 102 220 213 158 158 158 149 149 178 178 152 152 10 10 9 9 45 45 77 171 171 171 162 177 177 177 175 175 175 175 181 181 181 181 177 177 177 177 181 181 181 181 177 177 177 177 169 169 169 169 171 171 156 156 153 171 171 171 175 175 175 175 177 177 177 177 175 175 175 158 162 171 171 171 173 173 173 173 175 155 175 175 173 173 173 173 171 171 171 171 169 169 169 169 174 174 174 174 
167 167 167 167 164 164 164 164 19 3 3 19 3 3 15 3 11 11 11 11 11 11 11 11 10 10 10 10 10 12 12 12 12 12 12 12 12 12 12 12 14 14 14 14 15 15 15 15 16 16 16 16 16 16 15 15 13 13 13 9 2 2 9 9 16 16 16 16 16 16 16 16 18 11 18 18 12 17 12 17 177 177 177 177 175 175 187 175 176 176 176 176 182 182 182 182 182 12 12 12 7 7 7 99 238 23 23 23 74 223 223 223 165 165 165 165 171 171 171 171 179 179 61 61 168 251 251 251 182 146 146 182 168 168 168 168 167 167 167 167 165 165 165 165 168 177 168 168 157 157 157 157 145 145 145 167 102 102 102 102 213 213 158 158 149 149 149 149 152 152 10 10 9 9 45 9 77 171 171 171 162 162 177 177 165 175 175 175 181 181 181 181 177 161 177 161 181 156 156 156 177 177 157 157 158 158 158 169 171 171 156 156 153 153 171 171 152 152 175 175 177 177 152 152 175 175 158 158 162 162 162 171 154 154 173 154 175 155 155 175 173 159 159 173 171 171 171 171 159 159 169 169 174 174 174 174 
171 171 171 171 172 172 185 185 159 19 19 19 17 4 4 17 11 11 11 11 11 11 11 11 10 10 10 10 10 12 12 12 13 13 13 13 13 13 13 13 13 13 13 13 15 16 16 16 16 16 16 16 14 14 14 14 13 13 13 7 1 1 11 11 17 17 17 16 16 17 17 17 17 8 17 17 18 18 18 18 178 178 178 178 181 181 181 181 182 182 182 191 194 194 194 194 189 6 6 6 14 14 14 248 82 22 22 82 171 234 234 171 166 166 166 166 172 172 172 172 185 185 54 54 158 247 247 247 187 152 152 152 175 175 175 175 171 171 171 171 168 168 168 168 176 176 176 176 172 172 172 172 172 172 172 172 143 143 143 143 108 220 220 220 171 171 171 171 184 184 33 33 4 4 34 34 34 178 178 178 173 173 173 173 168 168 168 168 175 175 175 175 171 171 189 171 167 167 167 167 180 180 169 169 164 164 164 164 186 186 186 171 169 169 169 169 155 177 177 177 183 183 166 166 171 171 163 171 171 171 171 163 156 156 170 156 170 153 153 153 156 144 156 156 160 160 160 160 155 155 155 155 156 156 156 140 
171 186 171 171 172 172 172 185 159 159 19 19 4 17 4 17 11 11 11 11 11 11 11 11 10 10 10 10 10 12 12 12 13 13 13 13 13 13 13 13 13 13 13 13 15 16 16 16 16 16 16 16 14 14 12 12 13 13 13 7 1 1 11 11 17 17 17 17 17 17 17 17 17 8 17 8 18 18 18 131 178 193 178 178 197 181 181 181 182 182 191 191 194 194 194 194 189 6 6 6 14 14 14 248 82 22 22 82 171 234 171 171 189 189 189 189 193 193 193 193 185 185 54 54 158 247 247 247 187 152 187 187 175 175 175 175 183 183 183 171 168 168 193 193 176 186 186 186 184 184 172 184 198 172 198 172 193 193 143 143 108 108 220 220 171 171 201 201 184 184 184 33 4 4 4 34 34 34 178 178 195 195 173 195 168 168 168 168 175 175 183 183 189 189 189 189 186 186 186 167 180 180 180 180 180 180 180 180 186 186 186 186 178 178 178 178 177 177 177 177 183 183 166 183 163 163 163 171 171 171 163 163 170 156 170 156 153 153 153 153 144 156 156 156 160 160 160 160 130 155 155 155 156 156 140 140 
186 186 186 186 185 185 185 172 159 159 159 19 17 17 17 4 11 11 11 11 11 11 11 11 10 10 10 10 10 12 12 12 13 13 13 13 13 13 13 13 13 13 13 13 15 16 16 16 16 16 16 16 14 14 12 12 13 13 13 7 1 1 11 11 17 17 17 17 17 17 17 17 17 8 17 8 18 18 18 131 193 193 193 178 197 197 181 197 182 182 191 182 185 185 194 194 189 6 6 6 14 14 14 248 22 22 22 82 234 234 171 171 189 189 189 189 193 193 193 193 185 185 54 54 158 247 247 247 187 152 187 187 192 192 192 175 183 183 183 183 193 193 193 193 186 186 186 186 184 184 172 184 198 198 172 172 193 193 193 193 108 108 220 220 201 201 171 171 184 184 184 33 4 4 4 34 34 34 178 178 195 195 195 195 184 184 184 184 183 183 183 183 189 189 189 189 186 186 186 186 169 169 180 180 180 180 180 180 171 171 171 171 178 178 178 178 155 177 155 155 166 166 166 166 171 163 163 163 171 171 163 163 170 170 170 156 153 153 170 170 156 156 156 144 138 138 138 138 130 130 130 130 140 140 140 140 
186 171 186 186 185 185 185 172 159 159 159 159 17 4 17 17 11 11 11 11 11 11 11 11 10 10 10 10 10 12 12 12 13 13 13 13 13 13 13 13 13 13 13 13 15 16 16 16 16 16 16 16 14 14 12 12 13 13 13 7 1 1 11 11 17 17 17 17 17 17 17 17 17 17 17 8 18 18 18 131 193 193 193 178 197 197 181 197 191 191 191 182 185 185 185 194 189 6 6 6 14 14 14 248 22 22 82 82 234 234 171 234 189 189 189 189 193 193 193 193 185 185 54 54 158 247 247 247 187 152 187 187 192 192 192 175 183 183 183 183 193 193 193 168 176 186 176 176 184 184 184 184 198 172 198 198 193 193 193 193 220 108 108 220 201 201 201 201 184 184 184 33 34 4 4 34 34 34 34 178 195 173 195 173 184 184 184 184 183 183 183 175 171 171 171 171 167 167 186 167 169 169 169 169 164 164 180 180 171 171 171 171 178 178 178 169 155 177 155 155 166 166 166 183 171 171 171 171 171 171 171 163 170 170 170 156 170 170 170 170 156 156 144 144 138 138 138 138 130 130 130 155 156 156 156 156 
177 177 177 177 177 177 177 181 175 175 175 189 186 52 52 52 11 11 11 11 16 16 7 16 13 13 13 13 11 11 11 11 12 12 13 13 14 15 15 15 16 16 16 16 15 15 15 15 19 19 16 16 15 15 15 12 12 12 12 6 2 2 11 11 18 18 18 17 17 18 18 18 11 11 18 18 20 20 20 179 197 197 188 188 203 203 203 203 205 205 205 205 206 206 173 206 36 4 4 4 17 17 193 193 25 25 25 194 210 162 210 210 189 189 189 189 190 190 190 190 184 184 72 72 174 240 240 240 188 165 188 188 176 192 192 176 193 181 181 193 192 192 192 192 178 178 178 194 196 182 182 196 190 175 175 190 198 198 189 189 188 188 109 109 239 239 134 239 185 198 198 185 5 5 5 5 105 23 23 105 204 179 179 179 183 183 183 197 190 171 171 171 181 181 181 181 188 188 188 175 179 179 179 179 174 174 174 174 166 166 166 166 174 174 183 183 185 185 185 171 168 168 180 180 180 180 170 170 170 178 178 178 170 184 184 170 172 172 185 185 156 180 180 156 162 162 162 162 152 152 152 152 153 153 153 153 
177 188 188 188 181 181 181 181 175 189 175 175 186 186 52 52 11 11 11 11 16 7 7 7 13 13 10 10 11 11 11 11 12 12 13 13 15 15 15 15 16 16 16 16 18 18 18 18 19 19 16 16 15 15 15 12 12 12 12 6 2 2 11 11 18 18 18 17 17 18 18 18 18 11 11 18 20 20 20 179 188 197 188 188 196 196 196 203 205 205 205 182 206 206 206 206 36 36 4 4 17 17 193 193 25 25 194 194 210 162 210 210 189 189 189 189 190 190 190 190 184 184 72 72 174 240 240 240 165 165 188 188 176 176 176 176 193 193 193 181 181 181 181 181 178 178 178 194 196 182 182 182 190 190 175 175 189 198 198 189 188 188 188 109 134 239 239 134 185 198 185 198 90 5 5 5 23 23 23 105 204 179 179 179 183 183 183 183 190 171 171 171 181 181 181 181 188 188 175 175 179 191 179 191 187 174 187 174 166 166 181 181 183 183 183 174 171 185 185 171 168 180 168 168 180 180 180 180 178 178 178 178 184 184 184 184 185 185 185 172 180 180 180 180 187 187 187 187 174 174 174 174 174 174 174 174 
188 188 188 188 181 181 181 181 189 189 189 189 186 186 186 186 108 108 11 11 16 16 16 16 10 10 10 10 10 11 11 11 12 13 13 13 15 15 15 15 16 16 16 16 18 18 18 18 19 19 16 16 15 15 15 12 12 12 12 6 2 2 11 11 18 18 18 17 17 18 18 18 18 18 11 18 20 20 179 179 197 197 197 197 203 203 203 203 205 205 205 205 206 206 206 206 4 36 4 4 17 17 193 193 25 25 194 194 210 162 210 210 189 189 189 189 190 190 190 190 184 184 72 72 174 174 240 174 165 188 188 188 192 176 192 192 181 193 193 181 181 181 192 192 178 194 178 194 196 196 196 182 190 190 190 190 189 198 198 189 188 188 188 188 134 134 239 239 185 198 185 198 90 90 5 5 23 105 23 105 204 204 204 179 197 197 197 197 190 190 190 171 202 202 202 202 188 175 175 175 191 191 191 191 187 187 187 174 166 181 181 181 174 174 174 174 171 185 185 185 180 180 180 168 170 170 180 180 178 178 170 170 184 184 170 184 185 185 185 172 180 180 180 180 187 187 187 187 174 174 174 174 174 174 174 174 
188 188 188 177 177 177 177 181 175 175 189 189 186 186 186 186 108 108 11 11 7 7 16 7 13 13 13 13 11 11 11 11 13 13 13 13 15 15 15 15 16 16 16 16 18 18 18 18 19 19 16 16 15 15 15 12 12 12 12 6 2 2 11 11 18 18 18 17 17 18 18 18 18 18 11 18 20 20 179 179 197 197 188 188 196 196 196 196 182 182 182 182 173 173 173 173 4 4 4 4 17 17 193 17 25 25 194 194 162 162 162 162 150 150 150 150 156 156 156 156 184 184 184 184 174 174 174 174 188 188 165 188 192 192 192 192 181 193 193 193 181 181 192 192 194 194 178 194 196 182 182 182 175 175 190 190 198 198 189 189 188 109 188 188 134 134 134 239 198 185 185 198 90 5 5 5 23 23 23 23 179 204 204 204 197 197 197 197 190 190 190 190 202 202 202 202 188 188 188 188 179 191 191 191 187 174 187 174 181 181 181 181 174 183 183 183 171 171 185 185 180 168 180 180 170 170 180 180 178 178 170 170 184 170 170 170 172 172 172 172 156 156 156 180 162 162 162 162 174 174 174 152 174 174 153 153 
173 173 173 173 167 167 177 177 170 170 170 181 180 180 193 193 174 174 10 10 9 9 9 35 15 15 15 15 15 12 12 12 13 13 14 14 16 16 17 17 17 17 17 17 20 20 20 20 19 19 16 16 15 15 15 12 11 11 11 3 1 1 14 14 18 18 18 17 17 18 18 18 19 19 19 12 35 35 185 185 165 165 165 165 176 176 176 176 161 161 161 161 68 178 178 68 13 1 13 13 24 24 214 24 41 41 218 218 156 184 156 156 148 148 148 148 160 160 160 160 178 197 178 178 192 183 192 183 180 197 180 180 193 193 193 180 196 196 196 196 192 177 177 192 189 177 177 189 185 171 171 171 175 175 191 191 190 190 177 190 180 180 180 195 184 184 96 184 229 229 129 229 175 27 27 27 13 13 71 13 69 191 191 191 199 182 199 199 195 195 195 195 193 193 193 193 188 188 172 188 170 170 170 183 185 185 185 185 177 177 177 177 176 176 176 176 162 172 172 172 157 157 170 170 169 169 169 169 170 170 170 170 164 164 164 164 157 143 143 157 149 149 149 170 147 147 165 165 167 167 167 167 172 172 155 155 
168 168 168 168 167 167 177 177 170 170 170 170 180 180 180 180 174 174 10 10 9 9 9 35 15 15 15 15 15 15 12 12 14 14 14 14 16 17 17 17 17 17 17 17 20 20 20 20 19 19 16 16 15 15 15 12 11 11 11 3 1 1 14 14 18 18 18 17 17 18 18 18 12 19 19 12 35 35 185 185 194 165 165 165 176 176 176 176 187 187 161 161 178 178 178 68 1 13 1 13 24 24 214 24 41 41 218 218 184 184 184 156 195 148 148 148 160 190 190 190 197 197 197 178 192 183 192 183 180 197 180 180 180 180 193 193 196 196 196 196 192 177 177 192 189 177 177 189 185 171 185 185 191 191 191 175 177 177 190 190 195 180 195 180 184 184 96 96 229 229 229 129 175 175 27 27 13 13 71 13 69 191 191 191 199 182 182 199 195 195 174 174 178 178 178 178 188 172 172 172 170 170 170 183 185 165 185 185 177 166 166 166 162 162 176 176 172 162 162 172 170 170 170 157 150 150 150 150 141 141 141 141 164 150 150 150 143 143 143 157 170 149 170 170 165 165 165 165 167 167 167 167 172 172 155 155 
173 173 168 168 167 167 177 177 181 181 181 181 193 180 193 193 174 174 10 10 9 9 9 9 9 9 15 15 15 15 15 15 14 14 14 14 16 17 17 17 17 17 17 17 17 20 20 20 19 19 16 16 15 15 15 12 11 11 11 3 1 1 14 14 18 18 18 17 17 18 18 18 12 19 12 19 35 35 185 185 194 194 194 194 201 201 201 201 187 187 187 187 178 178 178 68 1 1 1 13 24 214 214 24 41 218 218 218 184 184 184 156 195 195 195 195 190 190 190 190 197 197 197 197 192 192 192 192 197 197 197 197 180 193 193 193 196 175 175 175 192 192 192 192 189 189 177 189 185 185 185 185 191 191 191 175 177 177 190 190 195 180 195 195 184 184 184 96 129 229 229 129 175 175 27 27 13 13 13 13 69 191 191 191 199 199 182 182 195 195 174 174 193 193 178 178 188 188 188 172 183 183 170 170 165 165 165 165 177 177 177 166 162 162 176 176 172 172 162 172 170 170 170 157 150 150 150 150 141 141 141 141 150 150 150 150 157 143 157 157 170 170 170 170 147 147 165 147 143 143 143 143 155 172 155 155 
173 173 173 168 167 167 177 177 181 181 181 181 193 193 193 193 174 174 10 10 9 35 35 9 9 9 9 15 15 15 15 15 14 14 14 14 16 17 17 17 17 17 17 17 17 17 17 17 19 19 16 16 15 15 15 12 11 11 11 3 1 1 14 14 18 18 18 17 17 18 18 18 19 19 12 19 35 185 185 185 194 194 194 194 201 201 201 201 187 187 187 187 178 178 178 68 13 1 13 13 24 214 214 24 41 218 218 218 184 156 184 184 195 195 195 195 190 190 190 160 178 178 178 197 183 192 192 183 197 180 197 180 180 193 193 180 196 175 175 175 177 192 192 192 177 189 177 177 171 171 171 171 175 175 191 175 177 190 190 177 195 195 180 180 184 184 184 184 129 129 229 229 175 175 27 27 13 13 71 71 191 191 191 191 182 199 199 182 195 195 195 195 193 193 178 178 188 188 188 172 183 183 170 170 165 165 165 165 166 166 166 166 162 162 162 162 172 172 162 162 157 157 157 157 169 169 169 169 170 170 170 170 164 164 150 164 157 157 157 157 170 149 149 149 147 147 147 147 143 143 143 143 155 172 155 155 
170 170 170 163 168 177 177 177 176 176 176 185 195 195 195 195 158 158 18 18 22 22 79 22 3 34 3 34 4 12 12 12 15 15 15 15 15 18 18 18 16 16 16 19 21 21 21 21 19 19 16 16 14 14 14 14 13 13 4 4 2 2 16 16 17 17 17 17 17 17 17 17 18 9 9 18 78 194 194 194 192 192 178 192 206 206 190 206 188 200 200 188 194 194 46 46 45 45 45 45 59 243 59 59 153 214 153 153 179 179 179 179 179 179 179 179 179 199 199 179 176 176 176 176 187 198 187 198 209 186 209 186 192 192 192 192 192 192 192 210 188 188 188 188 203 185 185 185 176 176 176 176 166 166 166 166 163 192 163 163 167 167 167 194 176 176 176 176 186 97 97 186 243 144 144 144 95 95 224 224 225 225 114 225 181 181 196 181 183 183 183 198 175 191 191 191 191 175 175 191 195 176 176 176 167 182 167 167 164 164 184 184 164 177 177 164 155 171 171 155 158 158 158 180 169 148 148 169 170 170 170 170 149 149 169 169 163 163 144 144 143 162 162 162 147 147 162 147 143 143 143 143 157 174 174 157 
170 170 170 163 177 168 168 177 176 176 185 185 195 195 183 183 158 158 18 18 22 22 79 79 34 3 3 3 4 12 12 12 15 15 15 15 18 18 18 18 19 19 19 19 16 16 16 16 19 19 19 16 14 14 14 14 13 13 4 4 2 2 16 16 17 17 17 17 17 17 17 17 18 9 18 18 78 194 194 194 192 192 192 192 206 190 190 206 188 200 200 188 194 194 46 46 45 45 195 195 243 243 243 59 153 214 153 214 194 179 179 194 196 179 179 179 179 179 199 179 176 176 176 176 187 198 187 198 209 209 209 209 213 213 213 213 210 210 210 210 205 205 205 205 203 185 203 203 200 200 200 176 166 166 166 166 163 192 163 163 167 167 167 194 176 176 176 176 186 186 97 186 243 243 144 144 95 95 224 224 225 225 114 225 196 181 181 181 183 198 198 183 191 191 175 175 175 191 191 175 195 176 176 176 167 182 167 167 184 164 184 184 177 164 177 177 171 171 171 171 180 180 180 180 169 148 169 169 170 170 170 170 169 169 169 149 163 163 163 163 162 143 143 162 162 147 162 162 156 143 156 156 157 174 174 174 
163 163 163 170 168 168 168 177 176 185 185 185 183 195 183 183 158 18 18 18 22 22 79 79 34 3 3 3 4 4 4 4 6 6 15 15 18 18 18 18 19 19 19 16 16 16 21 21 19 19 19 16 14 14 14 14 13 13 4 4 2 2 16 16 17 17 17 17 17 17 17 17 18 9 18 9 78 194 194 194 178 178 192 192 206 190 190 190 188 188 200 200 194 194 46 46 45 45 195 195 243 243 243 243 214 214 153 214 194 194 194 194 196 196 179 179 179 179 199 199 202 202 202 202 198 198 198 198 209 209 209 209 192 213 213 213 192 210 210 210 205 205 205 205 203 203 203 203 200 200 200 200 197 197 197 197 192 192 163 192 194 194 194 194 189 189 189 189 186 186 97 97 144 243 243 243 95 95 224 224 225 225 114 225 196 181 181 196 198 198 198 183 191 191 191 175 175 191 191 191 195 195 195 176 182 182 182 182 184 164 184 184 177 164 177 177 171 171 155 155 180 180 180 158 148 148 148 148 145 170 145 145 169 169 149 149 144 163 144 144 162 143 143 162 162 147 147 162 156 143 156 156 157 174 174 174 
163 170 170 170 177 168 168 177 176 185 185 185 183 195 195 183 158 18 18 18 22 22 79 79 34 34 3 3 4 4 4 4 6 6 6 6 15 15 18 18 19 19 19 19 21 21 21 21 19 19 19 16 14 14 14 14 13 13 4 4 2 2 16 16 16 16 16 16 16 16 16 16 18 9 18 9 78 194 194 194 178 178 192 178 206 190 190 190 188 188 200 200 194 194 46 46 45 195 195 195 243 243 243 243 153 214 153 153 179 194 194 194 196 196 196 196 199 199 199 199 202 202 202 202 187 187 187 198 186 186 186 186 192 213 192 213 192 210 192 192 205 188 188 188 203 185 203 185 176 176 176 200 197 197 197 197 192 192 192 192 194 194 194 194 189 189 189 176 186 186 186 97 144 243 243 243 95 95 224 224 114 114 114 225 196 196 196 196 183 183 198 183 175 191 175 175 175 175 191 191 195 195 195 176 182 167 167 167 164 164 184 184 164 164 177 164 155 171 155 155 158 158 158 158 148 148 148 169 145 170 145 170 169 169 169 149 144 163 163 144 162 162 162 162 162 147 162 162 156 156 156 156 157 174 157 157 
175 175 175 185 190 179 179 190 184 195 195 184 181 181 181 181 183 22 22 22 15 15 67 67 90 15 15 15 2 2 11 2 3 3 3 3 7 7 7 7 20 20 20 20 23 23 23 10 20 20 20 17 15 15 15 15 13 13 4 4 2 2 16 16 16 16 16 16 16 16 16 16 15 15 15 15 185 204 204 185 193 193 193 174 195 195 195 179 185 185 185 185 181 181 14 14 9 78 78 78 232 232 232 232 153 153 193 153 179 190 190 190 183 198 198 183 192 192 192 181 185 185 185 185 192 192 192 173 174 174 190 190 191 191 175 191 191 191 169 169 179 179 161 179 190 170 190 190 172 172 172 180 184 184 184 184 188 188 188 188 196 196 196 176 172 172 172 172 183 183 183 183 173 225 225 225 153 15 15 15 16 16 16 72 198 198 198 198 177 177 198 177 181 181 159 159 159 184 184 184 188 188 188 154 156 156 156 156 167 167 181 167 160 176 176 160 148 148 148 148 154 173 154 154 151 151 151 172 154 178 154 178 175 156 175 175 161 176 176 176 164 182 164 164 175 175 175 175 174 174 187 174 172 188 172 172 
175 185 185 185 190 179 179 190 184 184 195 184 181 181 181 181 183 22 22 22 15 15 67 67 90 90 15 15 2 2 11 2 7 7 3 3 2 2 2 7 4 20 20 20 23 23 23 23 20 20 20 17 15 15 15 15 13 13 4 4 2 2 16 16 17 17 17 17 17 17 17 17 15 15 15 51 185 204 204 185 193 174 174 174 179 195 195 179 205 185 185 185 181 181 14 14 9 9 9 9 232 232 57 57 193 193 193 153 190 190 179 190 198 198 198 183 181 192 192 181 185 185 168 185 192 192 173 173 190 190 190 190 191 191 175 175 191 191 169 191 179 179 161 161 170 170 190 190 180 180 172 180 167 167 167 167 188 171 171 188 196 196 196 196 172 172 187 187 183 183 152 152 173 225 225 225 153 15 15 15 16 72 16 72 198 198 169 169 198 198 198 198 181 181 159 159 159 159 184 184 188 188 188 188 190 156 190 156 167 167 167 167 176 176 176 176 148 148 148 148 173 173 154 154 151 151 151 172 154 154 154 178 156 156 156 175 161 161 161 176 182 164 164 164 198 198 198 175 174 187 187 174 188 188 188 172 
175 185 185 185 190 190 179 179 184 184 195 195 198 198 198 198 183 22 22 22 15 15 15 67 90 90 15 15 11 11 2 11 7 7 7 3 2 2 2 2 4 4 4 4 10 23 23 23 20 20 20 17 15 15 15 15 13 13 4 4 2 2 16 16 17 17 17 17 17 17 17 17 15 15 15 51 204 204 185 185 174 174 174 193 179 195 195 195 205 205 205 185 181 181 14 14 9 9 9 78 232 57 57 57 193 193 193 193 179 190 179 190 198 198 198 198 181 192 192 192 185 168 168 168 173 173 173 173 174 174 190 174 175 175 175 191 191 169 169 191 179 179 161 161 170 170 190 190 180 180 180 172 184 184 184 184 188 171 171 188 176 176 176 176 172 172 187 187 183 152 183 183 173 225 173 173 153 15 15 15 16 72 16 16 169 198 198 169 198 198 198 177 181 181 181 181 159 159 159 184 154 154 188 188 190 156 190 156 181 181 181 181 176 176 176 176 180 180 180 148 173 173 173 173 151 172 151 172 178 154 178 178 175 156 175 175 161 161 176 161 182 164 182 182 198 198 198 198 174 187 187 174 188 188 172 172 
175 185 185 185 190 190 179 179 195 195 195 195 198 198 198 198 183 22 22 22 15 15 15 67 90 90 90 15 11 11 2 11 3 3 7 7 7 7 7 2 4 4 4 4 10 10 10 10 20 20 20 17 15 15 15 15 13 13 4 4 2 2 16 16 17 17 17 17 17 17 17 17 15 51 15 51 204 204 204 185 174 174 174 193 179 195 195 195 205 185 205 205 181 14 14 14 9 9 9 78 232 57 57 57 153 153 193 193 179 179 190 179 198 183 198 198 181 181 181 181 168 168 168 185 192 173 192 192 174 174 190 190 191 175 175 191 191 169 169 169 161 161 179 161 170 170 190 190 180 180 180 180 167 167 167 184 188 171 171 171 176 176 176 176 187 187 187 187 152 183 183 152 225 173 225 173 153 153 15 15 16 16 72 16 169 198 169 198 198 177 177 177 159 159 159 159 159 159 159 159 154 154 154 154 156 156 190 156 167 181 181 181 176 176 160 160 180 180 180 180 173 173 173 173 151 172 172 172 154 154 178 154 175 175 175 175 161 176 176 176 164 164 182 182 175 198 175 175 187 187 187 174 188 188 172 172 
171 187 187 187 170 170 184 184 184 199 199 199 204 204 204 204 158 27 27 27 14 14 32 32 89 89 89 63 4 4 38 4 4 7 7 7 5 1 1 1 4 4 4 4 4 4 4 4 13 13 13 13 19 19 19 19 15 15 4 4 1 1 15 15 17 17 17 17 18 18 18 18 22 22 22 184 201 201 201 201 185 185 185 185 201 201 201 201 203 203 203 203 189 7 7 7 7 7 7 164 196 25 25 25 177 177 199 199 174 174 191 174 193 193 193 193 183 171 171 183 182 182 167 182 191 191 191 191 187 187 187 187 193 172 172 172 165 165 165 165 171 171 171 197 178 178 178 178 182 182 196 196 195 170 195 170 201 182 182 182 172 172 194 172 170 170 170 195 186 186 163 163 189 189 189 189 165 165 21 21 7 7 41 41 32 173 173 173 165 165 183 165 188 161 161 161 190 152 152 152 145 145 145 145 145 145 145 145 148 148 148 177 166 166 166 147 159 174 159 159 174 174 174 174 177 177 177 177 142 162 162 142 159 159 159 159 177 177 177 141 126 168 168 168 161 125 161 161 169 169 169 169 184 184 136 184 
171 171 187 187 170 170 184 170 184 199 199 199 204 190 204 190 158 27 27 27 14 14 14 32 89 89 89 63 38 4 4 4 4 4 7 7 5 5 5 5 4 4 4 4 4 4 4 4 3 3 13 13 19 19 19 19 15 15 4 4 1 1 15 15 21 21 21 21 18 18 18 18 22 22 22 184 201 201 201 169 162 185 185 185 168 168 201 201 203 185 185 185 189 7 7 7 7 7 7 164 196 25 25 196 177 177 177 177 191 174 174 174 193 171 171 171 171 171 171 171 167 167 167 167 165 165 191 165 163 187 187 163 172 193 193 172 192 192 165 192 197 171 171 197 212 212 212 212 196 196 196 196 195 195 195 170 182 182 201 201 194 194 194 172 170 170 195 195 186 186 186 163 157 157 189 157 165 165 21 21 7 7 41 41 32 173 173 173 165 183 165 183 188 188 161 188 152 190 190 190 145 145 180 180 145 145 171 171 148 148 148 148 147 147 166 166 174 174 174 159 174 174 174 174 138 177 177 177 162 142 162 162 159 143 159 143 177 177 177 177 168 168 168 126 161 161 161 125 125 125 169 169 184 184 136 136 
171 171 187 187 184 184 184 170 184 199 199 199 204 190 204 190 158 27 27 27 32 14 14 32 89 89 89 63 38 4 4 4 7 7 7 4 5 5 5 5 4 4 4 4 4 4 4 4 3 3 3 3 6 6 19 19 15 15 4 4 1 1 15 15 21 21 21 21 18 16 16 16 22 22 22 184 169 169 169 169 162 162 162 162 168 168 168 168 185 185 203 185 189 7 7 7 7 7 7 164 196 25 25 196 199 199 199 177 191 174 174 174 193 171 171 171 171 183 183 183 182 182 167 182 165 165 165 191 163 163 163 163 172 193 193 193 192 192 165 192 197 197 197 197 178 212 212 212 196 196 196 182 170 170 170 170 201 201 182 201 194 194 194 172 170 195 195 195 163 163 186 163 157 157 189 157 165 165 21 21 7 7 7 41 32 32 173 173 165 183 165 183 188 188 188 188 190 190 190 190 180 180 180 180 171 171 171 171 177 177 177 148 147 147 166 166 174 174 174 159 139 139 139 139 138 138 138 138 142 162 142 142 159 143 143 143 177 141 177 177 168 168 168 126 161 125 125 125 125 125 169 125 184 184 136 136 
171 171 187 171 170 184 170 170 184 184 184 184 190 190 190 190 158 27 27 27 32 14 14 32 63 89 89 89 38 38 4 4 7 7 7 7 5 5 5 1 4 4 4 4 4 4 4 4 3 3 3 3 6 6 6 6 15 4 4 4 1 1 15 15 21 21 21 21 18 18 18 18 22 22 22 184 169 169 169 201 185 185 162 185 168 201 201 201 185 203 203 185 189 7 7 7 7 7 7 164 196 25 25 196 199 199 199 199 191 191 191 191 193 171 171 193 183 171 183 183 182 182 167 167 165 165 165 191 163 163 163 163 172 193 172 172 192 192 192 192 197 171 197 197 178 212 212 178 182 182 196 182 170 195 170 195 201 201 182 201 194 194 194 172 170 170 170 170 186 163 163 186 189 189 189 157 165 165 165 21 7 7 7 41 32 32 173 173 183 183 183 165 161 188 161 161 190 152 152 152 180 145 145 180 171 171 171 171 177 177 177 148 147 147 147 166 174 159 174 159 139 139 139 139 177 138 138 138 142 162 162 162 143 143 143 143 141 141 141 141 126 126 126 126 125 125 125 125 125 125 125 125 136 136 136 136 
177 177 177 177 179 179 165 179 193 193 193 193 180 180 193 193 96 30 30 30 26 16 16 26 50 87 87 87 85 38 38 38 6 6 6 6 7 7 3 3 4 4 4 4 4 4 4 4 4 4 4 4 3 0 0 0 4 4 1 4 5 0 5 5 17 17 17 17 15 15 15 15 47 47 47 160 182 182 182 182 166 166 166 166 165 165 165 165 169 169 169 169 22 3 3 22 13 13 13 205 28 28 28 143 181 181 181 181 179 179 179 179 168 168 168 168 159 159 159 159 173 173 173 173 143 143 183 183 151 151 175 175 133 133 133 133 166 166 166 202 177 177 198 198 185 185 164 164 166 166 166 166 174 174 206 206 166 166 166 187 163 163 163 163 166 166 166 166 167 167 167 167 190 190 190 160 157 157 203 157 3 3 35 35 35 35 140 140 157 157 184 157 161 191 161 191 182 182 156 156 179 159 159 179 148 148 169 169 146 167 167 167 177 158 158 177 182 165 165 182 167 167 157 157 180 150 180 150 159 159 159 187 165 185 165 165 153 180 153 153 163 163 142 163 170 170 170 170 139 139 139 139 113 113 113 113 
160 177 177 177 179 179 165 179 179 193 193 193 193 193 193 193 96 30 30 30 26 16 16 16 50 87 87 87 85 85 38 38 6 6 6 6 7 7 7 3 4 4 4 4 4 4 4 4 2 4 4 4 3 3 0 0 1 1 1 4 5 0 0 5 3 3 3 17 15 15 15 15 47 47 160 160 145 145 145 145 147 147 166 166 146 165 146 146 142 169 142 169 22 3 3 22 13 13 13 205 28 28 143 143 181 108 181 181 179 179 179 123 168 138 138 138 129 129 129 129 138 138 138 138 143 143 143 143 151 151 175 151 133 183 133 133 166 166 166 166 177 198 198 177 185 185 164 164 195 166 166 195 174 174 206 206 187 187 166 187 163 163 163 163 166 152 166 166 167 167 167 167 190 160 160 190 157 203 203 157 3 3 3 3 35 35 35 140 157 157 184 157 161 161 191 191 156 156 182 156 179 179 179 179 148 148 169 169 146 167 167 167 177 177 177 177 182 182 165 182 167 167 167 167 180 180 180 180 187 187 159 159 165 185 165 185 153 180 153 153 142 163 142 163 170 141 170 170 139 165 165 139 113 151 151 151 
160 160 160 160 165 165 165 179 179 179 179 179 193 180 193 180 96 30 30 30 26 16 26 16 50 50 87 87 85 85 85 38 22 22 6 6 7 7 7 7 4 4 4 4 4 4 4 4 2 2 2 4 3 3 3 3 4 1 1 4 5 0 0 5 3 3 3 3 3 3 3 3 47 160 160 160 145 145 145 145 147 147 166 147 146 146 146 146 142 142 142 169 3 3 3 3 13 13 205 205 28 28 143 143 108 108 108 108 123 123 123 123 138 138 138 138 129 129 129 129 138 173 138 138 143 143 183 143 151 151 175 175 183 183 183 183 202 202 202 202 198 198 177 177 164 185 164 164 195 166 166 195 206 174 174 174 166 166 166 187 187 187 187 187 166 152 152 152 190 167 190 190 160 160 160 160 157 203 203 203 35 3 3 3 35 35 35 140 184 184 184 157 191 161 191 161 156 156 182 182 159 159 179 159 148 148 169 169 146 146 146 167 158 158 158 158 182 182 165 182 167 157 157 157 180 180 180 150 187 187 187 159 165 185 185 185 180 180 153 153 163 142 142 142 170 170 141 141 165 165 165 139 113 151 151 151 
160 177 177 160 179 165 179 179 193 193 179 179 180 180 180 180 96 30 30 30 26 26 26 26 50 50 87 87 85 85 85 38 22 22 22 6 3 7 3 3 4 4 4 4 4 4 4 4 4 4 2 2 3 3 3 3 4 4 4 4 0 0 0 5 3 3 3 3 3 3 3 3 47 160 160 160 182 182 145 182 147 147 166 147 146 165 165 165 142 142 142 169 3 3 22 3 13 13 205 205 28 28 143 143 108 108 108 108 123 179 123 123 138 138 168 168 159 159 159 159 173 173 138 173 183 183 183 183 175 175 175 175 183 183 183 183 166 202 202 202 177 198 198 198 185 185 185 185 195 166 195 195 206 174 206 206 187 187 187 187 187 187 163 187 166 152 152 152 190 167 190 190 160 190 190 160 157 203 203 203 35 3 3 3 35 35 35 140 184 157 157 184 191 161 161 191 182 182 156 182 179 159 159 159 148 148 169 148 146 146 167 167 158 158 177 177 165 182 165 182 157 157 167 167 150 150 150 150 187 159 159 187 185 165 165 165 180 180 180 180 163 142 163 142 141 170 141 141 165 139 165 165 151 151 151 151 
185 173 173 173 179 179 195 179 197 197 197 184 200 200 183 183 38 38 29 29 29 29 21 21 37 74 74 74 87 87 87 79 41 41 41 41 9 9 9 9 7 7 3 3 5 5 5 5 4 4 4 4 4 4 4 4 4 4 4 4 4 4 4 4 2 8 8 2 6 6 6 6 116 179 179 179 186 158 186 186 184 127 184 184 176 176 176 176 176 176 176 75 12 12 1 12 25 25 212 212 24 24 152 152 124 124 124 124 150 150 150 150 149 171 149 149 163 163 163 163 179 179 179 179 189 189 189 189 180 180 180 180 198 167 167 167 169 193 193 193 199 176 199 199 177 177 177 203 199 173 199 173 194 194 194 180 202 202 164 202 193 193 166 193 188 188 207 188 194 194 164 194 194 211 194 211 202 202 202 202 175 7 7 7 9 40 9 40 196 196 107 196 184 184 202 202 171 171 171 171 177 199 199 177 153 184 153 153 181 151 151 151 163 163 186 186 177 177 158 158 149 149 176 149 150 150 150 150 142 142 142 179 166 166 166 166 190 190 159 159 193 169 169 169 164 164 190 164 176 158 158 176 144 169 144 169 
185 173 185 173 195 179 195 179 184 197 197 197 200 200 200 200 38 29 29 29 29 29 21 21 37 37 74 74 87 87 79 79 41 41 66 41 40 9 9 9 7 7 3 3 3 3 3 3 4 4 4 4 4 4 4 4 4 4 4 4 4 4 4 4 8 2 2 8 6 6 6 24 116 179 179 179 186 186 186 186 184 184 184 127 176 176 176 130 176 176 176 75 1 1 1 12 25 25 212 212 24 24 152 152 178 124 124 124 150 150 150 150 171 171 171 149 163 199 199 199 179 179 179 179 189 141 189 189 180 180 180 180 198 198 198 198 169 193 193 169 199 176 199 199 203 177 177 203 173 173 199 199 194 194 194 180 164 164 164 202 193 193 166 193 207 207 188 188 164 164 194 194 211 194 194 211 176 202 202 202 175 7 7 7 9 9 40 40 107 196 196 196 202 184 184 202 186 171 171 186 177 199 199 199 153 184 153 153 151 151 151 151 163 186 186 186 177 177 158 158 149 149 176 176 150 185 150 150 142 142 142 142 166 166 166 166 190 190 190 190 193 193 193 169 164 164 190 164 158 176 176 176 144 169 144 169 
185 185 185 185 195 179 179 179 197 197 184 184 200 200 183 200 38 29 29 38 29 21 21 21 37 37 74 74 87 87 79 87 66 66 66 66 40 40 9 9 3 7 7 7 5 3 3 5 4 4 4 4 4 4 4 4 4 4 4 4 4 4 4 4 8 2 2 8 6 6 24 24 116 179 179 179 158 158 186 186 184 184 184 127 130 130 130 130 176 176 176 75 1 1 1 12 25 25 212 25 24 24 152 152 124 124 178 178 177 177 177 177 171 171 149 149 163 199 163 163 144 144 144 179 141 141 141 189 151 151 180 151 167 167 167 167 169 193 193 169 199 176 176 199 203 203 203 203 199 173 199 199 180 180 194 180 164 164 164 202 166 166 166 166 207 207 188 207 164 164 194 194 211 194 211 194 202 202 176 176 175 175 7 7 9 9 40 9 107 196 196 196 202 184 202 202 186 186 171 171 177 199 199 199 184 184 184 184 151 151 181 151 163 186 163 163 158 158 158 177 176 176 176 149 185 185 185 185 179 179 179 179 194 166 194 194 159 159 190 190 193 193 193 169 190 190 190 164 158 158 176 176 169 169 169 144 
173 173 185 185 195 179 179 179 197 197 184 184 200 200 183 183 29 29 29 38 29 21 21 21 37 37 74 74 87 87 79 79 66 66 66 41 40 40 40 9 7 7 7 7 5 5 5 5 4 4 4 4 4 4 4 4 4 4 4 4 4 4 4 4 8 2 2 8 6 6 24 24 116 116 179 179 158 158 158 158 127 127 127 127 130 130 130 130 75 75 176 75 1 1 12 12 25 25 212 25 24 24 152 152 124 178 178 178 177 177 177 177 171 149 171 171 163 199 163 163 144 144 144 144 141 141 141 141 151 151 151 180 198 167 167 167 193 193 193 169 199 176 176 199 203 203 177 177 173 173 173 199 194 180 194 194 202 202 202 202 193 193 193 193 188 207 188 207 164 194 194 194 194 194 211 211 202 176 202 176 175 175 7 7 9 9 40 40 107 107 196 196 202 202 202 184 186 186 186 186 177 177 177 177 184 184 184 184 181 181 181 181 186 186 163 163 177 177 177 177 176 176 176 176 185 185 185 185 179 179 179 179 194 194 194 194 159 159 159 190 193 169 169 169 190 190 190 190 176 176 176 158 169 144 144 144 
162 162 175 175 183 183 183 183 176 176 176 176 192 192 192 192 25 25 34 34 29 20 20 20 35 35 67 67 84 93 84 84 75 89 75 75 48 48 48 48 16 16 16 16 9 9 9 3 4 4 4 4 4 4 4 4 5 5 5 5 5 5 5 5 5 5 5 5 22 22 22 51 125 125 125 125 121 121 121 121 116 116 116 116 147 147 147 147 159 159 159 18 0 0 7 7 19 192 192 19 38 38 177 177 187 187 162 187 188 188 152 188 150 150 150 150 142 142 142 142 166 133 133 133 140 140 140 140 146 146 146 175 206 182 182 182 187 187 187 157 163 163 163 193 198 198 198 198 205 181 181 205 201 181 181 181 211 191 191 211 177 177 177 215 201 201 201 201 208 208 175 175 179 179 209 209 197 197 197 159 196 196 48 48 5 41 5 41 33 171 171 171 179 179 179 179 189 189 189 189 158 188 188 188 170 170 143 170 148 167 167 167 167 167 142 167 180 157 157 157 154 154 175 154 153 171 153 171 168 168 149 168 173 173 148 148 140 140 140 173 166 166 134 166 169 169 145 169 153 153 177 153 174 174 174 174 
175 175 175 162 183 183 183 183 176 176 176 176 192 192 192 192 25 25 34 34 29 29 20 20 35 35 67 67 84 93 93 84 75 89 89 75 48 48 48 48 53 16 16 16 9 9 3 3 4 4 4 4 4 4 4 4 5 5 5 5 5 5 5 5 5 5 5 5 22 22 51 51 125 175 175 175 121 161 161 121 116 116 173 173 186 186 186 147 159 159 159 18 7 0 7 0 19 192 192 19 38 177 177 177 187 187 162 187 188 152 152 188 185 150 185 150 142 142 142 142 133 133 133 166 179 140 140 140 146 175 175 175 206 206 206 206 187 157 157 157 163 163 193 193 172 172 198 198 205 181 181 181 201 181 201 181 191 191 191 191 215 215 177 215 173 173 201 173 208 175 175 175 209 179 209 209 197 197 197 159 196 196 48 48 5 5 5 41 33 33 171 171 153 153 153 179 189 189 154 189 188 188 188 158 170 170 143 143 148 167 167 167 167 167 142 167 157 157 157 180 175 175 154 154 153 171 171 171 168 168 149 149 148 173 148 148 173 173 173 173 134 134 134 166 169 169 169 169 177 177 177 153 174 174 174 149 
175 175 175 162 165 165 183 165 158 176 176 158 170 170 170 170 25 25 34 34 29 29 20 20 35 35 67 67 84 93 93 93 89 89 75 89 88 88 88 48 53 53 53 16 9 3 3 3 4 4 4 4 4 4 4 4 5 5 5 5 5 5 5 5 5 5 20 20 22 51 51 51 175 175 175 175 161 161 161 161 173 173 173 173 186 186 186 186 159 159 18 18 0 7 7 7 19 192 192 19 38 177 177 177 162 187 162 187 188 152 152 188 185 150 185 150 142 184 184 142 166 166 166 133 140 179 179 179 175 175 175 146 182 182 206 182 187 157 157 187 193 163 193 193 198 172 172 172 181 181 181 205 201 201 201 201 191 191 211 211 215 215 177 215 201 201 201 201 208 175 175 208 209 179 179 179 197 159 159 159 196 196 196 48 5 5 5 41 33 33 171 171 153 153 179 153 154 154 154 154 158 188 158 158 143 143 143 143 148 148 148 148 142 167 142 142 180 180 180 180 175 175 175 175 171 171 153 171 168 168 149 149 148 173 148 148 173 173 173 140 166 166 166 166 169 169 145 145 153 153 177 153 149 149 149 149 
175 162 175 162 165 165 183 165 158 158 158 158 170 192 170 170 25 25 34 34 29 29 29 20 35 35 67 67 93 84 84 93 89 89 75 89 88 88 88 88 53 53 53 53 9 3 3 9 4 4 4 4 4 4 4 4 5 5 5 5 5 5 5 5 20 5 20 20 51 51 51 51 175 175 175 175 161 161 161 161 173 173 173 116 186 147 186 147 159 159 18 18 0 7 7 7 19 192 192 19 38 177 177 177 162 162 162 162 188 152 152 188 185 150 185 185 184 184 184 184 166 166 166 133 140 179 179 179 175 175 175 175 206 182 182 182 157 157 157 187 193 163 193 163 172 172 198 172 181 205 205 205 181 201 181 201 191 211 211 211 215 177 177 177 173 173 173 173 208 208 175 208 179 179 209 209 197 159 159 159 196 196 196 48 5 5 5 5 33 33 33 171 179 179 179 153 154 154 154 154 158 158 158 188 170 170 170 143 167 148 148 167 142 167 167 142 157 157 180 180 175 175 175 154 153 153 153 171 168 149 149 149 173 173 148 148 140 140 173 140 134 166 134 134 145 145 145 145 153 177 177 153 149 174 149 149 
175 149 175 175 158 177 177 158 167 167 167 182 191 172 191 191 23 23 38 38 35 35 23 23 31 31 65 65 87 87 92 92 90 90 90 81 82 82 92 92 87 87 87 87 10 10 10 1 2 2 5 5 3 7 7 7 3 3 3 12 18 18 18 18 45 45 45 45 76 76 76 76 159 159 187 187 160 160 160 175 178 178 151 178 146 146 175 146 154 154 26 26 3 3 3 28 31 212 31 31 122 182 122 182 162 162 162 162 174 138 174 138 191 191 168 168 164 195 195 195 201 201 163 163 163 187 187 187 152 176 152 152 183 183 183 183 157 183 183 183 171 193 171 171 194 166 194 194 205 205 205 167 171 171 171 171 165 205 205 205 166 166 166 166 168 209 168 168 197 153 197 153 163 184 184 184 201 176 201 201 200 166 200 166 7 7 7 7 161 28 28 161 201 201 201 160 187 158 158 158 189 189 156 156 162 190 190 190 144 144 179 144 150 177 177 177 151 151 151 181 159 188 159 159 159 178 159 159 157 157 157 192 177 149 177 149 155 155 155 155 143 168 168 168 129 129 129 160 175 175 175 175 157 157 157 157 
175 149 175 175 158 177 177 177 182 182 182 182 191 191 191 172 23 23 38 38 35 35 23 23 31 31 65 65 87 87 92 92 90 90 90 81 82 82 92 92 87 145 87 145 10 1 1 10 5 5 5 5 3 3 3 3 12 3 3 3 18 18 18 18 81 81 81 45 76 76 76 152 187 159 187 187 175 160 160 175 151 151 151 178 175 175 146 146 154 154 26 26 3 28 28 3 31 212 31 31 122 182 122 122 142 162 162 162 174 138 138 138 168 191 168 191 164 164 195 164 163 201 163 163 163 187 187 163 152 152 152 152 153 153 183 153 183 183 157 157 171 193 193 171 194 194 194 166 167 205 205 167 171 171 171 171 165 205 205 165 188 188 188 166 168 168 168 168 153 153 153 197 184 184 184 184 201 176 176 201 200 166 200 200 120 7 7 7 28 28 28 161 160 201 201 201 187 187 187 187 189 189 189 189 190 190 190 190 179 179 144 144 150 177 177 150 151 181 151 181 188 188 159 159 159 159 178 178 157 157 157 192 177 177 177 149 155 181 181 181 168 143 168 168 129 160 160 160 175 175 175 146 157 157 157 128 
175 149 149 175 158 158 158 177 167 182 167 182 191 191 191 172 23 23 38 38 35 35 23 23 31 31 65 65 87 87 92 92 81 90 90 90 92 82 82 92 87 87 87 145 10 1 1 10 5 5 5 5 7 3 3 3 12 3 3 12 18 78 78 78 81 81 81 81 76 76 76 152 187 159 187 159 175 175 160 175 151 151 151 178 175 175 175 175 154 154 26 26 3 3 3 28 212 212 31 31 122 182 182 122 142 142 142 162 174 138 174 174 168 191 168 191 164 164 195 164 163 201 201 201 163 163 187 187 176 176 176 176 183 153 153 153 183 157 183 183 171 193 171 193 194 166 166 166 167 205 167 205 205 205 171 171 165 205 205 165 166 166 188 188 209 168 209 209 197 197 197 197 184 163 184 184 201 176 176 201 166 166 200 200 120 7 7 7 28 28 28 28 160 160 201 160 187 187 158 158 156 156 189 156 190 162 162 162 179 179 144 144 177 150 177 150 151 181 151 181 159 159 188 188 178 159 178 178 157 192 192 192 177 177 177 149 155 155 181 181 168 143 168 143 160 160 160 160 146 146 175 146 128 128 157 128 
175 149 149 175 177 158 158 177 167 182 167 182 172 191 172 172 23 23 38 38 35 35 23 23 31 31 65 65 87 87 92 92 90 81 81 90 92 92 92 92 87 87 145 145 1 10 10 1 5 2 2 5 7 7 7 7 3 12 12 12 78 78 78 78 81 81 81 81 76 76 76 152 187 187 187 159 160 175 160 175 178 178 178 178 175 175 175 175 154 26 26 26 28 3 28 3 212 212 31 31 182 182 182 182 142 142 142 162 174 138 138 174 168 168 191 191 164 164 164 164 201 201 163 163 163 187 187 163 176 176 176 176 183 153 153 183 183 157 157 183 171 171 171 193 194 194 166 166 167 205 205 205 205 205 205 205 165 205 205 165 166 166 188 188 209 168 209 209 197 197 197 197 163 163 184 163 176 176 176 176 166 166 200 166 120 7 7 7 28 28 28 161 201 160 160 160 187 187 158 158 156 156 156 156 190 162 162 162 144 179 179 179 177 150 177 150 181 181 181 181 159 159 188 188 178 178 178 159 157 192 192 192 177 177 149 149 181 181 181 155 143 143 143 143 160 160 160 129 146 146 175 175 128 128 157 128 
179 179 179 179 193 166 166 166 192 192 192 192 189 189 189 140 26 26 43 43 40 40 24 24 25 25 53 53 85 85 95 95 85 85 60 85 87 87 87 87 99 99 179 99 5 5 5 5 17 5 5 5 9 4 4 9 14 14 34 34 49 81 81 81 85 85 99 85 79 79 79 184 199 199 174 199 191 169 169 191 168 193 193 168 160 182 160 160 133 78 78 133 132 21 21 21 205 205 34 34 195 195 195 195 158 189 158 189 159 159 159 159 193 175 193 193 154 154 154 154 202 202 155 202 172 205 172 172 205 178 178 205 164 164 164 202 173 206 173 173 194 194 171 171 193 193 163 163 165 198 198 198 175 175 205 205 194 194 194 168 197 175 197 175 178 178 203 203 163 191 191 163 163 191 191 163 165 165 191 165 157 157 189 157 170 42 42 42 128 128 247 247 240 183 183 183 189 189 165 165 166 166 166 166 151 151 151 181 156 200 200 156 168 137 137 137 159 159 159 159 163 189 163 163 187 162 162 162 153 183 153 153 184 184 151 151 193 193 193 155 149 149 149 149 143 176 143 143 147 147 178 147 157 157 157 157 
179 179 179 179 193 166 193 193 175 192 175 192 189 189 189 140 26 26 43 43 40 40 24 24 25 25 53 53 85 85 95 95 85 85 60 60 87 87 87 87 99 179 179 99 5 5 5 32 17 17 5 5 9 4 4 9 14 34 34 34 49 49 81 81 99 85 99 85 79 79 79 184 199 199 174 199 169 169 191 169 168 168 193 168 160 160 182 182 133 78 78 78 132 21 21 21 205 34 34 34 195 195 195 165 189 189 158 189 159 193 159 193 193 193 175 175 186 186 154 154 155 155 155 202 205 205 205 172 205 205 178 205 164 202 202 202 206 206 173 173 194 194 171 171 193 163 193 193 198 198 198 165 205 205 205 205 194 194 194 194 197 197 197 175 178 203 203 203 191 191 163 163 191 191 191 163 191 191 165 165 157 189 157 189 170 170 42 170 247 247 247 247 240 183 183 183 165 189 189 189 166 195 166 195 151 181 181 151 156 156 156 156 168 168 168 137 188 188 159 188 163 189 163 163 162 187 187 162 153 183 153 153 151 151 184 184 193 155 155 155 178 178 149 149 176 143 176 143 178 147 178 147 157 201 201 201 
158 158 158 179 166 166 193 193 175 175 175 192 189 189 189 140 26 26 43 43 40 40 24 24 25 25 53 53 85 85 95 95 85 85 60 60 64 87 64 64 99 179 179 179 5 5 32 32 17 17 5 5 9 4 4 9 14 14 34 34 49 49 81 81 99 85 85 85 79 79 79 184 199 199 174 174 169 191 191 169 168 168 193 193 182 182 182 182 133 78 78 78 21 21 21 21 205 34 34 34 195 195 195 165 189 189 158 158 159 159 159 193 193 193 175 175 186 186 186 186 202 202 202 202 172 172 205 205 205 205 178 178 202 202 164 164 206 206 173 206 194 171 171 171 193 193 193 193 198 198 198 198 175 205 175 205 168 168 168 194 197 197 197 197 178 203 203 178 191 163 163 191 191 191 163 163 191 191 165 191 189 189 189 189 170 170 42 170 247 247 247 247 240 240 240 183 189 189 165 165 195 195 195 195 181 181 181 151 156 200 200 156 137 137 137 168 188 188 159 188 189 163 163 189 162 162 162 162 153 153 153 153 151 184 184 184 193 155 155 193 178 178 178 178 176 143 176 176 178 178 178 147 157 201 201 201 
158 158 158 158 166 166 193 193 192 175 175 175 189 140 140 140 26 26 43 43 40 40 24 24 25 25 53 53 85 85 95 95 85 85 60 60 64 64 64 64 99 179 179 179 5 32 32 32 17 17 5 5 9 9 9 9 14 14 34 34 49 49 81 81 85 85 99 99 79 79 184 184 199 174 174 174 191 191 191 191 168 193 193 168 160 160 182 160 78 78 78 133 132 132 132 132 205 34 34 205 165 165 165 165 158 158 158 189 193 159 193 193 175 193 193 175 186 186 154 186 155 155 155 202 205 205 205 172 178 178 205 178 202 164 202 202 206 173 206 206 194 194 171 194 193 163 163 163 198 165 165 165 175 205 175 175 194 168 168 168 175 175 175 175 178 178 203 178 191 191 163 191 191 191 163 163 191 191 191 191 189 157 157 189 170 170 42 170 247 128 247 247 240 240 240 183 165 189 165 189 195 166 195 195 151 181 181 181 200 200 156 200 168 168 168 137 159 159 159 188 189 163 189 189 187 187 162 187 183 183 183 153 151 151 184 151 193 193 155 193 178 178 178 149 176 143 176 143 147 178 178 178 157 157 157 157 
151 151 151 176 174 174 174 174 173 173 173 173 177 177 177 87 29 29 52 52 63 63 31 31 21 21 45 45 75 92 92 92 88 72 72 72 87 58 58 87 200 164 164 164 22 22 22 43 46 7 7 7 29 29 29 29 37 21 21 37 47 47 75 75 85 94 94 94 90 90 191 191 207 207 176 176 213 213 184 213 180 205 180 180 171 171 171 171 141 57 57 141 254 250 254 250 250 250 178 178 161 202 202 202 203 166 203 166 170 205 205 205 176 203 203 203 190 171 190 171 175 202 175 175 178 178 206 178 170 210 210 170 166 166 166 193 196 196 169 196 156 156 156 156 195 156 195 156 167 167 167 167 166 166 166 166 165 165 203 203 194 165 165 194 187 211 187 211 194 194 163 163 169 209 169 169 213 213 174 174 171 171 171 195 189 189 95 95 229 229 229 229 240 240 240 190 189 189 189 189 194 161 161 194 183 148 148 183 178 178 147 178 202 202 160 202 142 175 175 175 181 139 181 181 156 156 156 194 175 175 175 155 177 177 177 177 168 168 168 168 144 144 176 144 181 160 160 160 187 141 141 187 147 147 185 147 
176 151 151 151 174 174 174 174 145 173 173 173 177 177 177 87 29 29 52 52 63 63 31 31 21 21 45 45 75 92 92 92 88 88 72 72 58 58 58 87 200 164 200 164 22 43 22 43 46 7 7 7 29 29 71 71 37 21 21 37 47 47 75 75 85 94 85 94 90 90 191 191 207 207 207 176 213 213 184 184 180 205 180 205 194 194 194 194 141 57 57 141 254 254 254 254 250 250 250 178 161 161 161 202 203 203 203 203 205 205 205 205 176 176 203 203 171 171 171 171 175 202 175 175 206 178 206 206 210 210 170 210 193 193 166 166 169 196 169 196 191 191 156 156 156 156 195 156 167 167 167 208 166 209 166 166 165 165 165 203 194 194 165 165 187 211 187 187 163 194 194 194 209 209 209 169 174 174 213 213 171 195 195 195 189 189 189 95 108 229 229 229 240 240 190 190 164 189 189 164 161 161 194 194 183 183 183 148 147 147 147 147 160 160 160 160 142 175 142 175 181 181 181 181 156 194 194 194 175 155 175 175 177 137 137 177 147 147 147 147 176 144 144 144 181 181 160 160 141 141 187 187 185 147 147 147 
176 176 151 176 149 149 149 174 145 173 145 145 177 177 177 87 29 29 52 52 63 63 31 31 21 21 45 45 75 92 92 92 88 88 88 72 58 58 58 87 200 164 200 164 22 43 43 43 46 7 7 7 29 71 71 71 37 37 21 21 47 75 75 75 94 94 85 85 90 90 191 191 207 207 176 176 213 213 184 184 180 205 180 205 194 171 194 194 141 57 57 141 254 254 254 250 250 250 250 178 202 202 161 161 166 166 203 166 170 205 205 170 203 203 176 203 190 171 190 190 202 202 175 202 206 178 206 206 170 210 210 170 193 193 193 166 169 196 196 196 191 156 191 156 156 156 195 195 208 208 208 208 166 166 209 209 165 203 203 203 194 194 165 165 187 211 211 187 163 163 194 163 209 169 209 169 213 213 213 213 195 171 195 171 189 189 189 95 108 229 229 229 240 240 190 190 164 164 164 189 194 161 194 161 148 148 148 183 178 178 147 178 160 202 160 160 175 142 142 142 181 181 139 139 156 194 194 194 155 155 175 175 177 137 137 137 168 147 168 168 144 176 176 176 181 181 160 160 187 187 187 141 185 147 185 185 
176 176 151 176 149 149 149 149 145 145 145 173 177 177 177 87 29 29 52 52 63 63 63 31 21 21 21 45 75 75 92 92 88 72 72 72 58 58 58 87 200 164 200 164 22 43 43 43 46 7 7 7 29 71 71 71 37 37 21 21 47 47 75 75 85 94 85 94 90 191 191 191 207 176 176 207 184 184 184 184 180 205 180 205 194 171 171 194 141 57 57 141 250 254 254 250 250 250 250 178 202 202 161 161 203 203 203 166 170 170 170 170 203 176 176 176 171 190 190 190 202 202 175 202 206 178 178 178 210 210 210 210 193 193 193 193 169 169 169 169 191 191 191 191 195 195 156 156 167 167 208 208 209 166 209 209 165 203 203 165 194 194 165 194 211 211 187 211 194 163 194 194 209 209 209 209 213 174 174 174 195 171 195 171 189 189 189 95 108 108 108 108 240 240 190 190 189 164 189 189 194 194 194 161 183 183 183 148 147 147 178 178 202 202 202 202 142 142 175 175 139 139 139 139 156 194 194 156 175 175 155 155 177 177 177 137 168 147 147 147 176 176 176 176 181 160 181 181 187 187 141 187 147 185 185 185 
185 185 185 163 148 173 148 173 184 184 155 155 189 189 189 48 27 27 47 47 74 74 54 54 19 19 19 31 64 94 94 94 85 69 69 69 52 52 52 167 198 177 198 177 24 24 24 57 65 34 34 34 29 29 55 55 61 38 38 38 28 28 59 59 83 83 83 94 116 194 194 194 205 205 174 174 204 170 170 204 189 189 189 189 199 175 199 199 163 60 60 163 252 252 252 252 250 250 250 190 164 196 164 164 196 196 165 165 147 147 147 147 157 157 157 157 175 175 207 207 194 194 194 164 193 165 165 165 153 153 153 182 200 200 200 200 183 152 183 152 168 168 168 168 189 189 160 189 187 187 187 160 142 173 173 173 161 196 161 196 196 196 150 196 196 164 164 196 153 187 187 187 162 190 190 190 210 210 184 210 200 156 156 200 165 201 201 165 159 77 77 159 247 247 247 157 178 178 178 178 179 138 179 179 188 149 188 149 139 139 185 185 189 135 189 189 171 130 130 171 156 124 124 124 148 176 176 148 169 169 169 169 159 159 159 135 177 177 177 177 168 168 135 168 173 173 147 147 134 134 179 179 153 153 187 153 
185 185 185 163 148 173 148 173 184 184 184 155 189 189 189 48 27 27 47 47 74 74 74 54 19 19 19 31 64 94 94 94 85 69 69 69 52 52 52 167 198 198 198 177 24 24 57 57 65 34 34 34 29 29 29 55 61 61 38 38 28 28 59 59 94 94 94 94 116 194 194 194 205 174 174 205 204 204 204 204 189 189 189 166 175 175 199 175 163 60 60 163 252 252 252 252 250 250 250 190 196 196 164 164 165 196 165 196 147 190 190 190 157 195 195 195 175 175 175 207 194 164 194 194 165 193 193 165 182 182 153 182 165 200 165 165 152 152 183 183 168 203 168 203 160 160 189 189 187 160 160 160 173 173 142 173 161 161 161 196 196 196 150 196 164 196 164 164 153 187 187 153 162 190 190 190 184 184 210 210 156 156 200 200 165 165 201 165 159 77 77 77 157 247 247 157 147 147 147 147 138 179 179 179 188 149 188 149 139 139 139 185 135 135 135 189 130 171 171 171 156 156 156 156 148 148 176 148 169 130 130 169 135 135 135 159 133 133 133 133 168 135 135 168 147 173 147 173 134 179 179 179 153 153 187 187 
185 163 163 163 148 173 148 148 155 184 155 155 189 189 189 48 27 47 47 47 54 74 74 54 31 19 19 31 64 64 94 94 85 69 69 85 52 52 52 167 198 198 177 177 24 24 57 57 65 65 65 34 55 29 29 55 61 61 61 38 28 28 59 59 83 94 94 94 116 194 194 194 205 205 205 205 204 170 204 170 166 166 166 166 175 199 199 175 60 60 60 163 192 252 252 252 250 250 250 190 196 196 164 196 165 196 165 196 147 190 190 190 195 195 157 195 175 175 175 175 164 164 164 164 165 193 193 193 182 153 182 153 200 165 165 200 183 152 152 183 203 203 168 168 160 160 189 189 187 187 160 160 142 142 142 173 161 161 196 196 196 150 150 196 196 196 196 164 153 153 187 153 162 190 190 162 210 210 210 184 156 156 200 156 165 165 201 201 159 77 77 77 157 247 247 247 178 147 147 147 179 179 138 138 188 149 188 149 139 139 185 185 189 135 135 135 171 171 130 130 156 156 156 156 176 176 176 148 169 130 130 130 159 135 159 159 133 177 133 133 135 135 168 168 173 173 147 173 134 134 179 134 187 153 187 153 
163 185 163 185 173 173 173 148 184 184 155 155 189 189 189 48 27 47 47 47 54 74 74 54 31 31 19 31 64 64 94 94 85 69 69 85 52 52 52 167 198 198 177 198 24 24 57 57 65 65 65 65 55 55 29 29 61 61 61 38 28 28 59 59 83 94 94 94 194 116 194 194 205 174 205 205 170 170 204 170 166 166 189 189 199 199 199 175 60 60 60 163 192 252 252 252 190 190 190 190 196 196 164 196 196 196 165 165 190 147 190 190 195 157 157 157 207 207 207 207 194 194 194 194 165 165 193 193 153 153 182 153 165 165 165 165 183 152 183 183 203 203 168 168 160 160 189 160 187 160 187 160 173 142 142 142 161 196 196 196 150 150 150 196 164 196 196 196 187 153 187 153 190 162 162 162 210 210 184 184 200 200 156 200 165 165 201 165 159 159 77 77 157 247 247 247 178 147 147 178 138 138 138 179 149 149 188 149 139 185 139 185 135 189 135 135 130 171 130 130 124 124 124 124 176 148 176 148 169 130 169 130 159 135 135 135 133 177 133 177 168 135 135 135 147 173 147 173 179 179 134 134 153 153 187 153 
